P2
# Item (a): 10x menor, media de bloco
80 80
255
110 110 109 109 108 108 108 107 107 106 106 106 105 105 105 104 104
104 104 103 103 103 102 102 102 102 102 102 101 101 101 101 101 101
101 101 101 101 101 101 101 101 101 101 101 102 102 102 102 103 103
104 104 104 105 105 106 106 107 107 108 109 109 109 110 110 110 111
112 112 113 114 114 115 116 117 118 119 120 121 110 110 110 110 109
109 108 108 107 107 106 106 106 105 105 105 105 104 104 104 103 103
103 103 102 102 102 102 102 102 101 101 101 101 101 101 101 101 101
101 101 101 101 102 102 102 102 103 103 104 104 104 105 105 106 106
107 107 108 108 109 109 110 110 110 111 111 112 112 113 114 115 115
116 117 118 120 120 122 123 111 111 110 110 110 109 109 108 108 107
107 107 106 106 106 105 105 105 105 104 104 104 103 103 103 102 102
102 102 102 102 102 102 102 102 102 102 102 102 102 102 102 102 102
102 103 103 104 104 105 105 105 106 106 107 107 108 108 109 109 109
110 110 110 111 111 112 113 113 114 115 116 117 118 119 120 121 122
123 124 112 111 111 111 110 110 110 109 109 108 108 107 107 106 106
106 105 105 105 105 104 104 104 104 103 103 103 103 102 102 102 102
102 102 102 102 102 102 102 102 103 103 103 103 103 104 104 105 105
105 106 106 106 107 107 108 108 109 109 110 110 111 111 112 112 112
113 114 115 116 117 118 119 120 121 122 123 124 125 126 113 112 112
111 111 110 110 110 109 109 108 108 107 107 107 106 106 106 105 105
105 105 104 104 104 104 103 103 103 103 103 103 103 103 103 103 103
103 103 104 104 104 104 105 105 105 105 105 106 106 106 106 107 107
108 108 109 109 110 110 111 112 112 113 114 114 115 116 117 118 119
120 121 122 123 124 124 125 126 127 114 113 113 112 112 111 111 110
110 110 109 108 108 107 107 107 107 106 106 106 106 105 105 105 105
105 104 104 104 104 104 104 104 104 104 104 104 104 104 105 105 105
105 105 106 106 106 106 106 106 106 107 108 108 108 109 110 110 111
112 112 113 114 115 116 117 118 118 119 120 121 122 122 123 124 125
126 126 127 128 115 114 113 113 112 112 111 111 110 110 110 109 109
108 108 107 107 107 107 107 106 106 106 106 106 105 105 105 105 105
105 105 105 105 105 105 105 105 105 106 106 106 106 106 106 106 107
107 107 107 107 108 108 109 109 110 111 112 112 113 114 115 116 117
117 119 119 120 121 121 122 123 124 124 125 126 127 128 129 130 116
115 114 114 113 113 112 112 111 111 111 110 110 109 109 108 108 108
107 107 107 107 107 107 107 107 107 107 106 106 106 106 106 106 106
106 106 106 106 106 107 107 107 107 107 107 107 108 108 108 108 109
110 110 111 112 112 113 114 115 116 116 117 118 119 120 121 121 122
123 123 124 125 126 127 128 128 129 130 131 116 116 115 115 114 114
113 113 112 112 112 111 111 111 110 110 109 109 109 108 108 108 108
108 108 108 108 108 108 107 107 107 107 107 107 107 107 107 107 107
107 107 108 108 108 108 109 109 109 110 110 111 111 112 113 114 115
115 116 117 117 118 119 120 120 121 122 123 123 124 125 126 126 127
128 129 130 131 132 133 118 117 116 116 115 115 114 114 114 113 113
112 112 112 111 111 111 110 110 109 109 109 109 109 109 109 109 109
109 109 108 108 108 108 108 108 108 108 108 108 108 108 109 109 109
110 110 111 111 112 113 113 114 115 116 116 117 117 118 119 119 120
120 121 122 122 123 124 125 125 126 127 128 129 130 130 131 132 133
134 119 118 118 117 117 116 116 115 115 115 114 114 113 113 113 112
112 112 112 111 111 111 110 110 110 110 110 109 109 109 109 109 109
109 109 109 109 109 109 109 109 110 110 111 111 112 112 113 113 114
115 115 116 117 117 118 119 119 120 120 121 121 122 122 123 124 124
125 126 127 128 129 130 131 131 132 133 134 135 136 120 120 119 119
118 118 117 117 117 116 116 115 115 115 114 114 114 113 113 113 112
112 111 111 111 111 111 110 110 110 110 110 110 110 110 110 110 110
111 111 111 111 112 112 113 113 114 115 115 116 116 117 118 118 119
119 120 121 121 122 122 122 123 124 125 125 126 127 128 129 130 130
131 132 133 134 135 136 137 138 122 122 121 121 120 120 119 119 118
118 117 117 117 116 116 115 115 115 114 114 114 113 113 112 112 111
111 111 111 111 111 111 111 111 111 111 111 111 112 112 113 113 114
114 115 115 116 116 117 117 118 118 119 119 120 121 121 122 122 123
123 124 125 126 126 127 128 129 130 131 131 132 133 134 135 136 137
138 139 140 124 123 123 123 122 122 121 121 120 120 119 119 118 118
117 117 116 116 116 115 115 114 114 114 113 113 113 112 112 112 112
112 112 112 112 113 113 113 114 114 115 115 115 116 116 117 117 118
118 119 119 120 120 121 122 122 122 123 124 124 125 126 127 127 128
128 129 130 131 132 133 134 135 136 136 138 139 140 141 143 126 125
125 124 124 123 123 123 122 121 121 120 120 119 119 118 118 117 117
116 116 116 115 115 115 115 114 114 114 114 114 114 114 114 114 115
115 115 116 116 116 117 117 118 118 118 119 119 120 120 121 121 122
122 123 123 124 125 126 126 127 128 128 129 130 130 131 132 133 134
135 136 137 137 138 140 141 142 144 145 127 127 127 126 126 125 125
124 124 123 123 122 122 121 121 120 120 119 119 118 118 117 117 117
117 117 117 117 117 117 117 117 117 117 117 118 117 118 118 118 118
118 119 119 119 120 120 121 122 122 123 123 124 124 125 125 126 127
127 128 129 130 130 131 132 132 133 134 136 137 138 138 139 140 141
142 143 145 147 148 129 129 128 128 127 127 126 126 125 125 124 124
123 123 122 122 121 121 121 120 120 120 120 119 119 119 119 119 119
119 120 120 120 120 120 120 120 120 120 120 120 120 121 121 121 121
122 123 123 124 125 125 126 126 127 127 128 129 130 130 131 132 132
133 133 134 135 137 138 139 140 140 141 142 143 145 146 148 149 150
131 131 130 130 129 129 128 127 127 126 126 126 125 125 124 124 123
123 123 123 122 122 122 122 122 122 122 122 122 122 122 122 122 122
122 122 122 122 123 122 122 123 123 123 123 123 124 125 125 126 127
127 128 128 129 130 130 131 132 132 133 134 134 135 136 137 138 139
140 141 142 143 144 145 146 148 149 150 151 152 134 133 132 132 131
130 130 129 129 128 128 128 127 127 127 126 126 126 126 125 125 125
125 125 125 125 125 125 125 125 125 125 124 124 124 124 125 125 125
125 125 125 125 125 126 126 126 127 127 128 129 129 130 130 131 132
132 133 134 135 135 136 136 137 139 140 141 142 143 144 145 146 146
148 149 151 152 153 154 155 136 135 134 134 133 133 132 132 131 131
130 130 130 130 129 129 129 129 129 129 128 128 128 128 128 127 127
127 127 127 127 127 127 127 127 127 127 127 127 127 127 128 128 128
128 128 129 129 130 131 131 132 132 133 134 134 135 136 136 137 138
138 139 140 141 143 144 145 146 147 148 149 150 151 152 154 154 155
156 158 138 138 137 137 136 135 135 134 134 134 133 133 133 133 132
132 132 132 132 132 131 131 131 131 130 130 130 129 129 129 129 129
129 129 129 129 129 129 129 130 130 130 130 131 131 131 132 132 132
133 134 134 135 135 136 137 138 138 139 140 140 141 142 144 145 146
147 148 149 150 151 152 153 154 155 156 157 158 160 161 141 141 140
140 139 139 138 138 138 137 137 136 136 136 136 135 135 135 135 134
134 134 133 133 133 132 132 132 132 132 132 132 132 132 132 132 132
132 132 132 132 133 133 133 133 134 134 135 135 136 136 137 138 138
139 140 140 141 142 142 143 145 146 147 148 149 150 151 152 153 154
155 156 157 158 159 160 162 163 164 144 144 143 143 143 142 142 142
141 141 141 140 140 139 139 139 138 138 138 137 137 136 136 136 135
135 135 135 134 134 134 134 134 134 134 134 135 135 135 135 135 136
136 136 136 137 137 138 138 139 139 140 141 141 142 142 143 144 145
146 147 148 149 150 151 152 153 154 155 156 157 158 159 160 161 163
164 165 166 168 149 148 148 147 147 146 146 146 146 145 145 144 144
143 143 142 142 141 141 140 140 139 139 139 138 138 138 138 137 137
137 137 137 137 137 137 137 138 138 138 138 139 139 139 139 140 140
141 141 142 143 143 144 144 144 145 146 147 149 150 150 151 152 153
154 155 156 157 158 159 160 161 162 164 165 166 168 169 170 171 152
152 152 152 151 151 151 150 150 149 149 148 148 147 147 146 146 145
144 144 143 143 143 142 142 141 141 141 141 140 140 140 140 140 140
140 140 141 141 141 141 141 142 142 142 143 143 144 145 145 146 146
146 147 148 149 150 151 152 153 154 154 155 156 157 158 159 160 162
163 164 165 166 168 169 170 171 172 174 175 156 156 155 155 154 154
154 153 153 153 152 152 152 151 151 150 149 149 149 167 159 147 146
146 146 145 145 145 144 144 144 144 144 144 144 144 144 144 144 144
144 145 145 145 146 146 147 147 148 148 149 149 149 151 152 153 154
155 155 156 157 158 159 160 161 162 163 164 165 166 168 169 171 172
173 174 175 176 177 179 160 160 159 159 158 158 157 157 156 156 155
154 154 153 153 152 152 151 159 196 212 198 153 150 149 149 149 148
148 148 148 148 148 148 148 148 148 148 148 148 148 149 149 149 150
150 151 151 152 152 152 153 154 155 156 157 158 158 159 160 161 162
163 164 165 166 167 168 169 171 172 174 175 176 177 178 179 180 181
182 165 165 164 163 163 162 161 161 160 160 159 158 157 157 156 156
155 158 180 200 190 189 181 179 160 153 153 152 152 152 152 152 152
152 152 152 152 152 152 152 153 153 153 154 154 155 155 155 156 157
157 158 159 160 160 161 162 163 163 164 165 166 168 169 170 170 171
173 174 176 177 178 178 180 181 182 183 184 185 186 169 169 169 168
167 166 166 165 164 164 163 162 161 161 160 159 163 176 184 182 178
168 164 160 158 157 157 157 157 157 157 157 156 156 156 156 157 157
157 157 157 158 158 158 159 159 160 160 161 162 162 163 164 164 165
166 166 167 168 170 171 172 173 173 174 175 177 178 179 180 181 182
183 184 185 186 187 189 190 191 174 173 173 172 172 171 170 170 169
168 167 166 165 165 165 164 166 168 172 175 165 163 163 163 162 162
162 162 161 161 161 161 161 161 161 161 161 162 162 162 162 163 163
163 164 164 165 166 166 167 167 168 169 169 170 171 172 173 174 175
176 177 177 178 183 188 185 186 183 184 185 186 187 190 195 205 195
198 212 222 178 177 177 176 176 175 175 174 173 172 172 171 171 171
171 171 173 170 170 170 170 169 168 168 168 167 167 167 167 167 166
166 166 166 166 166 166 166 167 167 167 168 168 169 169 170 170 171
171 172 173 173 174 175 176 177 178 178 179 180 181 186 184 210 223
227 221 217 212 220 208 208 225 227 231 234 229 225 219 211 208 190
185 181 181 180 180 180 179 178 178 178 178 177 177 177 176 176 176
175 175 174 174 174 174 173 173 173 173 172 172 172 172 172 172 172
172 173 173 173 173 173 174 174 175 175 176 176 177 178 179 179 180
181 182 183 183 184 194 201 205 203 200 209 221 220 218 222 221 222
220 216 215 210 209 208 199 197 200 213 219 221 225 195 194 194 196
187 185 185 185 184 184 184 183 183 183 182 182 182 181 181 181 181
180 180 180 180 179 180 179 179 179 179 179 179 179 179 179 179 180
180 180 181 181 182 182 183 184 184 185 185 186 186 187 188 192 200
206 196 193 195 193 199 206 210 212 217 211 210 203 208 208 205 201
201 203 217 219 216 204 201 202 197 193 192 192 192 191 191 191 190
190 190 189 189 189 188 188 188 188 187 187 187 187 186 186 186 186
186 186 186 186 186 186 186 186 186 186 187 187 187 187 188 188 189
189 189 190 191 191 192 192 192 193 193 195 194 199 198 203 203 215
207 204 203 209 220 215 209 208 208 207 205 205 205 204 203 202 201
199 200 199 199 199 199 199 198 198 197 197 197 197 196 196 196 196
195 195 195 195 194 194 194 194 194 194 193 193 193 193 193 193 193
193 194 193 194 194 194 194 195 195 195 196 196 197 197 198 198 198
196 193 193 213 213 217 223 228 228 223 215 218 213 209 209 210 211
212 212 211 210 210 210 209 208 206 206 207 207 206 206 206 206 206
210 207 205 205 205 204 205 205 204 205 203 203 203 202 202 202 202
202 202 202 201 201 201 201 201 201 201 201 201 201 201 202 202 202
202 202 203 203 203 204 203 179 162 139 136 135 133 132 135 135 137
134 137 171 221 226 218 214 214 215 216 217 217 216 215 215 215 215
213 212 211 212 213 193 160 212 212 212 212 211 211 211 211 211 211
211 215 220 220 220 210 210 213 209 209 209 209 209 210 209 209 209
209 211 210 209 209 210 210 211 211 212 209 209 210 211 211 212 212
192 138 129 126 121 130 123 123 124 124 126 132 126 126 128 149 201
221 220 221 222 222 222 220 220 220 220 219 218 217 217 217 216 179
144 143 217 217 217 216 216 217 217 217 217 217 217 217 217 216 216
216 216 216 216 216 216 216 217 221 221 216 216 216 218 218 217 217
217 217 217 217 217 218 219 219 219 219 216 165 120 123 129 127 121
121 122 122 124 122 123 127 123 125 125 133 145 191 226 227 227 226
225 225 225 224 223 222 221 222 223 214 161 142 141 141 220 220 220
220 220 220 220 221 221 221 221 221 221 221 220 220 220 220 220 221
221 221 221 221 222 222 222 222 222 222 223 223 223 223 223 224 224
224 226 228 227 204 139 118 119 126 134 123 121 121 122 122 122 122
123 123 124 124 124 127 135 144 154 194 228 230 230 229 227 226 226
226 218 224 205 149 141 139 137 138 181 159 148 148 160 174 198 220
221 221 214 212 218 221 222 222 222 222 222 223 222 223 223 223 224
224 224 225 225 225 225 225 225 226 226 226 227 227 227 225 184 121
118 118 120 119 125 122 121 121 121 123 125 125 122 123 123 123 124
124 125 130 139 142 162 227 230 228 227 226 189 146 133 136 140 137
136 135 135 135 171 170 170 173 175 178 183 189 204 194 184 185 187
201 205 206 207 207 207 206 207 206 207 207 207 207 207 207 208 208
208 208 208 208 209 209 209 209 208 206 177 166 148 130 123 121 126
122 120 120 120 122 123 121 121 121 122 122 123 125 132 142 151 165
180 201 216 216 210 188 175 169 165 166 165 162 152 140 136 134 194
188 190 193 192 192 193 192 194 193 194 192 193 191 193 192 191 192
192 193 193 193 190 190 192 191 194 194 194 195 193 191 191 194 192
195 196 195 195 194 195 194 189 179 155 138 137 136 128 125 127 128
126 123 131 135 128 131 134 152 174 192 199 204 204 206 206 206 206
204 205 202 202 200 199 196 191 184 172 160 185 183 185 183 185 185
186 182 184 181 184 183 183 186 185 183 186 186 185 183 182 184 182
182 185 183 183 181 184 183 182 185 187 185 182 182 182 185 184 188
185 184 181 174 169 159 154 145 139 142 142 142 140 143 143 146 144
150 157 168 179 185 189 195 194 196 199 199 199 201 198 196 193 194
194 193 190 185 178 171 175 176 177 173 177 175 175 175 173 174 176
174 175 175 176 174 173 172 175 173 173 173 175 173 175 174 177 171
172 175 174 175 173 172 175 171 174 177 175 177 172 171 171 167 163
162 151 145 149 146 149 147 149 149 153 150 153 157 160 162 168 180
182 184 189 189 187 188 191 192 190 185 189 190 189 186 183 180 179
169 170 169 168 170 169 167 165 168 167 167 167 167 169 168 165 165
163 165 164 165 165 169 166 165 164 160 162 161 163 166 168 164 166
163 165 166 163 163 165 166 167 164 159 161 152 149 152 151 146 146
150 150 149 150 152 152 153 151 157 162 165 172 174 178 182 179 180
181 183 180 181 183 183 183 182 178 179 176 174 170 162 163 155 162
160 162 163 163 159 161 159 156 155 157 159 156 158 153 161 163 161
158 153 152 160 155 156 153 153 152 152 150 153 153 154 154 157 155
156 156 154 152 155 157 152 152 152 147 141 138 144 145 148 144 146
145 146 146 150 156 158 165 168 171 172 174 172 175 179 179 178 178
177 176 178 176 173 172 171 170 158 156 156 156 151 152 153 153 155
155 151 152 153 153 151 145 143 144 146 146 147 143 146 148 141 147
141 149 141 145 146 147 143 143 143 140 141 144 146 146 147 149 146
141 144 140 141 140 139 139 142 142 138 140 140 140 143 143 148 149
150 154 160 161 162 164 163 166 167 168 169 169 167 168 168 167 168
168 169 167 146 147 143 147 149 149 149 148 143 143 142 140 143 143
142 145 147 147 144 139 142 141 143 145 141 139 140 143 141 144 141
136 139 142 137 139 138 141 134 140 134 136 135 140 144 137 137 131
133 134 133 133 136 138 141 141 136 136 141 143 147 146 151 154 157
158 160 156 161 163 164 163 164 162 164 163 165 162 157 158 143 142
140 142 145 139 134 133 135 141 133 129 139 141 135 135 136 133 129
130 128 129 125 124 128 130 129 130 128 125 128 130 129 126 129 127
128 127 128 127 125 126 126 126 127 126 126 127 123 129 127 131 130
130 133 132 128 129 136 138 140 144 147 146 141 144 149 148 152 149
149 152 154 157 158 159 153 157 161 156 139 137 136 131 131 133 129
137 131 132 133 137 134 130 126 124 118 115 119 127 124 119 125 120
122 120 118 121 116 115 116 122 120 122 122 120 120 117 120 113 119
119 122 126 125 129 124 120 124 116 121 125 128 124 124 122 124 128
130 133 131 137 132 141 137 142 141 140 144 148 151 145 145 147 150
156 155 156 152 151 124 126 127 128 123 122 126 132 128 117 114 115
120 126 132 132 130 129 123 117 121 125 120 116 115 114 118 117 120
120 116 108 103 103 102 99 103 107 115 114 115 113 110 110 112 112
116 115 118 119 119 118 111 116 122 126 129 137 131 131 129 130 133
134 133 132 133 138 134 134 143 142 146 146 142 141 138 142 146 150
131 138 140 128 123 125 122 119 124 128 125 119 111 106 104 110 111
109 110 110 106 105 111 107 112 113 111 109 103 109 115 116 115 109
107 112 120 109 100 102 109 107 113 109 102 102 107 110 109 113 111
112 115 111 117 120 113 111 117 118 118 122 119 119 128 127 134 138
138 135 131 131 137 143 140 136 140 144 144 144 117 112 108 105 107
110 114 109 106 110 114 113 116 115 107 104 107 104 105 108 108 107
105 112 103 98 96 96 101 98 92 100 105 107 104 102 96 94 100
108 106 105 97 94 96 105 103 99 94 88 95 102 107 113 108 110
114 110 104 103 103 105 108 110 111 114 115 117 121 126 131 134 126
124 135 142 145 144 135 129 102 98 98 105 102 100 100 99 98 105
103 97 94 94 96 97 100 108 103 99 102 104 97 86 89 96 97
92 93 96 101 98 96 92 91 90 94 93 90 87 86 92 94 87
85 82 93 107 113 110 111 110 103 100 104 101 102 107 116 114 113
116 114 117 115 113 115 110 114 121 123 120 120 118 118 112 108 111
118 129 112 113 115 114 119 117 121 116 109 88 86 90 94 99 107
112 110 91 85 87 90 90 96 98 96 94 93 95 89 86 86 83
77 78 79 79 78 78 82 81 86 86 86 91 85 90 75 72 77
82 86 97 90 81 83 90 92 93 94 96 98 105 109 114 121 119
112 107 102 96 104 114 125 135 131 134 137 141 135 129 111 105 104
100 89 90 84 89 96 106 108 109 106 100 94 90 88 89 98 99
91 88 89 90 85 84 82 80 76 74 75 77 77 74 75 86 85
88 87 88 87 82 79 78 87 86 83 80 83 81 79 71 82 98
103 92 95 96 92 100 100 93 97 95 102 100 106 116 124 116 113
109 102 103 107 113 110 112 119 125 84 92 98 99 97 91 89 92
97 96 91 90 87 88 89 79 82 85 88 79 76 80 85 77 73
70 68 68 74 77 76 76 79 86 92 92 91 86 75 70 72 74
80 84 78 75 78 86 86 82 80 80 77 76 74 84 86 86 88
89 100 97 97 93 91 94 97 91 94 102 105 108 110 111 110 114
113 116 111 104 111 107 101 92 89 90 98 101 96 86 86 88 86
81 79 83 89 88 76 77 82 82 74 74 75 75 75 70 68 71
79 77 82 80 80 75 72 69 75 75 76 81 85 91 88 89 91
81 75 76 74 77 74 78 78 76 73 71 76 74 75 85 87 87
95 93 89 91 88 87 89 89 97 99 105 109 115 118 122 124 97
91 87 91 101 98 92 84 78 77 72 69 69 70 75 80 76 75
79 78 71 64 58 61 61 60 63 67 75 82 79 83 69 62 57
56 57 69 74 73 72 73 68 66 71 69 66 73 81 89 85 83
80 76 78 72 74 84 86 88 87 80 78 79 87 87 85 86 88
89 93 88 84 87 87 89 94 105 105 109 82 86 90 83 77 80
73 67 71 67 72 78 78 78 77 74 70 71 69 69 68 65 68
64 67 72 76 75 73 72 67 59 63 65 65 60 62 63 54 54
53 50 51 57 63 60 59 59 60 70 81 84 83 80 76 77 84
75 69 74 78 81 83 81 79 78 84 87 90 92 89 96 101 96
89 84 84 86 96 103 71 68 72 76 70 66 67 69 65 64 62
60 63 64 59 64 70 67 66 57 57 61 65 71 73 75 66 65
65 58 56 51 53 55 59 64 63 59 59 62 63 66 72 63 61
67 68 71 67 61 61 60 61 61 66 69 71 69 70 74 76 73
73 66 70 77 77 69 72 85 96 95 88 90 92 98 94 92 87
84 87 84 78 73 74 78 75 76 72 71 71 70 72 76 80 71
63 60 58 60 67 70 67 71 70 59 62 65 63 54 53 60 62
67 65 64 65 62 64 66 61 57 53 54 56 60 64 64 59 63
63 65 63 70 67 64 65 69 70 62 58 56 58 68 65 66 74
88 87 77 76 75 85 92 94 92 93 91 93 90 80 73 73 75
76 72 70 66 76 82 79 79 70 60 60 65 60 60 63 66 67
69 77 69 57 60 60 49 49 57 59 64 65 60 56 58 61 57
51 48 54 60 63 60 64 67 61 59 63 58 62 64 60 58 60
62 64 67 71 71 66 69 74 73 79 77 73 68 80 92 89 88
85 86 86 86 91 96 95 96 59 58 61 57 56 60 66 67 59
57 54 52 55 63 65 64 56 51 54 52 51 51 48 49 49 46
50 56 60 56 43 37 35 37 42 41 41 41 46 50 50 48 49
47 43 40 45 51 53 50 50 51 54 52 48 50 53 50 51 59
71 66 67 65 63 66 71 71 66 66 69 75 76 74 75 84 85
78 76 89 68 68 70 74 75 72 68 71 68 66 67 78 76 69
63 52 54 56 53 53 59 46 43 42 43 48 48 48 45 37 41
40 46 46 39 38 42 41 42 45 45 49 46 49 52 53 56 52
49 54 54 49 55 61 62 59 57 59 58 60 56 60 62 68 69
66 62 69 66 65 71 70 73 74 70 64 68 79 81 75 63 62
61 69 67 72 66 59 58 63 66 59 61 56 49 47 52 53 50
45 35 38 42 46 48 49 48 41 36 37 43 45 43 42 42 44
42 42 45 42 41 42 48 54 51 55 47 46 50 47 48 48 51
57 58 61 63 62 58 58 62 63 65 65 73 71 70 65 67 70
63 67 69 73 88 82 73 69 77 84 57 56 56 55 66 67 66
64 59 54 50 57 58 53 52 60 52 45 38 41 50 51 52 52
51 52 47 44 52 54 48 52 47 43 51 52 48 42 37 38 44
44 46 43 47 47 48 51 46 50 45 45 44 48 52 49 47 47
46 49 42 40 39 41 44 54 62 71 70 68 72 71 69 64 60
67 73 69 68 77 58 58 60 67 66 61 56 56 57 59 57 51
51 49 50 41 39 42 52 56 53 50 49 51 48 43 45 46 49
55 59 55 52 46 39 37 36 40 35 31 30 33 33 34 38 44
48 51 47 38 41 42 46 44 45 46 45 46 40 39 48 50 43
40 42 41 41 44 56 60 69 68 66 63 58 59 61 63 63 65
63 63 66 62 55 51 57 59 61 57 52 47 39 37 39 39 44
47 47 47 45 51 52 44 47 44 41 37 34 36 37 36 39 45
42 37 34 33 41 46 42 36 32 30 29 30 30 32 37 37 40
43 38 39 43 46 50 47 49 46 43 42 48 51 44 45 40 39
39 43 40 42 55 70 74 71 68 65 66 57 66 75 67 53 48
48 47 49 47 47 48 42 43 46 46 47 55 53 51 54 51 46
43 49 45 44 40 37 42 43 41 41 37 39 35 37 34 35 32
33 38 39 33 35 33 29 31 32 33 45 48 41 39 36 43 46
47 47 50 52 48 46 48 46 50 46 42 41 39 42 47 46 42
41 50 61 68 69 63 68 67 52 50 49 48 45 43 43 42 41
42 45 48 51 50 48 45 43 43 41 41 44 43 41 36 33 38
49 48 40 43 46 41 33 37 38 34 30 31 32 35 34 37 33
36 38 33 33 35 31 36 42 46 44 38 37 36 35 39 41 53
52 48 45 51 52 53 49 46 39 34 37 38 42 45 46 53 67
74 73 46 45 45 45 44 48 46 45 47 51 47 43 42 39 40
41 40 36 36 36 39 40 36 29 30 32 32 32 35 42 41 37
36 32 30 31 32 31 26 25 24 26 31 33 31 29 33 32 33
34 34 34 33 34 33 31 36 36 34 34 35 38 42 48 49 49
47 46 50 51 47 38 36 36 34 37 40 43 49 59 47 47 49
51 50 44 43 45 45 41 44 42 39 45 41 34 35 40 38 37
39 33 28 30 30 29 31 38 37 33 31 32 32 30 31 31 29
29 32 24 20 22 23 25 28 28 26 30 28 26 26 26 27 30
32 30 33 37 35 33 31 33 31 35 39 48 55 56 47 52 56
53 49 41 42 39 39 42 43 44 51 51 48 44 44 44 46 40
38 40 39 44 40 34 33 38 38 36 39 39 32 30 30 30 31
33 35 34 31 30 29 29 31 32 31 29 31 28 26 30 27 25
25 24 22 22 24 21 21 24 24 25 25 27 27 28 29 32 31
30 28 33 32 30 29 29 36 42 48 48 56 58 53 50 45 41
37 37 41 45 41 39 37 42 43 46 38 38 41 38 36 33 31
33 38 45 40 40 36 28 27 29 27 32 38 36 37 31 30 31
30 26 28 32 27 26 28 32 29 31 34 28 25 23 24 24 26
23 23 23 23 24 27 25 28 27 27 29 30 29 28 26 31 31
30 28 29 35 38 47 48 58 65 61 58 54 55 47 44 42 42
45 50 46 45 40 41 41 38 38 38 35 36 38 36 28 27 28
28 30 29 31 36 32 27 28 26 24 26 27 24 24 27 29 33
28 29 31 31 30 28 28 26 29 29 25 25 25 24 24 24 23
23 23 29 36 33 33 34 33 31 33 34 35 34 34 34 35 40
38 44 41 48 58 60 62 60 56 53 52 48 47 41 44 38 37
38 38 34 32 33 33 35 32 24 25 31 29 26 27 31 30 28
26 26 27 24 25 23 23 25 29 30 30 32 35 31 30 30 33
36 35 33 31 31 27 25 28 27 24 24 23 22 23 24 24 29
34 41 41 40 41 39 37 35 36 33 33 35 37 38 50 48 46
47 46 46 43 41 45 49 45 46 37 35 36 37 34 31 30 28
30 26 25 29 33 30 27 30 30 25 23 24 25 28 26 22 22
23 24 29 32 26 29 30 27 29 32 35 35 32 33 37 32 30
29 28 27 27 27 26 23 22 24 23 25 27 31 35 41 43 39
39 38 46 42 40 36 31 33 33 30 37 45 51 54 52 52 49
42 42 41 34 32 33 37 36 30 31 33 32 28 30 32 32 31
31 30 31 28 24 24 24 23 24 24 24 24 24 23 24 24 26
25 26 26 26 27 28 26 29 29 28 27 27 30 23 22 24 22
21 20 21 23 25 24 24 24 27 32 37 39 38 38 36 44 45
37 38 35 38 40 33 32 31 37 44 49 54 52 39 32 33 33
35 35 33 37 36 32 33 30 33 34 36 29 31 31 30 26 27
24 23 24 24 27 27 26 25 24 23 24 25 22 22 27 30 31
30 31 27 28 28 28 27 23 24 22 20 22 20 23 22 23 22
19 19 22 23 25 30 31 39 42 42 41 44 44 40 42 39 44
50 45 43 37 34 40 44 50
