P2
# 480x320, bilinear
480 320
255
110 110 110 110 110 110 110 109 109 109 109 109 109 109 109 109 109
109 109 109 109 109 108 108 108 108 108 108 108 108 108 108 108 108
108 108 108 107 107 107 107 107 107 107 107 107 107 107 106 106 106
106 106 106 106 106 106 106 106 106 106 106 106 106 106 105 105 104
105 105 105 105 105 105 105 105 105 105 105 105 105 105 105 105 105
105 105 105 105 104 104 104 104 104 104 104 104 104 104 104 104 104
104 104 104 104 104 104 104 104 104 104 103 102 102 103 103 103 103
103 103 103 103 103 103 103 103 103 103 103 103 102 102 102 101 101
102 102 102 102 102 102 102 102 102 102 102 102 102 102 102 102 102
102 102 102 102 102 102 102 102 101 101 101 101 101 101 101 101 101
101 101 101 101 101 101 101 101 101 101 101 101 101 101 101 101 101
101 101 101 101 101 101 101 101 101 101 101 101 101 101 101 101 101
101 101 101 101 101 101 101 101 101 101 101 101 101 101 101 101 101
101 101 101 101 101 101 101 101 101 101 101 101 101 101 101 101 101
101 101 101 101 101 101 101 101 101 101 101 101 101 101 101 101 101
101 101 101 101 101 101 101 101 101 101 101 101 101 101 101 101 101
101 101 101 101 102 102 102 102 102 102 102 102 102 102 102 102 102
102 102 102 102 102 102 102 103 103 103 103 103 103 103 103 103 103
103 103 103 103 104 104 104 104 104 104 104 104 104 104 104 104 104
104 104 104 105 105 105 105 105 105 105 105 105 105 105 105 105 105
106 106 106 106 106 106 106 106 106 106 107 107 107 107 107 107 107
107 107 107 107 107 108 108 108 108 107 108 108 108 108 109 109 109
109 109 108 108 108 109 109 110 110 109 110 109 109 109 109 109 109
111 111 111 110 110 110 110 110 110 110 111 111 111 111 111 111 111
111 111 112 112 112 112 112 112 112 112 112 112 113 113 113 113 113
113 113 113 113 113 114 114 114 114 114 114 114 114 115 115 115 115
115 115 115 115 115 116 116 116 116 116 116 116 117 117 117 117 117
117 118 118 118 118 118 118 119 119 119 119 119 119 120 120 120 120
119 120 121 121 110 110 110 110 110 110 110 110 110 109 109 109 109
109 109 109 109 109 109 109 109 109 109 109 109 108 108 108 108 108
108 108 108 108 108 108 108 108 108 107 107 107 107 107 107 107 107
107 107 107 106 106 106 106 106 106 106 106 106 106 106 106 106 106
106 106 106 106 105 105 105 105 105 105 105 105 105 105 105 105 105
105 105 105 105 105 105 105 105 105 105 104 104 104 104 104 104 104
104 104 104 104 104 104 104 104 104 104 104 104 104 104 104 104 102
103 103 103 103 103 103 103 103 103 103 103 103 103 103 103 103 103
103 102 102 102 102 102 102 102 102 102 102 102 102 102 102 102 102
102 102 102 102 102 102 102 102 102 102 102 102 102 102 102 101 101
101 101 101 101 101 101 101 101 101 101 101 101 101 101 101 101 101
101 101 101 101 101 101 101 101 101 101 101 101 101 101 101 101 101
101 101 101 101 101 101 101 101 101 101 101 101 101 101 101 101 101
101 101 101 101 101 101 101 101 101 101 101 101 101 101 101 101 101
101 101 101 101 101 101 101 101 101 101 101 101 101 101 101 101 101
101 101 101 101 101 101 101 101 101 101 101 101 101 101 101 101 101
100 101 100 101 101 101 102 102 102 102 102 102 102 102 102 102 102
102 102 102 102 102 102 102 102 102 103 103 103 103 103 103 103 103
103 103 103 103 103 103 104 104 104 104 104 104 104 104 104 104 104
104 104 104 104 105 105 105 105 105 105 105 105 105 105 105 105 105
105 106 106 106 106 106 106 106 106 106 106 107 107 107 107 107 107
107 107 107 107 107 107 108 108 108 108 108 108 108 108 108 109 109
109 109 109 108 108 108 108 109 109 110 110 110 110 110 109 109 109
109 109 109 110 111 111 110 110 110 110 110 110 110 111 111 111 111
111 111 111 111 111 112 112 112 112 112 112 112 112 112 112 113 113
113 113 113 113 113 113 113 113 114 114 114 114 114 114 114 114 115
115 115 115 115 115 115 115 116 116 116 116 116 116 116 116 117 117
117 117 117 117 118 118 118 118 118 118 119 119 119 119 119 120 120
120 120 120 120 121 121 120 121 110 110 110 110 110 110 110 110 110
110 110 110 110 109 109 109 109 109 109 109 109 109 109 109 109 109
109 108 108 108 108 108 108 108 108 108 108 108 108 108 108 107 107
107 107 107 107 107 107 107 107 107 107 107 106 106 106 106 106 106
106 106 106 106 106 106 106 106 106 106 106 105 105 105 105 105 105
105 105 105 105 105 105 105 105 105 105 105 105 105 105 105 105 105
104 104 104 104 104 104 104 104 104 104 104 104 104 104 104 104 104
104 104 104 104 104 103 102 102 103 103 103 103 103 103 103 103 103
103 103 103 103 103 103 103 103 103 102 102 102 102 102 102 102 102
102 102 102 102 102 102 102 102 102 102 102 102 102 102 102 102 102
102 102 102 102 102 101 101 101 101 101 101 101 101 101 101 101 101
101 101 101 101 101 101 101 101 101 101 101 101 101 101 101 101 101
101 101 101 101 101 101 101 101 101 101 101 101 101 101 101 101 101
101 101 101 101 101 101 101 101 101 101 101 101 101 101 101 101 101
101 101 101 101 101 101 101 101 101 101 101 101 101 101 101 101 101
101 101 101 101 101 101 101 101 101 100 101 100 101 100 100 100 100
100 100 100 100 100 102 102 102 102 102 102 102 102 102 102 102 102
102 102 102 102 102 102 102 102 102 102 103 103 103 103 103 103 103
103 103 103 103 103 103 103 103 104 104 104 104 104 104 104 104 104
104 104 104 104 104 105 105 105 105 105 105 105 105 105 105 105 105
105 106 106 106 106 106 106 106 106 106 106 106 107 107 107 107 107
107 107 107 107 107 107 107 108 108 108 108 108 108 108 108 108 108
108 109 109 109 109 109 109 109 109 109 109 109 110 110 109 109 109
109 109 109 110 110 111 111 111 110 110 110 110 110 110 110 111 111
111 111 111 111 111 111 111 111 112 112 112 112 112 112 112 112 113
113 113 113 113 113 113 113 113 114 114 114 114 114 114 114 114 114
114 115 115 115 115 115 115 115 115 116 116 116 116 116 116 116 116
117 117 117 117 117 117 118 118 118 118 119 119 119 119 119 119 120
120 120 120 120 120 121 121 121 121 121 121 122 110 110 110 110 110
110 110 110 110 110 110 110 110 110 110 109 109 109 109 109 109 109
109 109 109 109 109 109 109 109 108 108 108 108 108 108 108 108 108
108 108 108 108 107 107 107 107 107 107 107 107 107 107 107 107 106
106 106 106 106 106 106 106 106 106 106 106 106 106 106 106 106 106
105 105 105 105 105 105 105 105 105 105 105 105 105 105 105 105 105
105 105 105 105 105 105 104 104 104 104 104 104 104 104 104 104 104
104 104 104 104 104 104 104 104 104 104 104 103 101 103 103 103 103
103 103 103 103 103 103 103 103 103 103 103 103 103 103 103 102 102
102 102 102 102 102 102 102 102 102 102 102 102 102 102 102 102 102
102 102 102 102 102 102 102 102 102 102 102 101 101 101 101 101 101
101 101 101 101 101 101 101 101 101 101 101 101 101 101 101 101 101
101 101 101 101 101 101 101 101 101 101 101 101 101 101 101 101 101
101 101 101 101 101 101 101 101 101 101 101 101 101 101 101 101 101
101 101 101 101 101 101 101 101 101 101 101 101 101 101 101 101 101
101 101 101 101 101 101 101 101 101 101 100 100 100 100 100 100 100
100 100 100 100 100 102 102 102 102 102 102 102 102 102 102 102 102
102 102 102 102 102 102 102 102 102 102 102 102 102 103 103 103 103
103 103 103 103 103 103 103 103 104 104 104 104 104 104 104 104 104
104 104 104 104 104 104 105 105 105 105 105 105 105 105 105 105 105
105 106 106 105 106 106 106 106 106 106 106 106 106 106 107 107 107
107 107 107 107 107 107 107 106 107 108 108 108 108 108 108 108 108
108 108 108 109 109 109 109 109 109 109 109 108 109 109 110 109 110
110 109 109 109 109 109 110 111 111 110 111 110 110 110 110 110 110
110 111 111 111 111 111 111 111 111 111 111 112 112 112 112 112 112
112 112 113 113 113 113 113 113 113 113 113 114 114 114 114 114 114
114 114 114 115 115 115 115 115 115 115 115 116 116 116 116 116 116
116 116 117 117 118 117 117 118 118 118 118 118 118 119 119 119 119
120 120 120 120 120 120 120 120 121 121 121 121 121 122 122 122 110
110 110 110 110 110 110 110 110 110 110 110 110 110 110 110 110 110
109 109 109 109 109 109 109 109 109 109 109 109 109 109 108 108 108
108 108 108 108 108 108 108 108 108 108 107 107 107 107 107 107 107
107 107 107 107 107 106 106 106 106 106 106 106 106 106 106 106 106
106 106 106 106 106 106 106 105 105 105 105 105 105 105 105 105 105
105 105 105 105 105 105 105 105 105 105 105 105 105 104 104 104 104
104 104 104 104 104 104 104 104 104 104 104 104 104 104 104 104 104
102 102 103 103 102 103 103 103 103 103 103 103 103 103 103 103 103
103 103 103 103 102 102 102 102 102 102 102 102 102 102 102 102 102
102 102 102 102 102 102 102 102 102 102 102 102 102 102 102 102 102
102 102 101 101 101 101 101 101 101 101 101 101 101 101 101 101 101
101 101 101 101 101 101 101 101 101 101 101 101 101 101 101 101 101
101 101 101 101 101 101 101 101 101 101 101 101 101 101 101 101 101
101 101 101 101 101 101 101 101 101 101 101 101 101 101 101 101 101
101 101 101 101 101 101 101 101 101 101 101 100 100 100 100 101 101
100 100 100 100 100 101 102 102 102 102 102 102 102 102 102 102 102
102 102 102 102 102 102 102 102 102 102 102 102 103 103 103 103 103
103 103 103 103 103 103 103 103 103 103 103 104 104 104 104 104 104
104 104 104 104 104 104 104 105 105 105 105 105 105 105 105 105 105
105 105 106 106 106 106 106 106 106 106 106 106 106 106 107 107 107
107 107 107 107 107 107 107 107 107 107 107 108 108 108 108 108 108
108 108 108 108 109 109 109 109 109 109 109 109 109 109 109 110 110
110 110 110 109 109 109 109 109 109 110 111 111 111 110 110 110 110
110 110 110 111 111 111 111 111 111 111 111 111 111 112 112 112 112
112 112 112 112 113 113 113 113 113 113 113 113 113 113 114 114 114
114 114 114 114 114 115 115 115 115 115 115 115 115 116 116 116 116
116 116 116 117 117 117 117 117 117 118 118 118 118 118 119 119 119
119 119 119 120 120 120 120 120 120 121 121 121 121 121 122 122 122
122 122 122 111 110 110 110 110 110 110 110 110 110 110 110 110 110
110 110 110 110 110 110 109 109 109 109 109 109 109 109 109 109 109
109 109 109 108 108 108 108 108 108 108 108 108 108 108 108 108 108
107 107 107 107 107 107 107 107 107 107 107 106 106 106 106 106 106
106 106 106 106 106 106 106 106 106 106 106 106 106 106 105 105 105
105 105 105 105 105 105 105 105 105 105 105 105 105 105 105 105 105
105 105 104 104 104 104 104 104 104 104 104 104 104 104 104 104 104
104 104 104 104 104 103 103 103 103 103 103 103 103 103 103 103 103
103 103 103 103 103 103 103 103 103 102 102 102 102 102 102 102 102
102 102 102 102 102 102 102 102 102 102 102 102 102 102 102 102 102
102 102 102 102 102 102 102 102 101 101 101 101 101 101 101 101 101
101 101 101 101 101 101 101 101 101 101 101 101 101 101 101 101 101
101 101 101 101 101 101 101 101 101 101 101 101 101 101 101 101 101
101 101 101 101 101 101 101 101 101 101 101 101 101 101 101 101 101
101 101 101 101 101 101 101 101 101 101 101 100 100 100 100 100 100
100 100 101 101 100 102 102 102 102 102 102 102 102 102 102 102 102
102 102 102 102 102 102 102 102 102 102 102 102 102 103 103 103 103
103 103 103 103 103 103 103 103 103 103 103 103 104 104 104 104 104
104 104 104 104 104 104 104 104 104 105 105 105 105 105 105 105 105
105 105 105 105 106 106 106 106 106 106 106 106 106 106 106 106 107
107 107 107 107 107 107 107 107 107 107 107 107 107 108 108 108 108
108 108 108 108 108 108 109 109 109 109 109 109 108 109 109 109 109
109 110 110 110 110 110 110 109 109 109 110 110 111 111 111 111 110
110 110 110 110 110 110 111 111 111 111 111 111 111 111 111 111 112
112 112 112 112 112 112 112 113 113 113 113 113 113 113 113 113 114
114 114 114 114 114 114 114 115 115 115 115 115 115 115 115 116 116
116 116 116 116 116 117 117 117 117 117 117 118 118 118 118 118 119
119 119 119 119 119 120 120 120 120 120 120 121 121 121 121 121 122
122 122 122 122 122 123 123 111 111 111 111 111 110 110 110 110 110
110 110 110 110 110 110 110 110 110 110 110 110 110 110 109 109 109
109 109 109 109 109 109 109 109 109 108 108 108 108 108 108 108 108
108 108 108 108 108 107 107 107 107 107 107 107 107 107 107 107 107
107 106 106 106 106 106 106 106 106 106 106 106 106 106 106 106 106
106 106 106 106 105 105 105 105 105 105 105 105 105 105 105 105 105
105 105 105 105 105 105 105 105 105 104 104 104 104 104 104 104 104
104 104 104 104 104 104 104 104 104 104 104 104 104 103 103 103 103
103 103 103 103 103 103 103 103 103 103 103 103 103 103 103 102 102
102 102 102 102 102 102 102 102 102 102 102 102 102 102 102 102 102
102 102 102 102 102 102 102 102 102 102 102 102 102 102 102 102 102
102 102 101 101 101 101 101 101 101 101 101 101 101 101 101 101 101
101 101 101 101 101 101 101 101 101 101 101 101 101 101 101 101 101
101 101 101 101 101 101 101 101 101 101 101 101 101 101 101 101 101
101 101 101 101 101 101 101 101 101 101 100 101 101 100 100 100 100
100 101 102 102 102 102 102 102 102 102 102 102 102 102 102 102 102
102 102 102 102 102 101 101 101 101 101 101 102 102 102 103 103 103
103 103 103 103 103 103 103 103 102 103 103 103 103 104 104 104 104
104 104 104 104 104 104 104 104 105 105 105 105 105 105 105 105 105
105 105 105 105 105 106 106 106 106 106 106 106 106 106 106 106 106
106 107 106 107 107 107 107 107 107 107 107 107 107 108 108 108 108
108 108 108 108 108 108 108 109 109 109 109 109 109 109 109 109 109
109 109 109 110 109 110 110 109 109 109 109 110 110 110 111 111 111
111 110 110 110 110 110 110 111 111 111 111 111 111 111 111 111 111
111 112 112 112 112 112 112 112 112 113 113 113 113 113 113 113 113
114 114 114 114 114 114 114 114 114 115 115 115 115 115 115 115 116
116 116 116 116 116 116 117 117 117 117 117 118 118 118 118 118 118
119 119 119 119 119 120 120 120 119 120 120 120 121 121 121 121 121
122 122 122 122 122 122 123 123 123 123 123 111 111 111 111 111 111
110 110 110 110 110 110 110 110 110 110 110 110 110 110 110 110 110
110 110 109 109 109 109 109 109 109 109 109 109 109 109 109 109 108
108 108 108 108 108 108 108 108 108 108 108 108 107 107 107 107 107
107 107 107 107 107 107 107 106 106 106 106 106 106 106 106 106 106
106 106 106 106 106 106 106 106 106 106 105 105 105 105 105 105 105
105 105 105 105 105 105 105 105 105 105 105 105 105 105 105 104 104
104 104 104 104 104 104 104 104 104 104 104 104 104 104 104 104 104
104 103 103 103 103 103 103 103 103 103 103 103 103 103 103 103 103
103 103 103 103 103 102 102 102 102 102 102 102 102 102 102 102 102
102 102 102 102 102 102 102 102 102 102 102 102 102 102 102 102 102
102 102 102 102 102 102 102 102 102 101 101 101 101 101 101 101 101
101 101 101 101 101 101 101 101 101 101 101 101 101 101 101 101 101
101 101 101 101 101 101 101 101 101 101 101 101 101 101 101 101 101
101 101 101 101 101 101 101 101 101 101 101 101 101 100 100 101 101
100 102 102 102 102 102 102 102 102 102 102 102 102 102 102 102 102
102 102 101 102 101 101 101 101 101 101 101 101 101 102 102 103 103
103 103 103 103 103 103 103 103 103 103 103 103 103 104 104 104 104
104 104 104 104 104 104 104 104 104 105 105 105 105 105 105 105 105
105 105 105 105 105 105 105 106 106 106 106 106 106 106 106 106 106
106 106 107 107 107 107 107 107 107 107 107 107 107 107 108 108 108
108 108 108 108 108 108 108 108 108 109 109 109 109 109 109 109 109
109 109 109 109 109 110 110 110 110 110 109 109 109 110 110 110 110
111 111 111 111 110 110 111 111 110 110 110 111 111 111 111 111 111
111 111 111 111 112 112 112 112 112 112 112 113 113 113 113 113 113
113 113 113 114 114 114 114 114 114 114 115 115 115 115 115 115 115
115 116 116 116 116 116 116 117 118 117 117 117 117 117 118 118 118
118 118 119 119 119 119 119 120 120 120 120 120 120 121 121 121 121
121 121 122 122 122 122 122 122 123 123 123 123 123 124 124 111 111
111 111 111 111 111 111 111 111 110 110 110 110 110 110 110 110 110
110 110 110 110 110 110 110 110 110 109 109 109 109 109 109 109 109
109 109 109 109 109 108 108 108 108 108 108 108 108 108 108 108 108
107 107 107 107 107 107 107 107 107 107 107 107 107 106 106 106 106
106 106 106 106 106 106 106 106 106 106 106 106 106 106 106 106 105
105 105 105 105 105 105 105 105 105 105 105 105 105 105 105 105 105
105 105 105 105 104 104 104 104 104 104 104 104 104 104 104 104 104
104 104 104 104 104 104 104 103 103 103 103 103 103 103 103 103 103
103 103 103 103 103 103 103 103 103 103 103 102 102 102 102 102 102
102 102 102 102 102 102 102 102 102 102 102 102 102 102 102 102 102
102 102 102 102 102 102 102 102 102 102 102 102 102 102 102 102 102
102 102 102 101 101 101 101 101 101 101 101 101 101 101 101 101 101
101 101 101 101 101 101 101 101 101 101 101 101 101 101 101 101 101
101 101 101 101 101 101 101 101 101 101 101 101 102 102 102 102 102
102 102 102 102 102 102 102 102 102 102 102 102 102 102 102 102 102
102 102 102 101 101 101 102 101 101 101 101 101 101 102 103 103 103
103 103 103 103 103 103 103 103 103 103 102 102 104 104 104 104 104
104 104 104 104 104 104 104 104 104 104 105 105 105 105 105 105 104
105 105 105 105 105 105 104 104 105 106 106 106 106 106 106 106 106
106 106 106 106 107 107 107 107 107 107 107 107 107 107 107 107 108
108 108 108 108 108 108 108 108 108 108 108 109 109 109 109 109 109
109 109 109 109 109 109 109 110 110 110 110 110 110 109 109 110 110
110 111 111 111 111 111 111 110 110 110 110 110 110 112 111 111 111
111 111 111 111 111 111 112 112 112 112 113 112 112 113 113 113 113
113 113 113 113 113 114 114 114 114 114 114 114 115 115 115 115 115
114 116 116 116 116 116 116 116 116 117 117 117 117 117 117 118 118
118 118 119 119 119 119 119 119 120 120 120 120 120 120 120 121 121
121 121 121 122 122 122 122 122 122 123 123 123 123 123 123 124 124
124 124 111 111 111 111 111 111 111 111 111 111 111 110 110 110 110
110 110 110 110 110 110 110 110 110 110 110 110 110 110 110 110 109
109 109 109 109 109 109 109 109 109 109 108 108 108 108 108 108 108
108 108 108 108 108 108 107 107 107 107 107 107 107 107 107 107 107
107 106 106 106 106 106 106 106 106 106 106 106 106 106 106 106 106
106 106 106 105 105 105 105 105 105 105 105 105 105 105 105 105 105
105 105 105 105 105 105 105 105 105 105 104 104 104 104 104 104 104
104 104 104 104 104 104 104 104 104 104 104 104 104 103 103 103 103
103 103 103 103 103 103 103 103 103 103 103 103 103 103 103 103 103
102 102 102 102 102 102 102 102 102 102 102 102 102 102 102 102 102
102 102 102 102 102 102 102 102 102 102 102 102 102 102 102 102 102
102 102 102 102 102 102 102 102 102 102 102 102 102 102 102 102 102
101 101 101 101 101 101 101 101 101 101 101 101 101 101 101 101 101
101 101 101 101 101 101 102 102 102 102 102 102 102 102 102 102 102
102 102 102 102 102 102 102 102 102 102 102 102 102 102 102 102 102
102 102 102 102 102 101 101 101 101 101 102 102 102 103 103 103 103
103 103 103 103 103 103 103 103 103 103 102 102 103 104 104 104 104
104 104 104 104 104 104 104 104 104 104 104 104 105 105 105 105 105
105 105 105 105 105 105 105 105 105 105 106 106 106 106 106 106 106
106 106 106 106 106 106 107 107 107 107 107 107 107 107 107 107 107
107 108 108 108 108 108 108 108 108 108 108 108 108 109 109 109 109
109 109 109 109 109 109 109 109 109 109 110 110 110 110 110 110 109
110 110 109 110 110 111 111 111 111 110 110 110 110 110 110 110 110
111 111 111 111 111 111 111 111 111 112 112 112 112 112 112 113 113
113 113 113 113 113 113 113 114 114 114 114 114 114 114 115 115 115
115 115 116 116 117 116 116 116 116 116 117 117 117 117 117 117 118
118 118 118 118 119 119 119 119 119 120 120 120 120 120 120 120 121
121 121 121 121 122 122 122 122 122 122 122 123 123 123 123 123 124
124 124 124 124 124 124 112 111 111 111 111 111 111 111 111 111 111
111 111 111 110 110 110 110 110 110 110 110 110 110 110 110 110 110
110 110 110 110 110 109 109 109 109 109 109 109 109 109 109 109 109
108 108 108 108 108 108 108 108 108 108 108 108 108 107 107 107 107
107 107 107 107 107 107 107 107 107 106 106 106 106 106 106 106 106
106 106 106 106 106 106 106 106 106 106 106 106 105 105 105 105 105
105 105 105 105 105 105 105 105 105 105 105 105 105 105 105 105 105
104 104 104 104 104 104 104 104 104 104 104 104 104 104 104 104 104
104 104 104 103 103 103 103 103 103 103 103 103 103 103 103 103 103
103 103 103 103 103 103 103 103 102 102 102 102 102 102 102 102 102
102 102 102 102 102 102 102 102 102 102 102 102 102 102 102 102 102
102 102 102 102 102 102 102 102 102 102 102 102 102 102 102 102 102
102 102 102 102 102 102 102 102 102 102 102 102 102 102 102 102 102
102 102 102 102 102 102 102 102 102 102 102 102 102 102 102 102 102
102 102 102 102 102 102 102 102 102 102 102 102 102 102 102 102 102
102 102 102 101 101 101 101 101 101 101 102 102 103 103 103 103 103
103 103 102 103 103 103 102 102 102 102 103 104 104 104 104 104 104
104 104 104 104 104 104 104 104 104 104 104 105 105 105 105 105 105
105 105 105 105 105 105 104 105 105 105 106 106 106 106 106 106 106
106 106 106 106 106 106 106 106 106 107 107 107 107 107 107 107 107
107 107 108 108 108 108 108 108 108 108 108 108 107 108 108 108 109
109 109 109 109 109 109 109 109 109 109 109 110 110 110 110 110 110
110 110 110 110 110 110 111 111 111 111 110 110 110 110 110 110 112
112 111 111 111 111 111 111 111 111 111 112 112 112 112 112 112 113
113 113 113 113 113 113 113 114 114 114 114 114 114 114 114 115 115
115 115 115 115 115 116 116 116 116 116 116 117 117 117 117 117 117
118 118 118 118 118 119 119 119 119 119 120 120 120 120 120 120 120
121 121 121 121 121 122 122 122 122 122 122 122 123 123 123 123 123
124 124 124 124 124 124 125 125 125 125 112 112 112 111 111 111 111
111 111 111 111 111 111 111 111 111 110 110 110 110 110 110 110 110
110 110 110 110 110 110 110 110 110 110 110 110 109 109 109 109 109
109 109 109 109 109 109 108 108 108 108 108 108 108 108 108 108 108
108 107 107 107 107 107 107 107 107 108 107 107 107 107 106 106 106
106 106 106 106 106 106 106 106 106 106 106 106 106 106 106 106 106
106 105 105 105 105 105 105 105 105 105 105 105 105 105 105 105 105
105 105 105 105 105 105 104 104 104 104 104 104 104 104 104 104 104
104 104 104 104 104 104 104 104 103 103 103 103 103 103 103 103 103
103 103 103 103 103 103 103 103 103 103 103 103 103 103 103 102 102
102 102 102 102 102 102 102 102 102 102 102 102 102 102 102 102 102
102 102 102 102 102 102 102 102 102 102 102 102 102 102 102 102 102
102 102 102 102 102 102 102 102 102 102 102 102 102 102 102 102 102
102 102 102 102 102 102 102 102 102 102 102 102 102 102 102 102 102
102 102 102 102 102 102 102 102 102 102 102 102 102 101 102 102 102
102 102 102 101 101 101 101 101 101 102 102 103 103 103 103 103 103
103 103 103 103 102 102 103 102 102 102 102 103 104 104 104 104 104
104 104 104 104 104 104 104 104 103 104 104 105 105 105 105 105 105
105 105 105 105 105 105 105 105 105 105 105 106 106 106 106 106 106
106 106 106 106 106 106 106 106 106 106 107 107 107 107 107 107 107
107 107 107 107 107 107 108 108 108 108 108 108 108 108 108 108 108
108 109 109 109 109 109 109 109 109 109 109 109 109 110 110 110 110
110 110 109 110 110 110 110 110 111 111 111 111 111 111 110 110 110
110 111 112 112 111 111 111 111 111 111 111 112 112 112 112 112 112
112 112 113 113 113 114 113 113 113 114 114 114 114 114 114 114 114
115 115 115 115 115 115 116 116 116 116 116 116 116 117 117 117 117
117 117 118 118 118 118 119 119 119 119 119 119 120 120 120 120 120
120 121 121 121 121 121 121 122 122 122 122 122 122 123 123 123 123
123 123 124 124 124 124 124 124 124 125 125 125 125 125 112 112 112
112 112 111 111 111 111 111 111 111 111 111 111 111 111 111 111 110
110 110 110 110 110 110 110 110 110 110 110 110 110 110 110 110 110
110 109 109 109 109 109 109 109 109 109 109 108 108 108 108 108 108
108 108 108 108 108 108 108 107 107 107 107 107 107 107 107 107 107
107 107 107 107 106 106 106 106 106 106 106 106 106 106 106 106 106
106 106 106 106 106 106 106 105 105 105 105 105 105 105 105 105 105
105 105 105 105 105 105 105 105 105 105 105 105 105 104 104 104 104
104 104 104 104 104 104 104 104 104 104 104 104 104 104 104 103 103
103 103 103 103 103 103 103 103 103 103 103 103 103 103 103 103 103
103 103 103 103 103 102 102 102 102 102 102 102 102 102 102 102 102
102 102 102 102 102 102 102 102 102 102 102 102 102 102 102 102 102
102 102 102 102 102 102 102 102 102 102 102 102 102 102 102 102 102
102 102 102 102 102 102 102 102 102 102 102 102 102 102 102 102 102
102 102 102 102 102 102 102 102 102 102 102 102 102 102 102 102 102
102 102 102 101 102 101 101 101 102 103 103 103 103 103 103 103 103
103 103 103 103 103 103 102 102 102 102 102 103 103 104 104 104 104
104 104 104 104 104 104 103 103 103 103 104 105 105 105 105 105 105
105 105 105 105 105 105 105 105 105 105 105 105 106 106 106 106 106
106 106 106 106 106 106 106 106 106 106 106 106 106 106 107 107 107
107 107 107 107 107 107 107 108 108 108 108 108 108 108 108 108 108
108 108 108 109 109 109 109 109 109 109 109 109 109 109 109 110 110
110 110 110 110 111 110 110 110 110 110 110 111 111 111 111 111 110
110 110 111 112 112 112 111 111 111 111 111 111 111 112 112 112 112
112 112 112 113 113 113 113 113 113 113 114 114 114 113 114 114 114
115 115 115 115 115 115 115 116 116 116 116 116 116 117 117 117 117
117 117 118 118 118 118 118 118 119 119 119 119 119 120 120 120 120
120 120 120 121 121 121 121 122 122 122 122 122 122 122 122 123 123
123 123 123 123 124 124 124 124 124 124 124 125 125 125 125 125 125
125 112 112 112 112 112 112 112 111 111 111 111 111 111 111 111 111
111 111 111 111 111 110 110 110 110 110 110 110 110 110 110 110 110
110 110 110 110 110 110 110 109 109 109 109 109 109 109 109 109 109
108 108 108 108 108 108 108 108 108 108 108 108 108 107 107 107 107
107 107 107 107 107 107 107 107 107 107 106 106 106 106 106 106 106
106 106 106 106 106 106 106 106 106 106 106 106 106 105 105 105 105
105 105 105 105 105 105 105 105 105 105 105 105 105 105 105 105 105
105 105 104 104 104 104 104 104 104 104 104 104 104 104 104 104 104
104 104 104 104 104 103 103 103 103 103 103 103 103 103 103 103 103
103 103 103 103 103 103 103 103 103 103 103 103 103 103 103 102 102
102 102 102 102 102 102 102 102 102 102 102 102 102 102 102 102 102
102 102 102 102 102 102 102 102 102 102 102 102 102 102 102 102 102
102 102 102 102 102 102 102 102 102 102 102 102 102 102 102 102 102
102 102 102 102 102 102 102 102 102 102 102 102 102 102 102 102 102
102 102 102 102 102 102 103 103 103 103 103 103 103 103 103 103 103
103 103 103 103 103 103 103 102 102 103 102 102 104 104 104 104 104
104 104 104 104 103 104 103 103 103 103 104 104 105 105 105 105 105
105 105 105 105 105 105 105 105 105 105 105 104 105 106 106 106 106
106 106 106 105 106 106 106 106 106 106 106 106 106 106 106 106 107
107 106 107 107 106 107 107 107 107 108 108 108 108 107 108 107 108
108 108 108 108 108 109 109 109 109 109 109 109 109 109 109 108 109
110 110 110 110 110 110 110 110 110 110 110 110 111 111 111 111 111
111 110 110 110 110 112 112 112 112 112 112 111 111 111 111 112 112
112 112 112 112 112 113 113 113 113 113 113 113 114 114 114 114 114
114 115 115 115 115 115 115 115 116 116 116 116 116 116 116 117 117
117 117 117 118 118 118 118 118 118 119 119 119 119 119 119 120 120
120 120 120 120 121 121 121 121 121 121 122 122 122 122 122 122 123
123 123 123 123 123 124 124 124 124 124 124 124 125 125 125 125 125
125 125 125 126 126 112 112 112 112 112 112 112 112 112 112 111 111
111 111 111 111 111 111 111 111 111 111 111 111 110 110 110 110 110
110 110 110 110 110 110 110 110 110 110 110 110 110 110 109 109 109
109 109 109 109 109 109 109 108 108 108 108 108 108 108 108 108 108
108 108 107 107 107 107 107 107 107 107 107 107 107 107 107 107 107
106 106 106 106 106 106 106 106 106 106 106 106 106 106 106 106 106
106 106 106 105 105 105 105 105 105 105 105 105 105 105 105 105 105
105 105 105 105 105 105 105 105 104 104 104 103 104 104 104 104 104
104 104 104 104 104 104 104 104 104 104 104 104 103 103 103 103 103
103 103 103 103 103 103 103 103 103 103 103 103 103 103 102 103 103
103 103 103 103 103 103 103 103 102 102 102 102 102 102 102 102 102
102 102 102 102 102 102 102 102 102 102 102 102 102 102 102 102 102
102 102 102 102 102 102 102 102 102 102 102 102 102 102 102 102 102
102 102 102 102 102 102 102 102 102 102 102 102 102 102 102 102 102
102 103 103 103 103 103 103 103 103 103 103 103 103 103 103 103 103
103 103 103 103 103 103 103 104 104 104 104 104 104 104 104 104 104
104 104 104 103 103 103 103 103 103 104 104 105 105 105 105 105 105
105 105 105 105 105 105 104 104 104 104 104 105 105 106 106 106 106
106 106 106 106 106 106 106 106 106 106 106 106 106 106 106 106 106
107 107 107 107 107 107 107 107 106 107 107 108 108 108 108 108 108
108 108 108 108 108 108 108 109 110 109 109 109 109 109 109 109 109
109 109 109 110 110 110 110 110 110 110 110 110 110 110 111 111 111
111 111 111 111 111 111 111 111 112 111 111 111 111 112 112 112 112
112 112 112 112 112 112 113 113 113 113 113 113 114 114 114 114 114
114 114 115 115 115 115 115 115 115 116 116 116 116 116 116 116 117
117 117 117 117 118 118 118 118 118 118 119 120 119 119 119 119 120
120 120 120 120 120 121 121 121 121 121 122 122 122 122 122 122 122
122 123 123 123 123 123 124 124 124 124 124 124 124 125 125 125 125
125 125 125 125 126 126 126 126 126 113 113 112 112 112 112 112 112
112 112 112 112 111 111 111 111 111 111 111 111 111 111 111 111 111
110 110 110 110 110 110 110 110 110 110 110 110 110 110 110 110 109
110 110 110 109 109 109 109 109 109 109 109 109 109 108 108 108 108
108 108 108 108 108 108 108 108 107 107 107 107 107 107 107 107 107
107 107 107 107 107 107 107 106 106 106 106 106 106 106 106 106 106
106 106 106 106 106 106 106 106 106 106 105 105 105 105 105 105 105
105 105 105 105 105 105 105 105 105 105 105 105 105 105 105 105 103
103 104 104 104 104 104 104 104 104 104 104 104 104 104 104 104 104
104 104 103 103 103 103 103 103 103 103 103 103 103 103 103 103 103
103 103 103 103 103 103 103 103 103 103 103 103 103 103 103 103 103
103 103 102 102 102 102 102 102 102 103 102 102 102 102 102 102 102
102 102 102 102 102 102 102 102 102 102 102 102 102 102 102 102 102
102 102 102 102 102 102 102 102 102 102 103 103 103 103 103 103 103
103 103 103 103 103 103 103 103 103 103 103 103 103 103 103 103 103
103 103 103 103 103 103 103 103 104 104 104 104 104 104 104 104 104
104 104 104 104 104 103 103 103 104 104 104 105 105 105 105 105 105
105 105 105 105 105 105 105 104 105 104 104 104 104 105 106 106 106
106 106 106 106 106 106 106 106 106 106 106 106 106 106 106 106 106
106 106 107 107 107 107 107 107 107 107 107 107 107 107 108 108 108
108 108 108 108 108 108 108 107 108 109 109 109 109 109 109 109 109
109 109 109 109 109 110 110 110 110 110 110 110 110 110 110 111 111
111 111 111 111 111 111 111 111 111 111 112 112 112 111 112 112 112
112 112 112 112 112 112 112 113 113 113 113 113 113 113 114 114 114
114 114 114 114 115 115 115 115 115 115 115 116 116 116 116 116 116
116 117 117 117 117 117 118 118 118 118 118 119 119 119 119 119 119
120 120 120 120 120 120 121 121 121 121 121 121 122 122 122 122 122
122 122 123 123 123 123 123 123 123 124 124 124 124 124 124 124 125
125 125 125 125 125 125 126 126 126 126 126 126 126 113 113 113 113
113 112 112 112 112 112 112 112 112 112 111 111 111 111 111 111 111
111 111 111 111 111 111 110 110 110 110 110 110 110 110 110 110 110
110 110 110 110 110 110 110 110 109 109 109 109 109 109 109 109 109
109 108 108 108 108 108 108 108 108 108 108 108 108 108 107 107 107
107 107 107 107 107 107 107 107 107 107 107 107 106 106 106 106 106
106 106 106 106 106 106 106 106 106 106 106 106 106 106 106 105 105
105 105 105 105 105 105 105 105 105 105 105 105 105 105 105 105 105
105 105 105 105 105 103 103 103 104 104 104 104 104 104 104 104 104
104 104 104 104 104 104 104 104 104 104 104 103 103 103 103 103 103
103 103 103 103 103 103 103 103 103 103 103 103 103 103 103 103 103
103 103 103 103 103 103 103 103 103 103 103 103 103 103 103 103 103
103 103 103 103 103 103 103 103 103 103 103 103 103 103 103 103 103
103 103 103 103 103 103 103 103 103 103 103 103 103 103 103 103 103
103 103 103 103 103 103 103 103 103 103 103 103 103 103 103 103 103
103 103 103 103 103 103 103 103 104 104 104 104 104 104 104 104 104
104 104 104 104 104 103 103 103 103 104 105 105 105 105 105 105 105
105 105 105 105 104 105 105 105 104 104 104 104 104 105 105 106 106
106 106 106 106 106 106 106 106 106 106 106 106 106 106 106 106 106
106 106 106 106 107 107 107 107 107 107 107 107 107 107 107 108 107
107 108 108 108 108 108 108 108 108 108 108 108 108 109 109 108 109
109 109 109 109 109 109 110 110 110 110 110 110 110 110 110 108 109
111 111 111 111 111 111 111 111 111 111 112 112 112 112 112 112 112
112 112 113 113 112 112 112 112 113 113 113 113 113 113 113 114 114
114 114 114 114 114 115 116 115 115 115 115 116 116 116 116 116 116
116 117 117 117 117 117 117 118 118 118 118 119 119 119 119 120 119
119 120 120 120 120 120 120 120 121 121 121 121 121 121 122 122 122
122 122 122 123 123 123 123 123 123 124 124 124 124 124 124 124 124
125 125 125 125 125 125 125 126 126 126 126 126 126 126 126 127 127
113 113 113 113 113 113 112 112 112 112 112 112 112 112 112 112 112
111 111 111 111 111 111 111 111 111 111 111 111 111 111 110 110 110
110 110 110 110 110 110 110 110 110 110 110 110 110 110 109 109 109
109 109 109 109 109 109 109 108 108 108 108 108 108 108 108 108 108
108 108 107 107 107 107 107 107 107 107 107 107 107 107 107 107 107
107 106 106 106 106 106 106 106 106 106 106 106 106 106 106 106 106
106 106 106 106 106 106 105 105 105 105 105 105 105 105 105 105 105
105 105 105 105 105 105 105 105 105 105 105 105 104 103 104 104 104
104 104 104 104 104 104 104 104 104 104 104 104 104 104 104 104 104
104 104 103 103 103 103 103 103 103 103 103 103 103 103 103 103 103
103 103 103 103 103 103 103 103 103 103 103 103 103 103 103 103 103
103 103 103 103 103 103 103 103 103 103 103 103 103 103 103 103 103
103 103 103 103 103 103 103 103 103 103 103 103 103 103 103 103 103
103 103 103 103 103 103 103 103 103 103 103 103 103 103 102 103 103
103 103 104 104 104 104 104 104 104 104 104 104 104 104 104 104 104
104 104 104 104 104 104 104 104 105 105 105 105 105 105 105 105 105
105 105 105 105 105 105 105 105 105 105 104 104 104 105 106 106 106
106 106 106 106 106 106 106 106 106 106 106 106 106 106 106 106 106
106 106 106 106 106 106 106 107 107 107 107 107 107 107 107 107 107
107 108 108 108 108 108 108 108 108 108 108 108 109 108 109 109 109
109 109 109 109 109 109 109 109 110 110 110 110 109 110 110 110 110
110 110 111 111 111 111 111 111 111 111 111 111 112 112 112 112 112
112 112 112 112 112 112 112 112 112 114 114 113 114 114 114 113 114
114 114 114 114 114 114 115 115 115 115 115 115 115 116 116 116 117
116 116 117 117 117 118 117 117 117 118 118 118 118 118 119 119 118
119 119 119 120 120 120 120 120 120 121 121 121 121 121 121 122 122
123 122 122 122 122 123 123 123 123 123 123 124 124 124 124 124 124
124 124 125 125 125 125 125 125 125 126 126 126 126 126 126 126 127
127 127 127 127 113 113 113 113 113 113 113 113 113 112 112 112 112
112 112 112 112 112 112 111 111 111 111 111 111 111 111 111 111 111
111 111 111 110 110 110 110 110 110 110 110 110 110 110 110 110 110
110 110 110 110 109 109 109 109 109 109 109 109 109 108 108 108 108
108 108 108 108 108 108 108 108 108 107 107 107 107 107 107 107 107
107 107 107 107 107 107 107 106 107 106 106 106 106 106 106 106 106
106 106 106 106 106 106 106 106 106 106 106 106 106 106 105 105 105
105 105 105 105 105 105 105 105 105 105 105 105 105 105 105 105 105
105 105 105 104 104 104 104 104 104 104 104 104 104 104 104 104 104
104 104 104 104 104 104 104 104 104 104 104 104 104 103 103 103 103
103 103 103 103 103 103 103 103 103 103 103 103 103 103 103 103 103
103 103 102 103 102 103 103 103 103 103 103 103 103 102 103 103 103
103 103 103 103 103 103 103 103 103 103 103 103 103 103 103 103 103
103 103 103 103 103 103 103 103 103 103 103 103 103 103 103 104 104
104 104 104 104 104 104 104 104 104 104 104 104 104 104 104 104 104
104 104 104 104 104 105 105 105 105 105 105 105 105 105 105 105 105
105 105 105 105 105 105 105 105 105 104 104 104 105 106 106 106 106
106 106 106 106 106 106 106 106 106 105 105 105 106 107 106 106 106
106 106 106 106 106 106 107 107 107 107 107 107 107 107 107 106 107
107 108 108 108 108 108 108 108 108 108 108 108 107 108 108 108 109
109 109 109 109 109 108 109 109 110 110 110 110 110 110 110 110 110
110 110 110 111 111 111 111 111 111 111 111 111 112 112 112 112 112
112 112 112 112 112 112 112 113 113 113 114 113 113 113 113 114 114
114 114 114 114 114 114 114 115 115 115 115 115 115 116 116 116 116
116 116 117 117 117 117 117 117 117 118 118 118 118 118 119 119 119
119 119 119 119 120 120 120 120 120 120 121 121 121 121 121 121 121
122 122 123 122 122 122 122 123 123 123 123 123 123 124 124 124 124
124 124 124 125 125 125 125 125 125 125 125 126 126 126 126 126 126
127 127 127 127 127 127 127 127 113 113 113 113 113 113 113 113 113
113 112 112 112 112 112 112 112 112 112 112 112 111 111 111 111 111
111 111 111 111 111 111 111 111 111 110 110 110 110 110 110 110 110
110 110 110 110 110 110 110 110 110 110 109 109 109 109 109 109 109
109 109 108 108 108 108 108 108 108 108 108 108 108 108 108 107 107
107 107 107 107 107 107 107 107 107 107 107 107 107 107 106 106 106
106 106 106 106 106 106 106 106 106 106 106 106 106 106 106 106 106
106 106 105 105 105 105 105 105 105 105 105 105 105 105 105 105 105
105 105 105 105 105 105 105 105 105 105 105 104 104 104 104 104 104
104 104 104 104 104 104 104 104 104 104 104 104 104 104 104 104 104
104 104 104 104 104 104 104 104 104 104 104 103 103 103 103 103 103
103 103 103 103 103 103 103 103 103 103 103 103 103 103 103 103 103
103 103 103 103 103 103 103 103 103 103 103 103 103 103 103 103 103
103 103 103 103 103 103 103 103 104 104 104 104 104 104 104 104 104
104 104 104 104 104 104 104 104 104 104 104 104 104 104 104 104 104
104 104 104 105 105 105 105 105 105 105 105 105 105 105 105 105 105
105 105 105 105 105 105 105 105 105 105 105 105 105 106 106 106 106
106 106 106 106 106 106 106 106 105 105 105 105 105 106 106 106 106
106 106 106 106 106 106 106 106 106 107 107 107 107 107 107 107 107
107 107 107 107 107 107 107 108 108 108 108 108 108 108 107 108 108
109 109 109 109 109 109 109 109 109 109 110 110 110 110 110 110 110
110 110 110 110 110 111 111 111 111 111 111 111 111 111 112 112 112
112 112 112 112 112 112 112 113 113 113 113 112 113 113 114 114 114
114 114 114 114 114 114 114 115 115 115 115 115 115 115 116 116 116
116 116 117 116 117 117 117 117 118 117 118 118 118 118 118 118 119
119 119 118 119 119 120 120 120 120 120 120 120 121 121 121 121 121
121 122 122 122 122 122 122 122 123 123 123 123 123 123 123 124 124
124 124 124 124 124 125 125 125 125 125 125 125 125 126 126 126 126
126 126 126 127 127 127 127 127 127 127 128 128 114 114 113 113 113
113 113 113 113 113 113 113 113 112 112 112 112 112 112 112 112 112
112 111 111 111 111 111 111 111 111 111 111 111 111 111 111 110 110
110 110 110 110 110 110 110 110 110 110 110 110 110 110 109 109 109
109 109 109 109 109 109 109 109 108 108 108 108 108 108 108 108 108
108 108 108 108 107 107 107 107 107 107 107 107 107 107 107 107 107
107 107 107 107 107 106 106 106 106 106 106 106 106 106 106 106 106
106 106 106 106 106 106 106 106 106 106 106 106 105 105 105 105 105
105 105 105 105 105 105 105 105 105 105 105 105 105 105 105 105 105
105 105 105 105 105 104 104 104 104 104 104 104 104 104 104 104 104
104 104 104 104 104 104 104 104 104 104 104 104 104 104 104 104 104
104 104 104 104 104 104 104 104 104 104 104 104 104 104 104 104 104
104 104 104 104 104 104 104 104 104 104 104 104 104 104 104 104 104
104 104 104 104 104 104 104 104 104 104 104 104 104 104 104 104 104
104 104 104 104 104 104 104 104 104 104 104 104 104 104 104 104 104
104 105 105 105 105 105 105 105 105 105 105 105 105 105 105 105 105
105 105 105 105 105 105 105 105 105 105 105 105 106 106 106 106 106
106 106 106 106 106 106 106 106 106 106 106 105 105 105 105 106 106
106 106 106 106 106 106 106 106 106 106 106 106 106 107 107 107 107
107 107 107 107 107 107 107 108 108 108 108 108 108 108 108 108 108
108 108 108 108 109 109 108 108 108 109 109 109 109 110 110 110 110
110 110 110 110 110 111 111 110 110 111 111 111 111 111 111 112 112
112 112 112 112 112 112 112 112 112 113 113 113 113 113 113 114 114
114 115 115 114 115 114 115 115 116 116 115 115 115 116 116 116 116
116 116 117 117 117 116 117 117 118 118 118 119 118 118 118 118 119
119 119 119 119 119 120 120 120 120 120 120 120 120 120 121 121 121
121 121 122 122 122 122 122 122 122 122 123 123 123 123 123 123 124
124 124 124 124 124 124 124 125 125 125 125 125 125 125 125 126 126
126 126 126 126 126 127 127 127 127 127 127 128 128 128 128 128 114
114 114 114 113 113 113 113 113 113 113 113 113 113 113 112 112 112
112 112 112 112 112 112 112 112 111 111 111 111 111 111 111 111 111
111 111 111 111 111 110 110 110 110 110 110 110 110 110 110 110 110
110 110 110 110 109 109 109 109 109 109 109 109 109 109 108 108 108
108 108 108 108 108 108 108 108 108 108 107 107 107 107 107 107 107
107 107 107 107 107 107 107 107 107 107 107 107 106 106 106 106 106
106 106 106 106 106 106 106 106 106 106 106 106 106 106 106 106 106
106 106 106 105 105 104 105 105 105 105 105 105 105 105 105 105 105
105 105 105 105 105 105 105 105 105 105 105 105 105 105 104 104 104
104 104 104 104 104 104 104 104 104 104 104 104 104 104 104 104 104
104 104 104 104 104 104 104 104 104 104 104 104 104 104 104 104 104
104 104 104 104 104 104 104 104 104 104 104 104 104 104 104 104 104
104 104 104 104 104 104 104 104 104 104 104 104 104 104 104 104 104
104 104 104 104 104 104 104 104 104 104 104 104 104 104 105 105 105
105 105 105 105 105 105 105 105 105 105 105 105 105 105 105 105 105
105 105 105 105 105 105 105 105 105 105 105 106 106 106 106 106 106
106 106 106 106 106 106 106 106 106 106 106 106 106 106 105 105 106
106 106 106 106 106 106 106 106 107 106 106 106 106 107 107 107 107
107 107 107 108 107 107 107 107 107 107 108 108 108 108 108 108 108
108 109 108 108 108 108 109 109 109 109 109 109 109 109 110 110 109
110 110 110 110 110 110 110 111 111 111 111 111 111 111 111 111 112
112 112 112 112 112 112 112 112 113 113 113 113 113 114 113 114 113
113 113 114 115 114 114 114 115 115 115 115 115 116 116 115 116 116
116 116 116 117 117 118 118 118 118 117 118 118 118 118 118 118 118
119 119 119 119 119 119 119 120 120 120 120 120 120 119 121 121 121
121 121 121 121 121 122 122 122 122 122 122 123 123 123 123 123 123
123 124 124 124 124 124 124 124 124 125 125 125 125 125 125 125 125
126 126 126 126 126 126 126 127 127 127 127 127 127 128 128 128 128
128 128 128 114 114 114 114 114 114 114 113 113 113 113 113 113 113
113 113 113 113 113 111 112 112 112 112 112 112 112 112 112 111 111
111 111 111 111 111 111 111 111 111 111 111 111 110 110 110 110 110
110 110 110 110 110 110 110 110 110 110 110 109 109 109 109 109 109
109 109 109 108 108 108 108 108 108 108 108 108 108 108 108 108 108
107 107 107 107 107 107 107 107 107 107 107 107 107 107 107 107 107
107 107 107 106 106 106 106 106 106 106 106 106 106 106 106 106 106
106 106 106 106 106 106 106 106 106 106 106 106 105 105 104 104 104
105 105 105 105 105 105 105 105 105 105 105 105 105 105 105 105 105
105 105 105 105 105 105 105 105 105 105 105 104 104 104 104 104 104
104 104 104 104 104 104 104 104 104 104 104 104 104 104 104 104 104
104 104 104 104 104 104 104 104 104 104 104 104 104 104 104 104 104
104 104 104 104 104 104 104 104 104 104 104 104 104 104 104 104 104
104 104 104 104 104 104 104 104 105 105 105 105 105 105 105 105 105
105 105 105 105 105 105 105 105 105 105 105 105 105 105 105 105 105
105 105 105 105 105 105 105 105 105 105 106 106 106 106 106 106 106
106 106 106 106 106 106 106 106 106 106 106 106 106 105 106 106 106
106 106 106 106 106 106 106 106 106 106 106 106 106 107 106 106 106
106 106 106 108 107 107 107 107 107 107 108 108 108 108 108 108 108
109 108 108 108 108 109 109 109 109 109 109 109 109 109 110 110 110
110 110 110 110 110 110 109 110 110 111 111 111 111 110 111 111 111
112 112 112 112 112 112 112 113 113 113 113 113 113 114 114 114 114
114 114 114 114 114 115 115 115 114 115 115 115 116 115 115 116 116
116 117 116 117 117 117 117 118 118 118 118 118 118 118 119 119 118
118 119 119 119 119 120 119 119 120 120 120 120 120 120 121 121 121
121 121 121 121 121 122 122 122 122 122 122 122 123 123 123 123 123
123 123 123 124 124 124 124 124 124 124 125 125 125 125 125 125 125
125 126 126 126 126 126 126 127 127 127 127 127 127 127 128 128 128
128 128 128 128 128 129 130 114 114 114 114 114 114 114 114 114 113
113 113 113 113 113 113 113 113 113 113 112 112 112 112 112 112 112
112 112 112 111 111 111 111 111 111 111 111 111 111 111 111 111 111
110 110 110 110 110 110 110 110 110 110 110 110 110 110 110 110 110
109 109 109 109 109 109 108 109 109 109 108 108 108 108 108 108 108
108 108 108 108 108 107 107 107 107 107 107 107 107 107 107 107 107
107 107 107 107 107 107 107 107 107 107 106 106 106 106 106 106 106
106 106 106 106 106 106 106 106 106 106 106 106 106 106 106 106 106
106 106 106 105 104 104 104 104 105 105 105 105 105 105 105 105 105
105 105 105 105 105 105 105 105 105 105 105 105 105 105 105 105 105
105 105 105 105 105 105 105 105 105 105 104 104 104 104 104 104 104
104 104 104 104 104 104 104 104 104 104 104 104 104 104 104 104 104
104 104 104 104 104 104 104 104 104 104 104 104 104 104 104 105 105
105 104 105 105 105 105 105 105 105 105 105 105 105 105 105 105 105
105 105 105 105 105 105 105 105 105 105 105 105 105 105 105 105 105
105 105 105 105 105 105 106 105 106 105 106 106 106 106 106 106 106
106 106 106 106 106 106 106 106 106 106 106 106 106 106 106 106 106
106 106 106 106 106 107 106 106 106 106 106 106 106 106 106 106 106
107 106 106 106 106 107 107 107 107 107 107 107 108 108 108 108 108
108 108 108 108 108 108 108 109 109 109 109 109 109 109 109 108 109
109 110 110 110 110 110 110 110 109 111 111 111 111 111 111 111 111
110 111 112 112 112 112 112 112 112 113 113 113 113 113 113 114 114
114 113 114 114 115 114 115 115 115 115 114 116 115 116 116 115 116
116 117 116 116 117 117 117 117 118 118 117 118 118 118 118 118 119
119 119 119 119 119 120 120 120 119 120 120 120 120 120 120 121 121
120 121 121 121 121 121 121 122 122 122 122 122 122 122 122 123 123
123 123 123 123 124 124 124 124 124 124 124 124 125 125 126 125 125
125 125 125 126 126 126 126 126 126 127 127 127 127 127 127 127 128
128 128 128 128 128 128 129 129 129 129 130 114 114 114 114 114 114
114 114 114 114 114 113 113 113 113 113 113 113 113 113 113 113 112
112 112 112 112 112 112 112 112 112 111 111 111 111 111 111 111 111
111 111 111 111 111 111 111 110 110 110 110 110 110 110 110 110 110
110 110 110 110 110 109 109 109 109 109 109 109 109 109 109 109 108
108 108 108 108 108 108 108 108 108 108 108 108 108 107 107 107 107
107 107 107 107 107 107 107 107 107 107 107 107 107 107 107 107 107
107 107 106 106 106 106 106 106 106 106 106 106 106 106 106 106 106
106 106 106 106 106 106 106 106 106 106 106 106 106 106 104 104 104
105 103 105 105 105 105 105 105 105 105 105 105 105 105 105 105 105
105 105 105 105 105 105 105 105 105 105 105 105 105 105 105 105 105
105 105 105 105 105 105 105 105 105 105 105 105 105 105 105 105 105
105 105 105 105 105 105 105 105 105 105 105 105 105 105 105 105 105
105 105 105 105 105 105 105 104 105 105 105 105 105 105 105 105 105
105 105 105 105 105 105 105 105 105 105 105 105 105 105 105 105 105
105 106 105 105 106 105 106 106 106 106 106 106 106 106 106 106 106
106 106 106 106 106 106 106 106 106 106 106 106 106 106 106 107 107
106 106 106 106 106 106 106 106 106 106 106 106 106 106 106 106 107
107 106 106 106 106 106 107 107 107 107 107 107 107 108 108 108 108
108 108 108 108 108 108 108 108 108 108 109 109 109 109 108 109 109
110 109 110 110 110 110 110 110 110 110 110 110 110 111 111 111 111
111 112 111 112 112 112 111 112 112 112 113 113 113 112 113 114 113
113 114 114 114 114 115 115 115 114 115 114 115 116 116 115 116 116
117 117 117 116 116 117 117 117 117 118 117 117 118 118 119 119 119
119 119 119 119 119 119 119 120 120 119 120 120 120 120 120 120 120
121 121 121 121 121 121 121 122 122 122 122 122 122 122 122 122 123
123 123 123 123 123 123 124 124 124 124 124 124 124 125 125 125 125
125 125 125 125 126 126 126 126 126 126 126 127 127 127 127 127 127
128 128 128 128 128 128 128 128 129 129 129 129 129 129 130 115 115
114 114 114 114 114 114 114 114 114 114 114 113 113 113 113 113 113
113 113 113 113 112 112 112 112 112 112 112 112 112 112 112 112 112
111 111 111 111 111 111 111 111 111 111 111 111 111 111 110 110 110
110 110 110 110 110 110 110 110 110 110 110 110 109 109 109 109 109
109 109 109 109 109 108 108 108 108 108 108 108 108 108 108 108 108
108 107 107 107 107 107 107 107 107 107 107 107 107 107 107 107 107
107 107 107 107 107 107 107 107 107 107 106 106 106 106 106 106 106
106 106 106 106 106 106 106 106 106 106 106 106 106 106 106 106 106
106 106 106 106 106 106 106 106 105 105 105 105 105 105 105 105 105
105 105 105 105 105 105 105 105 105 105 105 105 105 105 105 105 105
105 105 105 105 105 105 105 105 105 105 105 105 105 105 105 105 105
105 105 105 105 105 105 105 105 105 105 105 105 105 105 105 105 105
105 105 105 105 105 105 105 105 105 105 105 105 105 105 105 105 105
105 105 105 105 105 105 105 105 105 105 105 105 105 105 105 105 105
106 106 106 106 106 106 106 106 106 106 106 106 106 106 106 106 106
106 106 106 106 106 106 106 106 106 106 106 106 106 106 107 107 106
106 106 106 106 106 106 106 106 106 106 106 106 106 107 107 106 107
107 107 107 106 106 106 107 107 107 107 107 107 107 107 107 107 108
108 108 108 108 108 108 108 108 108 108 108 108 109 109 109 109 109
109 109 109 108 109 110 109 110 110 110 111 111 111 110 111 111 111
111 111 112 112 111 111 111 112 112 112 113 112 113 113 113 113 114
114 113 113 114 114 114 115 115 114 114 114 115 116 116 115 115 116
116 116 117 116 116 116 116 117 117 118 117 118 118 117 118 118 119
119 118 118 119 119 119 119 119 119 120 120 120 120 120 120 121 120
121 121 121 121 121 121 121 121 121 121 122 122 122 122 122 122 122
122 123 123 123 122 123 122 123 124 124 124 124 124 124 124 124 125
125 125 126 125 125 125 126 126 126 126 126 126 126 127 127 127 127
127 127 128 128 128 128 128 128 128 129 129 129 129 129 129 129 130
130 130 115 115 115 115 115 114 114 114 114 114 114 114 114 114 114
114 113 113 113 113 113 113 113 113 113 113 113 112 112 112 112 112
112 112 112 112 112 112 112 111 111 111 111 111 111 111 111 111 111
111 111 111 111 110 110 110 110 110 110 110 110 110 110 110 110 110
110 110 109 109 109 109 109 109 109 109 109 109 108 108 108 108 108
108 108 108 108 108 108 108 108 108 107 107 107 107 107 107 107 107
107 107 107 107 107 107 107 107 107 107 107 107 107 107 107 107 107
107 107 107 107 107 106 106 106 106 106 106 106 106 106 106 106 106
106 106 106 106 106 106 106 106 106 106 106 106 106 106 106 106 106
106 106 106 106 106 106 106 105 105 105 105 105 105 105 105 105 105
105 105 105 105 105 105 105 105 105 105 105 105 105 105 105 105 105
105 105 105 105 105 105 105 105 105 105 105 105 105 105 105 105 105
105 105 105 105 105 105 105 105 105 105 105 105 105 105 105 105 105
105 105 105 105 105 105 105 106 106 106 106 106 106 106 106 106 106
106 106 106 106 106 106 106 106 106 106 106 106 106 106 106 106 106
106 106 106 106 106 106 106 106 106 106 106 106 107 107 107 107 107
107 107 107 107 107 107 107 107 107 107 107 107 107 107 107 107 107
107 107 106 107 107 107 107 107 107 107 107 107 108 107 107 108 108
108 108 107 108 108 108 108 108 108 108 108 108 109 109 109 108 109
109 109 109 109 110 109 110 110 110 110 109 110 111 111 111 111 111
111 111 111 111 112 112 112 112 112 112 112 113 113 113 113 112 113
113 114 114 114 114 113 114 114 114 115 115 115 115 115 115 115 115
116 116 116 116 116 116 117 117 117 117 117 117 117 118 118 118 117
118 118 119 119 119 119 120 119 119 119 119 120 120 120 121 120 120
120 121 121 120 121 121 121 121 121 121 122 122 122 122 122 122 122
122 122 123 123 123 123 123 123 124 124 124 124 124 124 124 124 124
125 125 125 125 125 125 125 126 126 126 126 126 126 126 127 127 127
127 127 127 128 128 128 128 128 128 128 128 129 129 129 129 129 129
129 131 130 130 130 130 115 115 115 115 115 115 114 114 114 114 114
114 114 114 114 114 114 114 114 113 113 113 113 113 113 113 113 113
112 112 112 112 112 112 112 112 112 112 112 112 111 111 111 111 111
111 111 111 111 111 111 111 111 111 111 110 110 110 110 110 110 110
110 110 110 110 110 110 110 110 109 109 109 109 109 109 109 109 109
109 109 108 108 108 108 108 108 108 108 108 107 108 108 108 108 107
107 107 107 107 107 107 107 107 107 107 107 107 107 107 107 107 107
107 107 107 107 107 107 107 107 107 107 107 107 107 107 107 107 107
106 106 106 106 106 106 106 106 106 106 106 106 106 106 106 106 106
106 106 106 106 106 106 106 106 106 106 106 106 106 106 106 106 106
106 106 105 106 106 106 106 106 106 106 106 106 106 106 105 105 105
105 105 105 105 105 105 105 105 105 105 105 105 105 105 105 105 105
105 105 105 105 105 105 105 105 105 105 105 105 105 105 105 105 106
106 106 106 106 106 106 106 106 106 106 106 106 106 106 106 106 106
106 106 106 106 106 106 106 106 106 106 106 106 106 106 106 106 106
106 106 106 106 106 106 106 106 106 106 106 106 107 107 107 107 107
107 107 107 107 107 107 107 107 107 107 107 107 107 107 107 107 106
107 106 106 107 107 106 107 107 107 107 107 108 107 107 107 108 107
107 107 107 108 108 108 108 108 108 108 108 108 108 109 109 109 109
108 109 109 109 109 109 110 110 109 110 110 110 110 110 110 111 111
111 111 110 111 111 111 112 112 112 112 112 112 112 113 113 113 113
113 113 114 114 113 114 114 114 114 115 114 114 114 115 115 115 115
115 115 115 116 116 116 116 116 117 117 117 117 117 117 117 117 118
118 118 118 118 118 119 119 119 119 119 119 119 119 119 120 120 120
120 120 121 121 121 121 121 121 121 121 121 121 121 122 122 122 122
122 122 122 122 123 123 123 123 123 123 124 124 124 124 124 124 124
124 125 125 125 125 125 125 125 126 126 126 126 126 126 126 126 127
127 127 127 127 127 128 128 128 128 128 128 128 129 129 129 129 129
129 129 129 130 130 130 130 130 130 130 115 115 115 115 115 115 115
115 115 115 114 114 114 114 114 114 114 114 115 114 114 113 113 113
113 113 113 113 113 113 113 113 112 112 112 112 112 112 112 112 112
112 112 111 111 111 111 111 111 111 111 111 111 111 111 111 111 111
110 110 110 110 110 110 110 110 110 110 110 110 110 110 110 110 109
109 109 109 109 109 109 109 109 109 108 108 108 108 108 108 108 108
108 108 108 108 108 108 108 108 108 107 107 107 107 107 107 107 107
107 107 107 107 107 107 107 107 107 107 107 107 107 107 107 106 107
107 107 107 107 107 107 107 107 107 107 107 107 107 107 107 107 107
107 106 106 106 106 106 106 106 106 106 106 106 106 106 106 106 106
106 106 106 106 106 106 106 106 106 106 106 106 106 106 106 106 106
106 106 106 106 106 106 106 106 106 106 106 106 106 106 106 106 106
106 106 106 106 106 106 106 106 106 106 106 106 106 106 106 106 106
106 106 106 106 106 106 106 106 106 106 106 106 106 106 106 106 106
106 106 106 106 106 106 106 106 105 106 106 106 106 106 106 106 106
106 106 106 106 106 107 107 107 107 107 107 107 107 107 107 107 107
107 107 107 107 108 107 107 107 107 107 107 107 107 107 107 107 107
107 107 107 107 107 108 108 107 108 107 107 107 107 107 107 107 107
107 107 108 107 107 108 108 108 108 108 108 108 108 108 108 109 109
109 109 109 109 109 109 109 110 110 110 110 110 110 110 110 110 110
111 111 112 112 111 111 111 111 112 112 113 112 112 112 113 113 113
114 113 113 113 113 113 113 115 114 114 114 114 114 114 115 115 115
115 115 115 116 116 116 117 117 116 117 116 116 117 118 117 117 117
117 118 118 118 118 118 118 119 120 119 119 119 119 119 121 120 120
121 121 120 120 120 121 121 121 121 121 122 121 121 121 122 122 122
122 122 122 122 122 122 123 123 123 123 123 123 124 124 124 124 124
124 124 124 125 125 125 125 125 125 125 126 126 126 126 126 126 126
127 127 127 127 127 127 127 128 128 128 128 128 128 128 129 129 129
129 129 129 129 130 130 130 130 130 130 131 131 131 131 116 115 115
115 115 115 115 115 115 115 115 115 114 114 114 114 114 114 114 114
114 114 113 113 113 113 113 113 113 113 113 113 113 113 112 112 112
112 112 112 112 112 112 112 112 112 111 111 111 111 111 111 111 111
111 111 111 111 111 111 111 110 110 110 110 110 110 110 110 110 110
110 110 110 110 109 109 109 109 109 109 109 109 109 109 109 109 109
108 108 108 108 108 108 108 108 108 108 108 108 108 108 108 108 108
108 107 107 107 107 107 107 107 107 107 107 107 107 107 107 107 107
107 107 107 107 107 107 107 107 107 107 107 107 107 107 107 107 107
107 107 107 107 107 107 107 107 107 107 107 107 107 107 107 106 106
106 106 106 106 106 106 106 106 106 106 106 106 106 106 106 106 106
106 106 106 106 106 106 106 106 106 106 106 106 106 106 106 106 106
106 106 106 106 106 106 106 106 106 106 106 106 106 106 106 106 106
106 106 106 106 106 106 106 106 106 106 106 106 106 106 106 106 106
106 106 106 106 106 106 106 106 106 106 106 106 106 106 106 106 106
106 106 106 106 107 107 107 107 107 107 107 107 107 107 107 107 107
107 107 107 107 107 107 107 107 107 107 107 107 107 107 107 107 107
107 107 107 107 107 107 107 107 107 107 107 107 107 107 107 107 108
108 108 108 108 108 108 108 108 108 109 108 108 108 108 108 108 108
108 109 110 109 109 109 109 109 109 110 110 111 110 110 110 110 110
110 110 111 111 111 111 111 111 111 111 112 112 112 112 112 112 113
113 114 113 113 113 113 113 113 114 115 114 114 114 114 115 115 115
115 115 115 115 115 115 116 116 116 116 116 116 117 117 117 117 117
117 117 117 118 118 118 118 118 118 119 119 119 119 119 119 119 120
120 120 120 121 120 120 120 121 121 121 121 121 122 121 121 121 122
122 122 122 122 122 122 123 123 123 123 123 123 123 123 123 124 124
124 124 124 124 125 125 125 125 125 125 125 125 126 126 126 126 126
126 126 127 127 127 127 127 127 127 128 128 128 128 128 128 129 129
129 129 129 129 129 130 130 130 130 130 130 130 131 131 131 131 131
132 116 116 116 116 116 115 115 115 115 115 116 115 115 115 115 114
114 114 114 114 114 114 114 114 114 114 113 113 113 113 113 113 113
113 113 113 113 112 112 112 112 112 112 112 112 112 112 112 112 112
111 111 111 111 111 111 111 111 111 111 111 111 111 111 111 111 111
110 110 110 110 110 110 110 110 110 111 110 110 110 109 109 109 109
109 109 109 109 109 109 109 109 109 108 108 108 108 108 108 108 108
108 108 108 108 108 108 108 108 108 108 108 108 108 107 107 107 107
107 107 107 107 107 107 107 107 107 107 107 107 107 107 107 107 107
107 107 107 107 107 107 107 107 107 107 107 107 107 107 107 107 107
107 107 107 107 107 107 107 107 107 107 107 107 107 107 107 107 107
107 107 107 107 107 107 107 107 106 107 106 106 107 106 106 106 106
106 107 106 106 106 106 106 106 106 106 106 106 106 106 106 106 106
106 106 106 106 106 106 106 106 106 106 106 106 106 106 106 106 106
106 106 106 106 106 106 106 106 106 106 107 107 107 107 107 107 107
107 107 107 107 107 107 107 107 107 107 107 107 107 107 107 107 107
107 107 107 107 107 107 107 107 107 107 107 107 107 107 107 107 107
107 107 107 107 108 108 108 107 107 107 108 108 108 108 108 108 107
108 108 108 108 108 108 108 108 108 108 108 108 108 109 109 108 108
109 109 109 109 109 109 110 110 110 110 110 110 110 110 110 110 110
110 111 110 110 111 111 111 111 112 111 111 112 113 112 112 112 112
113 113 113 113 113 113 113 113 114 114 114 114 114 114 114 115 115
115 115 115 115 115 116 116 116 116 116 116 116 117 117 117 117 117
117 117 117 118 118 118 118 118 118 118 119 119 119 119 119 119 119
119 120 120 120 121 120 120 121 121 121 121 121 121 121 121 121 121
122 122 122 122 122 122 122 122 123 123 123 123 123 123 124 124 124
124 124 124 124 124 124 125 125 125 125 125 125 125 126 126 126 126
126 126 126 127 127 127 127 127 127 127 128 128 128 128 128 128 128
129 129 129 129 129 129 130 130 130 130 130 130 130 130 131 131 131
131 131 131 132 132 116 116 116 116 117 116 116 115 115 115 116 115
115 115 115 115 115 114 114 114 114 114 114 114 115 114 114 114 114
113 113 113 113 113 113 113 113 113 113 113 112 112 112 112 112 112
112 112 112 112 112 112 111 112 112 111 111 111 111 111 111 111 111
111 111 111 111 111 111 111 110 110 110 110 110 110 110 111 110 110
110 110 110 110 109 109 109 109 109 109 109 109 109 109 109 108 108
108 108 108 108 108 108 108 108 108 108 108 108 108 108 108 108 108
108 108 108 108 108 108 108 108 107 107 107 107 107 107 107 107 107
107 107 107 107 107 107 107 107 107 107 107 107 107 107 107 107 107
107 107 107 107 107 107 107 107 107 107 107 107 107 107 107 107 107
107 107 107 107 107 107 107 107 107 107 107 107 107 107 107 107 107
107 107 107 107 107 107 107 107 107 107 107 107 107 107 107 107 107
107 107 107 107 107 107 107 107 107 107 107 107 107 107 107 107 107
107 107 107 107 107 107 107 107 107 107 107 107 107 107 107 107 107
107 107 107 107 107 107 107 107 107 107 107 107 107 107 107 107 107
107 107 107 107 107 107 107 107 107 107 107 107 107 107 107 107 107
107 107 107 107 107 108 108 108 108 108 108 108 108 108 108 108 108
108 108 108 108 108 108 108 108 108 108 108 109 109 109 109 109 109
109 109 109 109 109 109 109 109 109 109 109 109 110 110 110 110 110
110 110 111 111 111 111 111 111 111 111 110 112 112 112 112 112 112
112 113 113 113 113 113 113 113 114 114 114 114 114 114 114 115 115
115 116 115 115 115 116 116 116 116 116 116 116 116 118 117 117 117
117 117 117 117 118 118 118 118 118 118 118 119 119 119 119 119 119
119 119 120 120 120 120 120 120 120 120 121 121 121 121 121 121 121
121 122 122 122 122 123 122 122 122 122 123 123 123 123 123 123 124
124 124 124 124 124 124 124 125 125 125 125 125 125 125 126 126 126
126 126 126 126 126 127 127 127 127 127 127 127 128 128 128 128 128
128 128 129 129 129 129 129 129 130 130 130 130 130 130 131 130 131
131 131 131 131 132 132 132 132 132 116 116 116 116 116 116 116 116
116 116 115 115 115 115 115 115 115 115 115 115 115 114 114 114 114
114 114 114 114 114 114 114 113 113 113 113 113 113 113 113 113 113
113 112 112 112 112 112 112 112 112 112 112 112 112 112 112 111 111
111 111 111 111 111 111 111 111 111 111 111 111 111 111 111 111 110
110 110 110 110 110 110 110 110 110 110 110 110 109 109 109 109 109
109 109 109 109 109 109 109 109 108 108 108 108 108 108 108 108 108
108 108 108 108 108 108 108 108 108 108 108 108 108 108 108 108 108
108 108 108 108 108 108 108 107 107 108 107 107 108 107 107 107 107
107 107 107 107 107 107 107 107 107 107 107 107 107 107 107 107 107
107 107 107 107 107 107 107 107 107 107 107 107 107 107 107 107 107
107 107 107 107 107 107 107 107 107 107 107 107 107 107 107 107 107
107 107 107 107 107 107 107 107 107 107 107 107 107 107 107 107 107
107 107 107 107 107 107 106 107 107 107 107 107 107 107 107 107 107
107 107 107 107 107 107 107 107 107 107 107 107 107 107 107 107 107
107 107 107 107 107 107 107 107 107 107 107 107 107 107 107 107 107
108 107 107 108 108 108 108 108 108 108 108 108 108 108 108 108 108
108 109 109 108 108 109 108 108 108 108 108 108 109 109 109 109 110
109 109 109 109 109 109 109 110 109 110 110 111 110 110 110 110 110
109 110 111 111 111 111 111 111 111 111 112 112 112 112 112 112 112
112 113 113 113 113 113 113 113 114 114 114 114 114 114 114 115 116
115 115 115 115 115 116 116 116 116 116 116 116 116 116 117 117 117
117 117 117 118 118 118 118 118 118 118 118 119 119 119 119 119 119
119 119 119 120 120 120 120 120 120 120 120 120 121 121 121 121 121
121 121 122 122 122 122 122 122 122 122 123 123 123 123 123 123 123
123 124 124 124 124 124 124 124 125 125 125 125 125 125 125 126 126
126 126 126 126 126 127 127 127 127 127 126 127 128 128 128 128 128
128 128 128 128 129 129 129 129 129 129 130 130 130 130 130 130 131
131 132 131 131 131 132 132 132 132 132 132 132 132 117 116 116 116
116 116 116 116 116 116 116 116 115 115 115 115 115 115 115 115 115
115 115 115 114 114 114 114 114 114 114 114 114 114 113 113 113 113
113 113 113 113 113 113 113 113 112 112 112 112 112 112 112 112 112
112 112 112 112 112 112 111 111 111 111 111 111 111 111 111 111 111
111 111 111 111 111 111 111 110 110 110 110 110 110 110 110 110 110
110 110 110 109 109 109 108 109 109 108 109 109 109 109 109 109 109
109 109 108 108 108 108 108 108 108 108 108 108 108 108 108 108 108
108 108 108 108 108 108 108 108 108 108 108 108 108 108 108 108 108
108 108 108 108 108 108 108 108 108 108 108 108 108 108 107 107 107
107 107 107 107 107 107 107 107 107 107 107 107 107 107 107 107 107
107 107 107 107 107 107 107 107 107 107 107 107 107 107 107 107 107
107 107 107 107 107 107 107 107 107 107 107 107 107 107 107 107 107
107 107 107 107 107 107 107 107 107 107 107 107 107 107 107 107 107
107 107 107 107 107 107 107 107 107 107 107 107 107 107 107 107 107
107 107 107 107 107 107 107 107 107 107 107 107 107 107 107 108 108
108 108 108 108 108 108 108 108 108 108 108 108 108 108 108 108 108
108 108 109 109 109 109 109 108 109 109 108 109 109 109 109 109 109
109 109 110 109 109 109 109 109 110 110 110 111 110 110 110 110 110
110 112 111 112 111 111 111 111 112 111 112 112 113 113 112 112 112
112 112 113 113 113 113 113 113 114 114 114 114 114 114 114 114 115
116 115 115 115 115 116 116 116 117 116 116 116 116 116 116 117 117
117 117 117 117 117 118 118 118 118 118 118 118 118 119 119 119 119
119 119 119 119 120 120 120 120 120 120 120 120 120 121 121 121 121
121 121 121 122 123 122 122 122 122 122 122 122 123 123 123 123 123
123 123 124 124 124 124 124 124 124 124 125 125 125 125 125 125 125
125 126 126 126 126 126 126 126 127 127 127 127 127 127 128 128 128
128 128 128 128 128 128 129 129 129 129 129 129 130 130 130 130 130
130 131 131 132 131 131 131 132 132 132 132 132 132 132 132 132 133
117 117 117 117 116 116 116 116 116 116 116 116 116 116 116 116 115
115 115 115 115 115 115 115 115 115 115 114 114 114 114 114 114 114
114 114 114 114 113 113 113 113 113 113 113 113 113 113 113 113 112
112 112 112 112 112 112 112 112 112 112 112 112 112 112 111 111 111
111 111 111 111 111 111 111 111 111 111 111 111 111 111 111 111 110
110 110 110 110 110 110 110 110 110 110 110 109 109 109 109 109 109
109 109 109 109 109 109 109 109 109 109 109 109 109 109 109 109 109
109 108 108 108 108 108 108 108 108 108 108 108 108 108 108 108 108
108 108 108 108 108 108 108 108 108 108 108 108 108 108 108 108 108
108 108 108 108 108 108 108 108 108 108 108 108 108 108 108 108 108
108 108 108 108 108 108 108 108 108 108 108 108 107 107 107 107 107
107 107 107 107 107 107 107 107 107 107 107 107 107 107 107 107 107
107 107 107 107 107 107 107 107 107 107 107 107 107 107 107 107 107
107 107 107 107 107 107 107 107 107 107 107 107 107 107 107 107 107
107 107 107 107 107 107 107 107 107 107 107 107 108 108 108 108 108
108 108 108 108 108 108 108 108 108 108 108 108 108 108 108 108 109
109 109 109 109 109 109 108 109 109 109 109 109 109 109 109 109 110
110 110 110 110 110 110 110 110 110 110 111 110 111 111 111 111 111
111 111 111 112 112 112 112 112 112 112 112 113 112 112 113 112 112
113 114 113 113 114 114 113 114 114 115 115 114 114 114 115 115 116
116 116 116 115 116 115 116 116 117 116 116 116 116 116 117 118 118
118 117 117 117 117 118 118 119 118 118 118 118 118 119 119 119 119
119 119 119 119 119 120 120 120 120 120 120 120 120 120 121 121 121
121 121 121 121 121 122 122 122 122 122 122 122 122 123 123 123 123
123 123 124 124 124 124 124 124 124 124 125 125 125 125 125 125 125
125 125 126 126 126 126 126 126 127 127 127 127 127 127 127 128 128
128 128 128 128 128 128 129 129 129 129 129 129 129 130 130 130 130
130 130 131 131 131 131 131 131 132 132 132 132 132 132 132 132 133
133 133 133 133 117 117 117 117 117 117 116 116 116 116 116 116 116
116 116 116 116 116 116 115 115 115 115 116 116 115 115 115 115 114
114 114 114 114 114 114 114 114 114 114 114 114 113 113 113 113 113
113 113 113 113 113 113 112 112 112 112 112 112 112 112 112 112 112
112 112 112 112 112 112 112 112 111 111 111 111 111 111 111 111 111
111 111 111 111 111 111 110 110 110 110 110 110 110 111 110 111 110
110 110 110 109 109 109 109 109 109 109 109 109 109 109 109 109 109
108 109 109 109 109 109 109 109 109 109 109 109 108 109 108 108 108
108 108 108 108 108 108 108 108 108 108 108 108 108 108 108 108 108
108 108 108 108 108 108 108 108 108 108 108 108 108 108 108 108 108
108 108 108 108 108 108 108 108 108 108 108 108 108 108 108 108 108
108 108 108 108 108 108 108 108 108 108 108 108 108 108 107 107 107
107 107 107 107 107 107 107 107 107 107 107 107 107 107 107 107 107
107 107 107 107 107 107 107 107 107 107 107 107 107 107 107 107 107
107 107 108 108 107 107 108 107 108 107 108 108 108 108 108 108 108
108 108 108 108 108 108 108 108 108 108 108 108 108 108 108 108 109
109 109 109 109 109 109 109 109 109 109 109 109 109 109 109 110 110
110 110 110 110 110 110 110 110 110 110 111 110 111 110 111 111 111
111 111 111 112 112 112 111 111 112 112 112 113 113 113 113 112 113
112 113 114 113 114 113 114 114 114 115 115 115 114 115 115 115 116
116 116 115 115 115 115 116 117 117 117 117 116 116 116 117 116 118
118 118 117 117 117 118 117 118 119 118 118 118 118 118 118 119 119
119 119 119 119 119 119 120 120 120 120 120 120 120 120 120 121 121
121 121 121 121 121 121 122 122 122 123 123 122 122 122 122 124 124
123 123 123 123 124 124 124 124 124 124 124 124 124 125 125 125 125
125 125 125 126 126 126 125 126 126 126 127 127 127 127 127 127 127
127 128 128 128 128 128 128 129 129 129 129 129 129 129 129 130 130
130 130 130 130 131 131 131 131 131 131 132 132 132 132 132 132 132
132 133 133 133 133 133 133 134 117 117 117 117 117 117 117 117 117
116 116 116 116 116 116 116 116 116 116 116 116 116 116 115 115 115
115 115 115 115 115 115 115 114 114 114 114 114 114 114 114 114 114
114 114 114 113 113 113 113 113 113 113 113 113 113 113 113 113 112
112 112 112 112 112 112 112 112 112 112 112 112 112 112 112 112 112
112 111 111 111 111 111 111 111 111 111 111 111 111 111 111 111 111
110 110 110 110 110 110 110 110 110 110 110 110 110 110 109 109 109
109 109 109 109 109 109 109 109 109 109 109 109 109 109 109 109 109
109 109 109 109 109 109 109 109 109 109 109 109 109 109 109 109 109
109 109 109 109 108 108 108 108 108 108 108 108 108 108 108 108 108
108 108 108 108 108 108 108 108 108 108 108 108 108 108 108 108 108
108 108 108 108 108 108 108 108 108 108 108 108 108 108 108 108 108
108 108 108 108 108 108 108 108 108 108 108 108 108 108 108 108 108
108 108 108 108 108 108 108 108 108 108 108 108 108 108 108 108 108
108 108 108 108 108 108 108 108 108 108 108 108 108 108 108 108 108
108 108 108 108 108 108 108 108 108 108 108 108 109 109 108 109 109
109 109 109 109 109 109 109 109 109 109 109 109 109 110 110 110 110
110 110 110 110 110 110 110 110 110 111 111 112 111 111 111 111 111
111 111 112 112 112 112 112 112 112 112 113 113 113 113 113 113 113
113 114 114 114 114 114 114 114 115 115 115 115 115 115 115 115 116
116 116 116 116 115 116 116 116 117 117 117 116 116 116 116 117 118
118 118 118 118 117 117 117 118 118 118 119 118 118 118 118 119 119
119 119 119 119 119 119 119 120 120 120 120 120 120 120 120 120 120
121 121 121 121 121 121 121 122 122 122 122 122 122 122 122 122 123
123 123 123 123 123 124 124 125 124 124 124 124 124 125 125 125 125
125 125 125 125 126 126 126 125 126 126 126 127 127 127 127 127 127
127 128 128 128 128 128 128 128 129 129 129 129 129 129 129 129 129
130 130 130 130 130 130 130 131 131 131 131 131 132 132 132 132 132
132 132 133 133 133 133 133 134 134 134 134 134 118 118 117 117 117
117 117 117 117 117 117 117 117 116 116 116 116 116 116 117 116 116
116 116 116 115 115 115 115 115 115 115 115 115 115 115 114 114 114
114 114 114 114 113 114 114 115 114 114 113 113 113 113 112 113 113
113 113 113 113 113 113 112 112 112 112 112 112 112 112 112 112 112
112 112 112 112 112 112 112 112 112 112 111 111 111 111 111 111 111
111 111 111 111 111 111 112 111 111 110 110 110 110 110 110 110 110
110 110 110 110 110 110 110 109 109 109 109 109 109 109 109 109 109
109 109 109 109 109 109 109 109 109 109 109 109 109 109 109 109 109
109 109 109 109 109 109 109 109 109 109 109 109 109 109 109 109 109
109 109 109 109 109 109 109 109 109 109 108 108 108 108 108 108 108
108 108 108 108 108 108 108 108 108 108 108 108 108 108 108 108 108
108 108 108 108 108 108 108 108 108 108 108 108 108 108 108 108 108
108 108 108 108 108 108 108 108 108 108 108 108 108 108 108 108 108
108 108 108 108 108 108 108 108 108 108 108 108 108 108 108 108 108
108 108 108 108 108 108 108 108 108 109 109 108 109 109 109 109 109
109 109 109 109 109 109 109 109 109 109 109 109 109 110 110 110 110
110 110 110 110 110 110 110 110 111 111 111 111 111 111 111 111 111
111 111 112 112 112 112 112 112 112 112 113 113 113 113 113 113 113
113 114 114 114 114 114 114 114 115 115 115 115 115 115 115 115 116
116 116 116 116 116 116 116 117 117 117 116 117 117 117 116 116 118
118 118 118 117 118 118 118 117 118 119 119 119 119 119 119 118 119
119 119 119 119 119 119 119 119 120 120 120 120 120 120 120 120 120
120 121 121 121 121 121 121 121 121 122 122 122 122 122 122 122 122
123 123 123 123 123 123 123 123 124 124 124 124 125 124 124 125 125
125 125 125 125 125 125 126 126 126 126 126 126 127 127 127 127 127
127 127 127 128 128 128 128 128 128 128 129 129 130 129 129 129 129
130 130 130 130 130 130 130 130 131 131 131 131 131 131 132 132 132
132 132 132 133 133 133 133 133 134 133 135 134 134 134 134 135 118
118 118 118 118 117 117 117 117 117 117 117 117 117 117 116 116 116
116 116 116 116 116 116 116 116 116 116 116 115 115 115 115 115 115
115 115 115 115 115 115 114 114 114 114 114 114 114 114 114 114 114
114 114 114 113 113 113 113 113 113 113 113 113 113 113 113 113 112
112 112 112 112 112 112 112 112 112 112 112 112 112 112 112 112 112
112 112 112 112 112 111 111 111 111 111 111 111 111 111 111 111 111
111 111 111 110 110 110 110 110 110 110 110 110 110 110 110 110 110
110 109 110 110 109 109 109 109 109 109 109 109 109 109 109 109 109
109 109 109 109 109 109 109 109 109 109 109 109 109 109 109 109 109
109 109 109 109 109 109 109 109 109 109 109 109 109 109 109 109 109
109 109 109 109 109 109 109 109 109 109 109 109 109 109 109 109 108
108 108 108 108 108 108 108 108 108 108 108 108 108 108 108 108 108
108 108 108 108 108 108 108 108 108 108 108 108 108 108 108 108 108
108 108 108 108 108 108 108 108 108 108 108 108 108 108 108 108 108
107 108 108 108 108 108 108 108 109 109 109 109 109 109 109 109 109
109 109 109 109 109 109 108 109 109 109 110 110 110 110 110 109 110
110 109 110 110 110 110 110 110 111 111 111 111 111 111 111 111 111
112 112 112 112 112 112 112 112 112 113 113 113 113 113 113 113 114
114 114 114 114 114 114 114 115 115 115 115 115 115 115 115 116 116
116 116 116 116 116 116 116 117 117 117 117 117 117 117 117 117 117
118 118 118 118 118 117 118 118 118 119 119 119 119 119 118 118 118
119 120 120 120 119 119 119 119 119 120 120 120 120 120 120 120 120
120 121 121 121 121 121 121 121 121 122 122 122 122 122 122 122 122
122 123 123 123 123 123 123 124 124 124 124 124 124 124 124 124 125
125 125 125 125 125 125 125 126 126 126 126 126 126 127 127 127 127
127 127 127 128 128 128 128 128 128 128 128 129 129 129 129 129 129
130 130 130 130 130 130 130 130 130 131 131 131 131 131 131 132 132
132 132 132 132 133 133 133 133 133 133 134 134 134 134 134 134 135
135 135 135 118 118 118 118 118 118 118 118 118 117 117 117 117 117
117 117 117 117 117 116 116 116 116 116 116 116 116 116 116 116 116
116 116 115 115 115 115 115 115 115 115 115 115 115 115 115 114 114
114 114 114 114 114 114 114 114 114 114 114 113 113 113 113 113 113
113 113 113 113 113 113 113 113 113 112 112 112 112 112 112 112 112
112 112 112 112 112 112 112 112 112 112 112 112 112 111 111 111 111
111 111 111 111 111 111 111 111 111 111 111 111 111 111 110 110 110
110 110 110 109 110 110 110 110 110 110 110 110 110 110 110 109 109
109 109 109 109 109 109 109 109 109 109 109 109 109 109 109 109 109
109 109 109 109 109 109 109 109 109 109 109 109 109 109 109 109 109
109 109 109 109 109 109 109 109 109 109 109 109 109 109 109 109 109
109 109 109 109 109 109 109 109 109 109 109 109 109 108 108 108 108
108 108 108 108 108 108 108 108 108 108 108 108 108 108 108 108 108
108 108 108 108 108 108 108 108 108 108 108 108 108 108 108 108 108
108 108 108 108 108 109 109 109 109 109 109 109 109 109 109 109 109
109 109 109 109 109 109 109 109 109 110 110 110 109 110 110 110 109
110 110 110 110 110 110 111 111 111 111 111 111 111 111 111 111 112
112 112 111 112 112 112 112 112 112 112 113 113 113 113 113 113 113
114 114 114 114 114 114 114 114 114 115 115 115 115 115 115 116 115
116 116 116 116 116 116 116 117 117 117 117 117 117 117 117 117 117
118 118 118 118 118 118 118 118 118 118 119 119 119 119 119 119 118
120 119 120 120 120 120 119 119 119 119 120 120 121 121 121 121 120
120 120 120 121 121 121 121 121 121 121 122 122 122 122 122 122 122
122 122 123 123 123 123 123 123 123 123 124 124 124 124 124 124 124
124 125 125 125 125 125 125 125 126 126 126 126 126 126 126 127 127
127 127 127 127 127 128 128 128 128 128 128 128 128 129 129 129 129
129 129 130 130 130 130 130 130 130 130 130 131 131 131 131 131 131
132 132 132 132 132 132 133 133 133 133 133 133 134 134 134 134 134
135 135 135 135 135 135 135 119 119 119 118 118 118 118 118 118 118
118 118 118 117 117 117 117 117 117 117 117 117 117 117 116 116 116
116 116 116 116 116 116 116 116 116 116 115 115 115 115 115 115 115
115 115 115 115 115 115 114 114 114 114 114 114 114 114 114 114 114
114 114 114 114 113 113 113 113 113 113 113 113 113 113 113 113 113
113 113 113 112 112 112 112 112 112 112 112 112 112 112 112 112 112
112 112 112 112 112 112 112 112 111 111 111 111 111 111 111 111 111
111 111 111 111 111 111 111 111 110 110 110 110 110 109 110 110 110
110 110 110 110 110 110 110 110 110 110 110 110 110 110 110 109 109
109 109 109 109 109 109 109 109 109 109 109 109 109 109 109 109 109
109 109 109 109 109 109 109 109 109 109 109 109 109 109 109 109 109
109 109 109 109 109 109 109 109 109 109 109 109 109 109 109 109 109
109 109 109 109 109 109 109 109 109 109 109 109 109 109 109 109 109
109 109 109 109 109 109 109 109 109 109 109 109 109 109 109 109 109
109 109 109 109 109 109 109 109 109 109 109 109 109 109 109 109 109
109 109 109 109 109 110 110 110 110 110 110 110 110 110 110 110 110
110 110 110 110 111 111 111 111 111 111 111 111 111 111 111 112 112
112 112 112 112 112 112 112 112 113 113 113 113 113 113 113 113 114
114 114 114 114 114 114 114 115 115 115 115 115 115 115 115 116 116
116 116 116 116 116 116 116 116 117 117 117 117 117 117 117 117 117
118 118 118 118 118 118 118 118 118 119 119 119 119 119 119 119 119
118 119 120 120 120 120 120 120 119 119 119 120 120 120 121 121 121
120 120 120 121 121 121 121 121 121 121 121 122 122 122 122 122 122
122 122 123 123 123 123 123 123 123 123 123 124 124 124 124 124 124
124 124 125 125 125 125 125 125 125 126 126 126 126 126 126 126 127
127 127 127 127 127 127 128 128 128 128 128 128 128 129 129 129 129
129 129 130 130 130 130 130 130 130 130 130 130 131 131 131 131 131
131 131 132 132 132 132 132 133 133 133 133 133 133 133 134 134 134
134 135 135 135 135 135 135 135 135 136 136 119 119 119 119 119 118
118 118 118 118 118 118 118 118 118 118 117 117 117 117 117 117 117
117 117 117 117 116 116 116 116 116 116 116 116 116 116 116 116 116
116 115 115 115 115 115 115 115 115 115 115 115 115 115 115 114 114
114 114 114 114 114 114 114 114 114 114 114 114 113 113 113 113 113
113 113 113 113 113 113 113 113 113 113 113 112 112 112 112 112 112
112 112 112 112 112 112 112 112 112 112 112 112 112 112 112 112 111
111 111 111 111 111 111 111 111 111 111 111 111 111 111 111 111 110
111 110 110 109 110 110 110 110 110 110 110 110 110 110 110 110 110
110 110 110 110 110 110 110 110 110 110 110 110 110 110 109 109 109
109 109 109 109 109 109 109 109 109 109 109 109 109 109 109 109 109
109 109 109 109 109 109 109 109 109 109 109 109 109 109 109 109 109
109 109 109 109 109 109 109 109 109 109 109 109 109 109 109 109 109
109 109 109 109 109 109 109 109 109 109 109 109 109 109 109 109 109
109 109 109 109 109 109 109 109 109 109 109 109 109 109 109 109 109
109 109 110 109 110 110 110 110 110 110 110 110 110 110 110 110 110
111 110 111 111 111 111 111 111 111 111 111 111 111 111 112 112 111
112 112 112 112 112 112 113 113 113 113 113 113 113 113 113 113 114
114 114 114 114 114 114 114 115 115 115 115 115 115 115 115 115 116
116 116 116 116 116 116 116 116 117 117 117 117 117 117 117 117 117
117 118 118 118 118 118 118 118 118 118 118 119 119 119 119 119 119
119 119 119 120 120 120 119 120 120 120 120 120 120 120 120 121 121
120 120 120 120 120 121 121 121 121 121 121 121 122 122 122 122 122
122 122 122 122 122 123 123 123 123 123 123 123 124 124 124 124 124
124 124 124 124 125 125 125 125 125 125 125 127 126 126 126 126 126
127 127 127 127 127 127 127 128 128 128 128 128 128 128 129 129 129
129 129 129 130 130 130 130 130 130 130 130 130 131 131 131 131 131
131 131 131 131 132 132 132 132 132 132 132 133 133 133 133 133 134
134 134 134 135 135 135 135 135 135 135 136 136 136 136 136 119 119
119 119 119 119 119 119 119 118 118 118 118 118 118 118 118 118 118
118 118 117 117 117 117 117 117 117 117 117 117 117 117 116 116 116
116 117 116 116 116 116 116 116 116 116 115 115 115 115 115 115 115
115 115 115 115 115 115 115 115 115 114 114 114 114 114 114 114 114
114 114 114 114 114 114 114 113 113 113 113 113 113 113 113 113 113
113 113 113 113 113 113 113 112 112 112 112 112 112 112 112 112 112
112 112 112 112 112 112 112 112 112 112 112 112 111 111 111 111 111
111 111 111 111 111 111 111 111 111 111 111 110 110 110 110 110 110
110 110 110 110 110 110 110 110 110 110 110 110 110 110 110 110 110
110 110 110 110 110 110 110 110 110 110 110 110 110 109 109 110 109
109 109 109 109 109 109 109 109 109 109 109 109 109 109 109 109 109
109 109 109 109 109 109 109 109 109 109 109 109 109 109 109 109 109
109 109 109 109 109 109 109 109 109 109 109 109 109 109 109 109 109
109 109 109 109 109 109 109 109 109 109 109 109 109 110 109 110 109
110 110 110 110 110 110 110 110 110 110 110 110 110 110 110 110 110
110 111 111 111 111 111 111 111 111 111 112 112 112 112 112 112 112
112 112 112 112 112 112 113 113 113 113 113 113 113 113 113 113 114
114 115 114 114 114 114 115 115 115 115 115 115 115 115 115 116 116
116 116 116 116 116 116 116 116 117 117 117 117 117 117 117 117 117
117 118 118 118 118 118 118 118 118 119 119 119 119 119 119 119 119
119 119 120 120 120 120 120 120 120 120 120 120 120 121 121 121 121
121 120 120 120 120 121 122 122 122 121 121 121 122 122 122 122 122
122 122 122 122 123 123 123 123 123 123 123 123 123 124 124 124 124
124 124 124 124 124 125 125 125 125 125 125 126 126 126 126 127 126
126 127 127 127 127 127 127 127 128 128 128 128 128 128 128 129 129
129 129 129 129 129 130 130 130 130 130 130 130 131 131 131 131 131
131 131 131 131 132 132 132 132 132 132 132 133 133 133 133 133 134
134 134 134 134 134 135 135 135 135 135 135 136 136 136 136 136 137
137 137 120 120 120 120 119 119 119 119 119 119 119 119 119 118 118
118 118 118 118 118 118 118 118 118 117 117 117 117 117 118 117 117
117 117 117 117 117 116 116 116 116 116 116 116 116 116 116 116 116
116 116 115 115 115 115 115 115 115 115 115 115 116 116 116 115 114
114 114 114 114 114 114 114 114 114 114 114 114 114 114 114 114 114
113 113 113 113 113 113 113 113 113 113 113 113 113 113 113 113 113
113 113 113 112 112 112 113 112 113 112 112 112 112 112 112 112 112
112 112 111 112 111 111 111 111 111 111 111 111 111 111 111 111 111
111 111 111 110 110 110 110 110 110 110 110 110 110 110 110 110 110
110 110 110 110 110 110 110 110 110 110 110 110 110 110 110 110 110
110 110 110 110 110 110 110 110 110 110 110 110 110 110 109 109 109
109 109 110 110 110 110 110 110 110 109 109 109 109 109 109 109 109
109 109 109 109 109 109 109 109 109 109 109 109 109 109 109 109 109
109 109 109 109 109 109 110 110 110 110 110 110 110 110 110 110 110
110 110 110 110 110 110 110 110 110 110 110 110 110 111 110 110 111
111 111 111 111 111 111 111 111 111 111 111 112 112 112 112 112 112
112 112 112 112 112 113 113 113 113 113 113 113 112 113 113 113 113
113 114 114 114 114 114 114 115 115 115 115 115 115 115 115 115 115
116 116 115 116 116 116 116 116 117 117 117 117 117 117 117 117 117
117 117 118 118 118 118 118 118 118 118 118 119 119 119 119 119 119
119 119 119 120 120 120 120 120 120 119 120 120 121 121 121 121 121
121 121 121 120 120 121 122 122 122 122 122 122 121 121 122 122 122
122 122 122 122 122 122 123 123 123 123 123 123 123 123 124 124 124
124 124 124 124 124 124 124 125 125 125 125 126 125 126 126 126 126
126 126 127 127 127 127 127 127 127 127 128 128 128 128 128 128 128
129 129 129 129 129 129 130 130 130 130 130 130 130 130 131 131 131
131 131 131 131 132 132 132 132 132 132 132 132 132 133 133 133 133
133 133 134 134 134 134 134 135 135 135 135 136 136 136 136 136 136
136 137 137 137 137 137 120 120 120 120 120 120 120 120 120 120 119
119 119 119 119 119 119 119 119 119 118 118 118 118 118 118 118 118
118 118 118 117 117 117 117 117 117 117 117 117 117 117 117 116 116
116 116 116 116 116 116 116 116 116 116 116 116 116 116 115 115 115
115 115 115 115 115 115 115 115 115 115 115 115 114 114 114 114 114
114 114 114 114 114 114 114 114 114 114 114 114 113 113 113 113 113
113 113 113 113 113 113 113 113 113 113 113 113 113 113 113 113 113
112 112 113 112 112 112 112 112 112 112 112 112 112 112 111 111 111
111 111 111 111 111 111 111 111 111 111 111 111 111 111 111 111 110
110 111 110 110 110 110 110 110 110 110 110 110 110 110 110 110 110
110 110 110 110 110 110 110 110 110 110 110 110 110 110 110 110 110
110 110 110 110 110 110 110 110 110 110 110 110 110 110 110 110 110
110 110 110 110 110 110 110 110 110 110 110 110 110 110 110 110 110
110 110 110 110 110 110 110 110 110 110 110 110 110 110 110 110 110
110 110 110 110 110 110 110 110 110 111 111 111 111 111 111 111 111
111 111 111 111 111 111 111 111 112 111 112 112 112 112 112 112 112
112 112 112 113 113 113 113 113 113 113 113 113 113 113 113 113 114
114 114 114 114 114 114 115 115 115 115 115 115 115 115 115 115 116
116 116 116 116 116 116 116 116 117 117 117 117 117 117 117 117 117
117 117 118 118 118 118 118 118 118 118 118 118 119 119 119 119 119
119 119 119 119 120 120 120 120 120 120 120 120 120 121 121 121 121
121 121 121 121 120 120 120 121 122 122 122 122 122 122 122 122 122
122 122 122 122 122 122 123 123 123 123 123 123 123 123 124 124 124
124 124 124 124 124 124 125 125 125 125 125 125 125 125 125 126 126
126 127 126 126 127 127 127 127 127 127 127 128 128 128 128 128 128
128 129 129 129 129 129 129 129 130 130 130 130 130 130 131 131 131
131 131 131 131 132 132 132 132 132 132 132 132 132 133 133 133 133
133 133 133 134 134 134 134 134 135 135 135 135 135 136 136 136 136
136 136 137 137 137 137 137 137 138 138 120 120 120 120 120 120 120
120 120 120 120 120 119 119 119 119 119 119 119 119 119 119 119 118
118 118 118 118 118 118 118 118 118 118 117 117 117 117 117 117 117
117 117 116 117 117 117 117 116 116 116 116 116 116 116 116 116 116
116 116 116 116 116 116 116 115 115 115 115 115 115 115 115 115 115
115 115 115 115 114 114 114 114 114 114 114 114 114 114 114 114 114
114 114 114 114 113 113 113 113 113 113 113 113 113 113 113 113 113
113 113 113 113 113 113 113 113 112 112 112 112 112 112 112 112 112
112 112 112 112 112 111 111 111 111 111 111 111 111 111 111 111 111
111 111 111 111 111 111 111 111 111 111 111 110 111 111 110 110 110
110 110 110 110 110 110 110 110 110 110 110 110 110 110 110 110 110
110 110 110 110 110 110 110 110 110 110 110 110 110 110 110 110 110
110 110 110 110 110 110 110 110 110 110 110 110 110 110 110 110 110
110 110 110 110 110 110 110 110 110 110 110 110 110 110 110 110 110
110 110 110 110 110 110 111 111 111 111 111 111 111 111 111 111 111
111 111 111 111 111 111 111 111 111 112 112 112 112 112 112 112 112
112 112 112 113 113 113 113 113 113 113 113 113 113 113 114 114 114
114 114 114 114 114 115 115 115 115 115 115 115 115 115 115 115 115
116 116 116 116 116 116 115 116 116 117 117 117 117 117 117 117 117
117 117 118 118 118 118 118 118 118 118 118 118 118 119 119 119 119
119 119 119 119 119 119 120 120 120 120 120 120 120 120 121 121 121
121 121 121 121 121 121 121 122 122 122 122 121 121 121 122 121 122
122 122 122 122 122 122 122 122 123 123 123 123 123 123 123 123 124
124 124 124 124 124 124 125 125 125 125 125 125 125 125 125 125 125
126 126 126 126 126 126 127 127 127 127 127 127 127 128 128 128 128
128 128 129 130 129 129 130 129 129 130 130 130 130 130 130 130 131
131 131 131 131 131 132 132 132 132 132 132 132 132 132 133 133 133
133 133 133 132 133 134 134 134 134 134 135 135 135 135 135 136 136
136 136 136 136 137 137 137 137 137 137 138 138 138 138 121 121 121
121 121 120 120 120 120 120 120 120 120 120 120 120 120 120 119 119
119 119 119 119 120 119 119 119 119 118 118 118 118 118 118 118 118
118 118 118 118 117 117 117 117 117 117 117 117 117 117 117 117 117
117 116 116 116 116 116 116 116 116 116 116 116 116 116 116 116 116
115 115 115 115 115 115 115 115 115 115 115 115 115 115 115 114 114
114 114 114 113 114 114 114 114 114 114 114 114 114 114 114 114 114
114 114 113 113 113 113 113 113 113 113 113 113 113 113 113 113 113
113 112 112 112 112 112 112 112 112 112 112 112 112 112 112 111 110
111 111 111 111 111 111 111 111 111 111 111 111 111 111 111 111 111
111 111 111 111 111 111 111 111 111 111 111 111 110 110 110 110 110
110 110 110 110 110 110 110 110 110 110 110 110 110 110 110 110 110
110 110 110 110 110 110 110 110 110 110 110 110 110 110 110 110 110
110 110 110 110 110 110 110 110 110 110 110 110 110 110 111 111 111
111 111 111 111 111 111 111 111 111 111 111 111 111 111 111 111 111
111 111 111 111 112 111 112 112 112 112 112 112 112 111 112 112 112
112 112 112 113 113 113 112 112 113 113 113 113 114 114 114 114 114
114 114 113 114 114 115 115 115 115 114 115 115 115 115 115 115 116
116 116 116 116 116 116 116 116 116 117 117 117 117 117 117 117 117
117 117 117 118 118 118 118 118 118 118 118 118 118 119 119 119 119
119 119 119 119 119 119 120 120 120 120 120 120 120 120 120 121 121
121 121 121 121 121 121 121 122 122 122 122 122 122 122 122 122 122
122 122 122 122 122 122 122 122 123 123 123 123 123 123 123 124 124
124 124 124 124 124 124 124 125 125 125 125 125 125 125 125 125 125
126 126 126 126 126 126 126 127 127 127 127 127 127 127 127 128 128
128 128 129 129 129 129 129 129 128 130 130 130 130 130 130 130 130
131 131 131 131 131 132 132 132 132 132 132 132 132 132 133 133 133
133 133 133 133 133 133 134 134 134 134 134 135 135 135 135 135 136
136 136 136 136 136 137 137 137 137 137 137 138 138 138 138 138 139
139 121 121 121 121 121 121 121 121 120 120 120 120 120 120 120 120
120 120 120 120 120 120 119 119 119 119 119 119 119 119 119 119 119
119 119 118 118 118 118 118 118 118 118 118 118 118 117 117 117 117
117 117 117 117 117 117 117 117 117 116 116 116 116 116 116 116 116
116 116 116 116 116 116 116 116 115 115 115 115 115 115 115 115 115
115 115 115 115 115 115 115 115 115 114 114 114 114 114 114 114 114
114 114 114 114 114 114 114 114 114 114 114 113 113 113 113 113 113
113 113 113 113 113 113 113 113 113 112 112 112 112 112 112 112 112
112 112 112 112 112 112 111 111 111 111 111 111 111 111 111 111 111
111 111 111 111 111 111 111 111 111 111 111 111 111 111 111 111 111
111 111 111 111 111 111 111 111 111 110 111 111 111 110 111 110 111
111 111 111 111 111 111 111 111 111 111 111 111 111 111 111 111 111
111 111 111 111 111 111 111 111 111 111 111 111 111 111 111 111 111
111 111 111 111 111 111 111 111 111 111 111 111 111 111 111 111 111
111 111 112 111 112 112 112 112 112 112 112 112 112 112 112 112 112
113 113 113 113 113 112 112 113 113 113 113 113 113 113 114 114 114
114 114 114 114 114 115 115 115 115 115 115 115 115 114 114 115 116
116 116 116 116 116 116 116 116 116 117 117 117 117 117 116 117 117
117 117 117 118 118 118 118 118 118 118 118 118 118 118 119 119 119
119 119 119 119 119 119 119 119 120 120 120 120 120 120 120 120 121
121 121 121 121 121 121 121 121 121 122 122 122 122 122 122 122 122
122 122 122 122 122 122 122 122 122 123 123 123 123 123 123 123 124
124 124 124 124 124 124 124 125 125 125 125 125 125 125 125 125 125
126 126 126 126 126 126 127 126 127 127 127 127 127 127 127 128 128
128 128 128 129 128 129 129 129 129 129 129 130 130 130 130 130 130
130 131 131 131 131 131 131 132 132 132 132 132 132 132 133 133 133
133 133 133 133 133 133 134 134 134 134 134 134 134 134 136 135 135
135 136 136 136 136 136 136 137 137 137 137 137 138 138 138 138 138
138 139 139 139 139 122 122 122 121 121 121 121 121 121 121 121 121
121 121 120 120 120 120 120 120 120 120 120 120 120 120 120 120 120
119 119 119 119 119 119 119 119 119 119 119 119 118 118 117 118 118
118 118 118 118 118 118 118 117 117 117 117 117 117 117 117 117 117
117 117 117 117 116 116 116 116 116 117 116 116 116 116 116 116 116
116 116 116 115 115 115 115 115 115 115 115 115 115 115 115 115 115
115 115 114 114 114 114 114 114 114 114 114 114 114 114 114 114 114
114 114 114 114 113 113 113 113 113 113 113 113 113 113 113 113 113
112 112 112 112 112 112 112 112 112 112 112 112 112 112 112 112 111
111 111 111 111 111 111 111 111 111 111 111 111 111 111 111 111 111
111 111 111 111 111 111 111 111 111 111 111 111 111 111 111 111 111
111 111 111 111 111 111 111 111 111 111 111 111 111 111 111 111 111
111 111 111 111 111 111 111 111 111 111 111 111 111 111 111 111 111
111 111 111 111 111 111 112 111 112 111 111 111 111 111 111 111 111
111 111 111 111 111 112 112 112 113 112 112 113 113 112 112 112 112
112 114 113 114 113 113 113 113 113 113 114 114 113 113 114 114 114
114 114 114 114 114 115 115 115 115 115 115 115 115 115 116 115 115
116 116 116 116 116 116 116 116 116 117 117 117 117 117 116 116 117
117 117 117 117 118 118 118 118 118 118 118 118 118 118 118 119 119
119 119 119 119 119 119 119 119 120 120 120 120 120 120 120 120 120
121 121 121 121 121 121 121 120 121 122 122 122 122 122 122 121 122
122 122 122 122 122 122 122 122 122 123 123 123 123 123 123 123 123
124 124 124 124 124 124 124 124 125 125 125 125 125 125 125 125 126
126 126 126 126 126 126 126 126 126 127 127 127 127 127 127 127 127
128 128 128 129 128 128 129 129 129 129 129 129 129 130 130 130 130
130 131 131 131 131 131 131 131 132 132 132 132 132 132 132 133 133
133 133 133 133 133 133 134 134 134 134 134 134 134 134 135 135 135
135 135 136 136 136 136 136 136 137 137 137 137 137 138 138 138 138
138 138 139 139 139 139 139 140 140 122 122 122 122 122 122 122 122
121 121 121 121 121 121 121 121 121 121 121 120 120 120 120 120 120
120 120 120 120 120 120 120 120 119 119 119 119 119 119 119 119 119
119 120 119 119 118 118 118 118 118 118 118 118 118 118 118 118 118
117 117 117 117 117 117 117 117 117 117 117 118 117 116 116 116 116
116 116 116 116 116 116 117 116 116 117 116 116 115 115 115 115 115
115 115 115 115 115 115 115 115 115 115 115 114 114 114 114 114 114
114 114 114 114 114 114 114 114 114 114 114 113 113 113 113 113 113
113 113 113 113 113 113 113 113 113 112 112 112 112 112 112 112 112
112 112 112 112 112 111 111 111 111 111 111 111 111 111 111 111 111
111 111 111 111 111 111 111 111 111 111 111 111 111 111 111 111 111
111 111 111 111 111 111 111 111 111 111 111 111 111 111 111 111 111
111 111 111 111 111 111 111 111 111 111 111 111 111 111 111 111 111
112 111 111 111 111 111 112 111 111 111 111 111 111 111 111 111 111
111 111 112 112 111 112 113 113 112 112 112 112 112 112 113 113 112
113 113 113 113 113 112 113 113 113 113 113 113 114 114 114 114 114
115 114 114 114 114 115 114 114 114 115 115 115 115 115 115 115 116
116 115 116 116 116 116 116 116 117 116 116 117 117 117 117 117 117
117 117 117 118 118 118 118 118 118 118 118 117 118 118 118 118 119
119 119 119 119 119 119 119 119 119 120 120 120 120 120 120 120 120
120 120 121 121 121 121 121 121 121 121 121 122 122 122 122 122 122
122 122 122 122 122 122 122 122 122 122 123 123 123 123 123 123 123
124 124 124 124 124 124 124 124 124 125 125 125 125 125 125 125 125
125 126 126 126 126 126 126 126 126 126 127 127 127 127 127 127 127
127 127 129 129 128 128 128 128 129 129 129 129 129 130 130 130 130
130 130 130 131 131 131 131 131 131 131 132 132 132 132 132 132 133
133 133 133 133 133 133 133 134 134 134 134 134 134 134 134 134 135
135 135 135 135 136 136 136 136 136 137 137 137 137 137 137 138 138
138 138 138 138 139 139 139 139 139 140 140 140 140 123 123 122 122
122 122 122 122 122 122 122 122 122 122 122 121 121 121 121 121 121
121 121 121 120 120 120 120 120 120 120 120 120 120 120 120 120 120
120 120 119 119 119 119 119 119 119 119 119 119 119 119 119 118 118
118 118 118 118 118 118 118 118 118 118 117 117 117 117 117 117 117
117 117 117 117 117 117 117 116 116 116 116 116 116 116 116 116 116
116 116 116 116 116 115 115 115 115 115 115 114 115 115 115 115 115
115 115 115 115 115 114 114 114 114 114 115 114 114 114 114 114 114
114 114 114 114 113 113 113 113 113 113 113 113 113 113 113 113 113
113 112 112 112 112 112 112 112 112 112 112 112 112 112 112 112 111
111 111 111 111 112 111 111 111 111 111 111 111 111 111 111 111 111
111 111 111 111 111 111 111 111 111 111 111 111 111 111 111 111 111
111 111 111 111 111 111 111 111 111 111 111 111 111 111 111 111 111
111 111 111 111 111 111 111 111 111 111 111 111 111 111 111 111 112
112 112 112 112 112 112 112 112 112 112 112 112 112 112 113 114 113
113 113 113 114 113 113 113 113 114 114 114 114 114 114 114 114 114
114 114 114 115 115 115 115 115 115 115 115 115 116 116 115 115 115
116 115 115 116 117 116 116 116 117 117 117 117 117 117 117 117 116
116 117 117 118 118 118 118 118 118 118 118 118 118 118 117 118 119
119 119 119 119 119 119 119 119 119 120 120 120 120 120 120 120 120
120 121 121 121 121 121 121 121 121 121 121 122 122 122 122 122 122
122 122 122 122 123 122 122 122 123 122 123 123 123 123 123 123 123
123 124 124 124 124 124 124 124 124 125 125 125 125 125 125 125 125
125 126 126 126 126 126 126 126 126 126 127 127 127 127 127 127 127
127 127 128 128 128 129 128 128 129 129 129 129 130 129 129 129 130
130 130 131 131 131 131 131 131 131 131 131 131 132 132 132 132 132
132 133 133 133 133 133 133 134 134 134 134 134 134 134 134 134 135
135 135 135 135 135 136 136 136 136 136 136 137 137 137 138 138 138
138 138 138 138 138 139 139 139 139 139 140 140 140 140 140 141 141
123 123 123 123 123 122 122 122 122 122 122 122 122 122 122 122 122
122 122 121 121 121 121 121 121 121 121 121 121 121 121 120 120 120
120 120 120 120 120 120 120 120 120 120 120 119 119 119 119 119 119
119 119 119 119 119 119 119 118 118 119 118 118 118 118 118 118 118
118 118 117 117 117 117 117 117 117 117 117 117 117 117 117 117 117
116 116 116 116 116 116 116 116 116 116 116 116 116 116 116 116 115
115 115 115 115 115 115 115 115 115 115 115 114 114 114 114 114 114
114 114 114 114 114 114 114 114 114 114 114 113 113 113 113 113 113
113 113 113 113 113 113 113 113 113 113 112 112 112 112 112 112 112
112 112 112 112 112 112 112 111 111 111 111 112 112 111 112 112 112
112 112 112 111 112 112 112 112 112 112 112 112 111 111 112 111 112
111 112 112 111 112 111 112 111 111 111 111 111 111 111 111 111 111
111 111 111 111 111 111 111 111 112 111 111 111 112 112 112 112 112
112 112 112 112 112 112 112 112 112 112 113 112 113 113 113 113 113
113 113 113 113 113 113 113 113 113 114 114 114 114 114 114 114 114
114 114 115 115 115 115 115 115 115 115 115 115 115 115 115 116 115
116 116 116 116 116 116 116 116 116 116 116 117 117 117 117 116 117
117 118 118 118 118 118 118 118 118 118 118 118 118 118 118 118 119
119 119 119 119 119 119 119 119 119 120 120 120 120 120 120 120 120
120 120 121 121 121 121 121 121 121 121 121 121 121 122 122 122 122
122 122 122 122 123 122 122 122 122 122 122 123 123 123 123 123 123
123 124 123 124 124 124 124 124 124 124 124 125 125 125 125 125 125
125 126 126 126 126 126 126 126 126 126 127 127 127 127 127 127 127
127 127 128 128 128 128 128 128 128 128 129 129 129 129 129 129 129
130 130 130 130 130 131 131 131 131 131 132 131 132 132 132 132 132
132 133 133 133 133 133 133 133 134 134 134 134 134 134 134 134 135
135 135 135 135 135 135 136 136 136 136 136 136 137 137 137 137 137
138 138 138 138 138 138 139 139 139 139 139 140 140 140 140 140 142
141 141 141 141 123 123 123 123 123 123 122 122 123 123 123 123 122
122 122 122 122 122 122 122 122 122 122 122 122 122 121 121 121 121
121 121 121 121 121 121 121 121 120 120 120 120 120 120 120 120 120
120 120 120 120 120 119 119 119 119 119 119 119 119 119 119 119 119
119 120 119 118 118 118 118 118 118 118 118 118 118 118 117 117 117
117 117 117 117 117 118 118 117 116 116 116 116 116 116 116 116 116
116 116 116 116 116 116 116 116 115 115 115 115 115 115 115 115 115
115 115 115 115 115 114 114 114 114 114 114 114 114 114 114 114 114
114 114 114 113 114 112 112 113 113 113 113 113 113 113 113 113 113
113 113 113 112 112 112 112 112 112 112 112 112 112 112 111 111 111
111 111 111 111 111 111 111 112 111 111 111 111 111 112 111 112 111
111 112 111 112 111 112 112 111 112 111 112 111 111 111 111 112 111
111 111 111 112 112 112 111 112 112 112 112 113 112 112 111 112 112
112 112 112 112 112 112 112 112 113 113 113 113 113 113 113 113 113
113 113 113 113 113 113 114 114 114 114 114 114 114 114 114 114 114
115 115 115 115 115 115 115 115 115 115 115 116 116 115 116 116 116
116 116 116 116 116 116 116 116 116 117 117 117 117 117 117 117 117
117 117 117 117 117 118 118 118 118 118 118 118 118 119 118 118 118
119 119 119 119 119 119 119 119 119 119 120 120 120 120 120 120 120
120 120 120 121 121 121 121 121 121 121 121 121 122 122 122 122 122
122 122 122 122 122 123 122 122 122 122 122 122 123 123 123 123 123
123 123 124 124 124 124 124 124 124 124 125 125 125 125 125 125 125
125 126 126 126 126 126 126 126 126 127 127 127 127 127 127 127 127
127 127 128 128 128 128 128 128 128 128 129 130 129 129 129 129 130
129 129 130 130 131 130 130 131 131 132 131 131 132 132 132 132 132
132 133 133 133 133 133 133 133 133 134 134 134 134 134 134 134 135
135 135 135 135 135 135 135 135 136 136 136 136 136 137 137 137 137
137 137 138 138 138 137 138 138 139 139 139 139 139 140 140 141 140
141 141 141 140 141 142 143 143 124 124 124 123 123 123 123 123 123
123 123 123 123 123 123 123 123 122 122 122 122 122 122 122 122 122
122 122 122 122 122 121 121 121 121 121 121 121 121 121 121 121 120
120 120 120 120 120 120 120 120 120 120 120 120 120 119 119 119 119
119 119 119 119 119 119 119 120 119 119 118 118 118 118 118 118 118
118 118 118 118 118 118 117 117 117 117 117 117 117 117 117 117 117
116 116 116 116 116 116 116 116 116 116 116 116 116 116 116 115 115
115 115 115 115 115 115 115 115 115 115 115 115 115 115 115 114 114
114 114 114 114 114 114 114 114 114 114 114 113 113 113 113 113 113
113 113 113 113 113 113 113 113 113 113 113 113 113 113 113 113 112
112 112 112 112 112 112 112 112 112 112 112 111 112 111 111 112 112
112 111 112 112 112 112 112 112 112 112 112 112 112 112 112 112 112
113 112 112 112 112 112 112 112 112 112 112 112 112 112 112 112 112
112 112 113 112 112 113 113 113 113 113 113 113 113 113 113 113 113
113 114 113 114 114 114 114 114 114 114 114 114 114 115 115 115 115
115 115 115 115 115 115 115 115 115 115 115 116 116 116 116 116 116
116 116 116 116 116 116 116 117 117 117 117 117 117 117 117 117 117
117 117 117 117 117 118 117 118 118 119 119 118 118 118 118 118 119
119 118 119 119 119 119 119 119 119 119 119 120 120 120 120 120 120
120 120 120 120 121 121 121 121 121 121 121 121 121 121 122 122 122
122 122 122 122 122 122 122 122 122 122 122 123 123 123 124 123 123
123 123 123 123 125 124 124 124 124 124 124 125 125 125 125 125 125
125 125 125 126 126 126 126 126 126 126 126 127 127 127 127 127 127
127 127 127 128 128 128 128 128 128 128 128 128 128 129 129 128 129
129 129 129 130 130 130 131 130 131 131 131 131 131 132 132 132 132
132 132 132 133 133 133 133 133 133 133 133 134 134 134 134 134 135
135 135 135 135 135 135 135 135 135 136 136 136 136 136 136 137 137
137 137 137 137 138 138 138 138 138 139 139 139 139 139 140 140 140
140 140 141 141 141 141 142 143 143 143 143 142 124 124 124 124 124
124 124 124 124 124 124 124 123 123 123 123 123 123 123 123 123 123
123 123 122 122 122 122 122 122 122 122 122 122 122 122 122 121 121
121 121 121 121 121 121 121 121 121 121 120 120 120 120 120 120 120
120 120 120 120 120 120 120 120 119 120 119 119 119 119 119 119 119
119 118 118 118 119 118 118 118 118 118 118 118 118 117 117 117 117
117 117 117 117 117 117 117 117 117 116 116 116 116 116 116 116 116
116 116 116 116 116 116 116 116 115 115 115 115 115 115 115 115 115
115 115 115 115 115 115 115 115 114 114 114 114 114 114 114 114 114
114 114 114 114 114 114 114 113 113 113 113 113 113 113 113 113 113
113 113 113 113 113 112 113 112 113 112 112 112 112 112 112 112 112
112 112 112 112 112 112 112 112 112 112 112 112 112 112 112 112 112
112 112 112 112 112 112 112 112 112 112 112 112 112 113 112 112 112
113 113 113 113 113 113 113 113 113 113 113 113 113 113 113 114 114
114 114 114 114 114 114 114 114 114 114 115 115 115 115 115 115 115
115 115 115 115 115 115 115 115 116 116 116 116 116 116 116 116 115
116 116 116 116 116 116 117 117 117 117 117 117 117 117 117 117 117
117 118 118 117 118 118 118 118 118 118 118 119 118 119 119 119 119
119 119 118 119 119 118 119 119 120 120 120 120 120 120 120 120 120
120 120 120 120 121 121 121 121 121 121 121 121 121 121 122 122 122
122 122 122 122 122 122 122 122 122 122 123 123 122 123 123 123 123
123 124 124 124 123 124 124 124 124 124 124 125 125 125 125 125 125
125 125 125 126 126 126 126 126 126 126 126 127 127 127 127 127 127
127 128 128 128 128 128 128 128 128 128 128 128 129 129 129 129 129
129 129 129 129 130 130 130 130 130 131 131 131 131 131 132 132 132
132 132 133 132 132 133 133 133 133 134 134 134 134 134 135 135 134
135 135 135 135 135 135 135 136 136 136 136 136 136 136 136 136 137
137 137 137 137 138 138 138 138 138 138 139 139 139 139 139 139 140
140 140 140 141 141 141 142 141 142 142 142 143 143 144 144 144 125
125 124 124 124 124 124 124 124 124 124 124 124 123 124 124 124 123
123 123 123 123 123 123 123 123 123 123 123 123 122 122 122 122 122
122 122 122 122 122 122 122 122 121 121 121 121 121 121 121 121 121
121 121 120 120 120 120 120 120 120 120 120 120 120 120 120 120 120
119 119 119 119 119 119 119 119 120 119 118 118 118 118 118 118 118
118 118 118 119 118 117 117 117 117 117 117 117 117 117 117 117 117
116 116 116 116 116 116 116 116 116 116 116 116 116 116 116 115 115
115 115 115 115 115 115 115 115 115 115 115 115 115 115 115 115 114
114 114 114 114 114 114 114 114 114 115 114 114 114 114 114 114 114
114 113 113 113 113 113 113 112 113 113 113 113 113 113 113 113 113
113 113 113 113 113 113 113 112 113 112 113 112 112 113 112 113 112
113 113 112 113 112 113 113 112 112 112 114 112 113 113 113 113 113
113 113 113 113 113 113 113 113 113 113 113 113 113 114 114 114 114
114 114 114 114 114 114 114 114 115 115 115 115 115 115 115 115 115
115 115 115 115 115 115 115 116 115 116 116 116 116 116 116 116 116
116 116 116 116 116 117 117 117 117 117 117 117 117 117 117 117 117
117 117 118 118 118 118 118 118 118 118 118 118 118 119 119 119 119
119 119 118 119 119 119 120 119 120 120 120 120 120 120 120 120 120
120 120 120 120 121 121 121 121 121 121 121 121 121 121 121 122 122
122 122 122 122 122 122 122 122 122 122 122 123 123 123 123 124 123
123 123 124 124 124 125 124 124 124 124 124 124 125 125 125 125 125
125 125 126 125 126 126 126 126 126 126 126 126 126 127 127 127 127
127 127 128 128 128 128 128 128 128 128 128 128 129 129 129 129 129
129 129 129 129 130 130 130 130 130 130 131 131 131 131 131 131 131
131 133 132 132 133 133 133 133 133 133 133 134 134 134 134 135 135
135 134 135 135 135 135 135 135 136 136 136 136 136 136 136 136 136
137 137 137 137 137 137 138 138 138 138 138 138 139 139 139 139 139
140 140 140 140 140 141 141 141 141 141 142 142 142 143 144 144 143
143 144 145 125 125 125 125 125 125 125 125 125 124 124 124 124 124
124 124 124 124 124 124 124 124 123 123 123 123 123 123 123 123 123
123 123 123 123 123 123 122 122 122 122 122 122 122 122 122 122 122
122 121 121 121 121 121 121 121 121 121 121 121 121 120 120 120 120
120 120 120 120 120 121 120 121 120 119 119 119 119 119 119 119 119
119 119 118 118 118 118 118 118 118 119 118 118 118 118 117 117 117
117 117 117 117 117 117 117 117 117 116 116 116 116 116 116 116 116
116 116 116 116 116 116 116 116 115 115 115 115 115 115 115 115 115
115 115 115 115 115 115 115 115 115 114 114 114 114 114 114 114 114
114 114 114 114 114 114 114 114 114 114 114 114 114 114 114 114 114
114 114 114 114 114 114 114 114 114 114 114 114 114 113 114 113 113
113 113 113 113 113 113 113 113 113 113 113 113 113 113 113 113 113
113 113 113 113 113 113 113 114 114 114 114 114 114 114 114 114 114
114 114 114 114 115 115 115 115 115 115 115 115 115 115 115 115 115
115 115 115 116 116 116 116 116 116 116 116 116 116 116 116 116 116
116 117 117 117 117 117 117 117 117 117 117 117 117 117 117 117 117
118 118 118 118 118 118 118 118 118 118 118 118 119 118 118 119 119
119 119 120 119 119 119 119 119 119 120 120 120 120 120 120 120 121
120 120 120 120 121 120 121 121 120 121 121 121 121 121 122 122 122
122 122 122 122 122 122 122 122 122 122 122 123 123 123 123 123 123
123 124 124 124 124 124 125 124 124 124 124 125 125 125 125 125 125
125 126 126 126 126 126 127 126 126 126 126 126 126 127 127 127 127
127 127 128 128 128 128 128 128 128 128 128 129 129 129 129 129 129
129 129 129 130 130 130 130 130 130 130 130 130 131 131 131 131 131
132 133 132 132 132 133 133 134 133 133 133 134 134 133 134 134 134
135 135 135 135 135 135 135 135 136 136 136 136 136 136 136 136 136
137 137 137 137 137 137 138 138 138 138 138 138 138 139 139 139 139
139 140 140 140 140 141 141 141 141 141 142 142 142 142 143 143 144
144 143 144 145 145 145 145 125 125 125 125 125 125 125 125 125 125
125 125 125 125 125 125 125 124 124 124 124 124 124 124 124 124 124
124 124 123 123 123 123 123 123 123 123 123 123 123 123 122 122 122
122 122 122 122 122 122 122 122 122 122 121 121 121 121 121 121 121
121 122 121 120 121 120 120 120 120 120 120 120 120 120 120 120 120
119 119 119 119 119 119 119 119 119 119 118 118 118 118 118 118 118
118 118 118 118 118 117 117 117 117 117 117 117 117 117 117 117 117
117 116 116 116 116 116 116 116 116 116 116 116 116 116 116 116 116
116 115 115 115 115 115 115 115 115 115 115 115 115 115 115 115 115
115 115 115 114 114 114 114 114 114 114 114 114 114 114 114 114 114
114 114 114 114 114 113 114 113 114 114 113 114 113 113 114 114 113
113 113 113 113 113 113 113 113 113 114 114 114 114 114 113 114 114
113 115 113 114 114 114 114 114 114 114 114 114 114 114 114 114 114
114 114 115 115 115 115 115 115 115 115 115 115 115 115 115 115 115
115 115 116 116 116 116 116 116 116 116 116 116 116 116 116 116 116
117 117 117 117 117 117 117 117 117 117 117 117 117 117 117 117 118
118 118 118 118 118 118 118 118 118 118 118 118 118 118 118 119 119
119 119 120 119 119 119 119 119 120 120 119 119 120 121 120 120 120
120 120 120 120 120 120 121 121 121 121 121 121 120 121 121 122 122
122 122 122 122 122 122 122 122 123 122 122 123 123 123 123 123 123
124 123 123 124 124 124 124 124 125 124 124 124 124 125 125 126 125
126 125 125 125 125 126 127 127 127 126 126 126 127 127 127 127 127
127 127 127 129 129 128 128 128 128 128 128 128 129 129 129 129 129
129 129 129 130 130 130 130 130 130 130 130 130 130 130 131 131 131
131 131 132 132 132 132 132 133 132 133 133 133 133 134 134 134 134
134 134 135 135 135 135 135 135 135 136 136 136 136 136 136 136 136
137 137 137 137 137 138 137 137 138 138 138 138 138 138 139 139 139
139 139 139 140 140 140 140 141 141 141 141 141 142 142 142 142 142
143 144 144 143 144 145 145 145 145 146 146 126 126 126 126 126 126
126 125 125 125 125 125 125 125 125 125 125 125 125 125 125 124 124
124 124 124 124 124 124 124 124 124 124 124 124 123 123 123 123 123
123 123 123 123 123 123 123 122 122 122 122 122 122 122 122 122 122
122 122 121 121 121 121 121 121 121 121 121 121 121 120 120 120 120
120 120 120 120 120 120 120 120 120 119 119 119 120 120 119 119 119
119 119 118 118 118 118 118 118 118 119 119 118 118 118 117 117 117
117 117 117 117 117 117 117 117 117 117 117 116 116 116 116 116 116
116 116 116 116 116 116 116 116 116 116 116 116 116 116 115 115 115
115 115 115 115 115 115 115 115 115 115 115 115 115 115 115 115 115
115 115 115 115 115 115 115 115 115 115 115 115 115 115 115 115 115
115 115 115 115 115 115 114 115 115 114 115 114 115 115 114 115 115
115 115 115 115 114 115 115 115 115 115 115 114 115 115 115 115 115
115 115 115 115 115 115 115 115 115 115 115 115 115 116 116 116 116
116 116 116 116 116 116 116 116 116 116 116 116 116 117 117 117 117
117 117 117 117 117 117 117 117 117 117 117 117 117 118 118 118 118
118 118 118 118 118 118 118 118 118 118 118 119 118 119 119 119 119
120 120 120 120 119 119 119 119 120 121 120 120 120 120 120 120 120
121 121 121 121 121 121 121 121 121 120 121 121 122 122 122 122 122
122 122 122 122 122 122 122 123 123 123 123 123 123 123 123 123 122
124 124 124 124 124 124 124 124 124 125 125 125 125 125 124 125 125
125 125 126 126 126 125 125 126 126 127 127 127 127 127 127 127 127
127 127 128 127 128 128 128 129 128 128 128 129 129 129 129 129 129
129 129 130 130 130 130 130 130 130 130 130 130 131 131 131 131 132
131 131 131 132 133 132 132 132 132 134 133 134 133 134 134 133 134
134 135 135 135 135 135 135 135 136 135 136 136 136 136 136 136 136
137 137 137 137 137 137 137 137 138 138 138 138 138 138 138 139 139
139 139 139 140 140 140 140 140 141 141 141 141 142 142 142 142 142
142 143 143 144 144 144 145 145 145 145 146 146 146 146 146 127 126
126 126 126 126 126 126 126 126 126 126 126 125 126 125 125 125 125
125 125 125 125 125 125 125 125 125 124 124 124 124 124 124 124 124
124 124 124 124 124 124 124 123 123 123 123 123 123 123 122 122 122
122 122 122 122 122 122 122 122 122 122 121 121 121 121 121 121 121
121 121 121 120 120 120 120 120 120 120 120 120 120 120 120 120 121
120 119 119 119 119 119 119 119 120 119 118 118 118 118 118 118 118
118 118 118 118 117 118 117 117 117 117 117 117 117 117 117 117 117
117 117 117 116 116 116 116 116 116 116 116 116 116 116 116 116 116
116 116 116 116 116 116 116 116 115 115 115 115 115 115 115 115 115
115 115 115 115 115 115 115 115 115 115 115 115 115 115 115 115 115
115 115 115 115 115 115 115 115 115 115 115 115 115 115 115 115 115
115 114 116 115 115 115 115 115 115 115 115 115 115 115 115 115 115
115 115 116 115 115 115 115 115 115 115 115 115 116 116 116 116 116
116 116 116 116 116 116 117 116 116 116 116 118 117 117 117 117 117
117 117 117 117 117 117 117 117 117 117 117 117 118 118 118 118 118
118 118 118 118 118 118 118 118 118 118 118 118 119 119 119 119 119
119 119 119 119 119 119 119 119 120 120 120 120 120 120 120 120 121
121 121 121 121 121 121 121 121 121 121 121 122 122 122 122 122 122
122 122 122 122 122 122 122 122 122 123 123 123 123 123 123 123 124
124 123 124 124 124 124 124 124 124 125 125 125 125 125 125 125 126
125 125 125 125 126 126 126 126 126 126 126 127 127 127 126 127 127
127 127 127 128 128 129 128 128 128 128 128 129 130 129 129 129 129
129 129 130 130 130 130 130 130 130 130 130 130 131 131 131 131 131
131 131 131 131 131 132 132 132 132 132 133 133 133 134 133 133 133
134 134 135 135 135 135 135 135 135 136 136 135 136 136 136 137 137
137 137 137 137 137 137 137 137 138 138 138 138 138 138 138 138 139
139 139 139 139 139 140 140 140 140 141 141 141 141 141 142 142 142
142 142 142 143 143 144 144 145 144 145 145 145 146 146 146 146 146
146 147 127 127 127 127 127 127 126 126 126 126 126 126 126 126 126
126 126 126 126 126 125 125 125 125 125 125 125 125 125 125 125 125
125 125 124 124 124 124 124 124 124 124 124 124 124 124 124 123 123
123 123 123 123 123 123 123 123 122 122 122 122 122 122 122 122 122
122 121 122 121 121 121 121 121 121 121 121 121 121 120 120 120 120
120 120 120 121 121 120 120 120 119 119 119 119 119 119 119 119 119
119 119 118 118 118 118 118 118 118 118 118 118 118 118 118 118 117
117 117 117 117 117 117 117 117 117 117 117 117 117 117 117 117 117
117 117 117 116 116 116 116 116 116 116 116 116 116 116 116 116 116
116 116 116 116 116 116 116 116 116 116 116 116 116 116 116 116 116
116 116 116 116 116 116 116 116 116 116 116 116 116 116 115 115 115
115 116 115 116 116 116 116 115 116 115 115 116 115 116 116 117 117
117 117 117 117 116 117 116 116 116 116 117 117 116 116 116 116 116
116 116 116 116 117 116 117 117 117 117 117 117 117 117 117 117 117
117 117 117 117 117 117 118 117 117 118 118 118 118 118 118 118 118
118 118 118 118 118 118 118 118 118 119 119 119 119 119 119 119 119
119 119 119 119 119 119 119 120 120 120 120 120 120 120 120 120 121
121 121 120 121 121 121 121 121 121 121 121 121 121 122 122 122 122
122 122 122 122 123 123 123 123 123 123 123 123 123 123 123 123 123
124 124 124 124 124 124 124 124 125 124 124 125 125 125 125 125 125
125 125 125 125 126 126 126 126 127 126 126 126 127 127 127 127 127
127 127 127 128 128 128 128 128 128 128 128 128 129 129 129 129 129
129 129 130 130 130 130 130 130 130 130 130 131 131 131 131 131 131
131 131 131 131 132 133 132 132 132 132 132 132 134 133 133 133 133
133 134 134 135 135 135 135 135 135 136 136 136 136 136 136 136 137
137 137 137 137 137 137 137 138 138 138 138 138 138 138 138 138 140
139 139 139 139 139 139 139 140 140 140 141 141 141 141 141 142 142
142 142 142 141 143 143 144 143 144 145 144 144 145 146 146 146 146
147 147 147 147 147 147 127 127 127 127 126 127 127 127 127 127 127
126 126 126 126 126 126 126 126 126 126 126 126 126 126 126 125 125
125 125 125 125 125 125 125 125 125 125 124 124 124 124 124 124 124
124 124 124 124 124 124 123 123 123 123 123 123 123 123 123 123 122
122 122 122 122 122 122 122 122 123 122 122 122 121 121 121 121 121
122 122 122 121 120 120 120 120 120 120 120 120 120 120 120 120 119
119 119 119 119 119 119 119 119 119 119 119 118 118 118 118 118 118
118 119 118 118 118 118 118 117 117 117 117 117 117 117 117 117 117
117 117 117 117 117 117 117 117 117 117 117 117 117 117 117 117 117
117 116 116 116 116 116 116 116 116 116 116 116 116 116 116 116 116
116 116 116 116 116 116 116 116 116 116 116 116 116 116 116 116 116
116 117 117 117 117 117 117 117 117 117 117 117 117 117 117 117 117
117 117 116 116 116 116 116 117 117 117 117 117 118 118 118 118 118
118 117 118 117 117 117 117 117 117 117 117 117 117 117 118 118 117
117 117 117 119 118 118 118 118 118 118 118 118 118 118 118 118 118
118 118 118 118 118 118 119 119 119 119 119 119 119 119 119 119 119
119 119 119 119 119 119 119 120 120 120 120 120 120 120 120 120 120
120 120 121 121 120 121 121 121 121 121 122 122 121 122 121 122 122
122 122 123 123 122 122 122 123 123 123 123 123 123 123 123 123 123
124 124 124 124 124 124 124 124 124 125 125 124 125 125 124 125 125
126 125 125 125 126 126 126 126 126 126 126 127 127 127 127 127 127
128 127 127 127 128 128 128 129 128 128 128 129 129 128 128 129 129
129 129 129 129 130 130 130 130 130 130 130 131 131 131 131 131 131
131 131 131 131 132 132 132 132 132 132 132 132 132 133 133 133 133
133 134 134 134 135 135 135 134 135 136 135 136 136 136 136 136 136
136 137 137 137 137 137 137 137 138 138 138 138 138 138 138 138 138
139 140 139 139 139 139 140 140 140 140 140 141 141 141 141 141 142
142 142 142 142 142 143 143 143 144 144 144 144 145 145 145 146 146
146 147 147 147 147 147 147 148 148 148 128 128 128 128 128 128 127
127 127 127 127 127 127 127 127 127 127 127 126 126 126 126 126 126
126 126 126 126 126 126 126 125 125 125 125 125 125 125 125 125 125
125 125 125 125 124 124 124 124 124 124 124 124 124 124 124 123 123
123 123 123 123 123 123 123 123 122 122 122 122 122 122 122 122 122
122 122 122 121 121 121 121 121 121 121 121 121 121 120 120 120 120
120 120 120 120 121 120 120 120 120 120 119 119 119 119 119 119 120
119 119 119 119 120 119 118 118 118 118 118 118 118 118 118 118 118
118 118 118 118 118 118 118 118 117 117 117 117 117 117 117 117 117
117 117 117 117 117 117 117 117 117 117 117 117 117 117 117 117 117
117 117 117 117 117 117 117 117 117 117 117 117 117 117 117 117 117
117 117 117 117 117 117 117 117 117 117 117 117 117 118 118 118 118
118 118 118 118 118 118 118 118 118 118 117 118 117 118 118 117 118
118 118 118 118 118 118 118 118 118 118 118 118 119 118 118 119 118
118 118 118 118 118 118 118 118 118 118 118 118 119 118 119 118 118
120 119 120 119 119 119 119 119 119 119 119 119 119 119 119 119 119
119 119 119 119 120 120 120 120 120 120 120 120 120 120 120 120 120
120 121 121 121 122 121 121 122 122 122 121 122 122 122 122 122 122
122 122 122 122 123 123 123 123 123 123 123 123 123 123 124 124 124
124 124 124 124 124 124 124 124 124 125 125 125 125 125 125 125 125
125 126 126 126 126 125 126 126 126 126 127 127 127 127 127 127 127
127 128 128 128 128 128 128 128 128 128 128 129 129 129 130 129 129
129 130 130 129 130 130 130 130 131 131 130 130 131 131 131 131 131
131 131 132 132 132 132 132 132 132 132 132 132 133 133 133 134 133
133 133 133 134 134 134 134 135 135 135 136 136 136 136 136 137 137
137 136 137 137 137 138 138 138 138 138 138 139 139 138 138 138 139
140 139 139 139 139 139 139 140 140 140 140 140 141 141 141 141 141
142 142 142 142 142 142 143 143 143 143 143 144 145 145 145 146 145
146 146 146 147 147 147 147 148 148 148 148 148 148 148 128 128 128
128 128 128 128 128 128 128 128 127 127 127 127 127 127 127 127 127
127 127 126 126 126 126 126 126 126 126 126 126 126 126 126 126 125
125 125 125 125 125 125 125 125 125 125 125 124 124 124 124 124 124
124 124 124 124 124 124 123 123 123 123 123 123 123 123 123 123 123
122 123 122 122 122 122 122 122 123 122 122 121 121 121 121 121 121
121 122 121 122 121 120 120 120 120 120 120 120 120 121 120 120 120
120 120 119 119 119 119 119 119 119 119 119 119 119 119 119 119 119
118 118 118 118 118 118 118 118 118 118 118 118 118 118 118 118 118
118 118 118 118 118 118 118 118 118 117 117 118 117 118 118 117 118
118 118 118 118 117 118 118 118 118 118 118 118 118 118 118 118 118
118 118 118 118 118 118 118 118 118 118 118 118 118 118 118 118 118
118 118 118 118 118 118 118 118 118 118 118 118 118 119 119 119 119
119 118 119 119 119 119 119 119 119 119 118 118 118 118 118 118 118
118 118 118 118 118 118 119 119 118 120 120 120 120 120 120 119 119
119 119 119 119 119 119 119 119 119 119 119 119 119 119 119 119 119
119 120 120 120 120 120 120 120 120 120 120 120 120 120 120 120 120
121 121 121 122 121 121 122 121 121 121 121 121 122 121 121 122 122
122 122 122 123 123 123 123 123 123 122 122 123 123 124 124 124 124
124 124 124 124 124 124 124 124 124 125 125 125 125 125 125 125 125
125 126 126 126 126 126 125 125 126 126 127 127 127 127 127 127 127
127 128 128 128 128 128 128 127 128 128 129 129 129 129 129 129 129
129 129 130 130 130 130 130 130 130 130 131 131 131 131 131 131 131
131 131 131 132 132 132 132 132 132 132 132 132 133 133 133 133 133
133 133 133 133 134 135 134 134 134 134 135 136 136 136 136 135 137
137 137 137 136 137 137 137 138 138 139 138 139 139 139 139 138 139
139 139 140 139 139 139 140 140 140 141 140 140 140 140 141 141 141
141 141 142 142 141 142 142 143 143 143 143 144 144 144 144 144 144
145 146 146 146 147 147 147 147 148 148 148 148 148 148 148 149 149
149 129 129 129 129 129 128 128 128 128 128 128 128 128 128 128 128
127 128 127 127 127 127 127 127 127 126 127 127 127 127 126 126 126
126 126 126 126 126 126 126 125 125 125 125 125 125 125 125 125 125
125 125 125 125 124 124 124 124 124 124 124 124 124 124 124 123 123
123 123 123 123 123 123 123 122 122 122 122 122 122 122 122 123 122
123 122 122 121 121 122 122 121 121 121 121 121 122 121 120 120 120
120 120 120 120 120 120 120 120 120 120 120 120 120 120 119 119 119
119 119 119 119 119 119 118 119 119 119 119 119 119 119 119 119 119
119 119 119 119 118 118 118 118 118 118 118 118 118 118 118 118 118
118 118 118 118 118 118 118 118 118 118 118 118 118 118 118 118 118
118 118 118 118 118 118 118 118 118 119 119 119 119 119 119 119 119
119 119 119 119 119 119 119 119 119 119 119 119 119 119 119 119 119
119 120 119 119 119 119 120 120 118 119 119 118 119 120 120 120 120
120 120 120 120 120 120 120 120 120 120 120 120 120 120 120 119 119
119 119 120 119 119 119 119 119 119 119 119 120 120 119 120 120 120
120 120 120 121 120 120 120 120 120 120 120 120 120 121 121 121 121
121 121 121 121 121 121 121 122 121 121 122 122 122 122 122 122 122
123 123 123 123 123 123 122 124 123 123 124 123 124 124 124 124 124
124 124 124 124 124 125 125 125 125 125 125 125 125 125 125 125 125
126 126 126 126 126 126 126 126 126 127 127 127 127 127 126 127 127
127 128 128 128 128 128 128 128 129 129 128 129 129 129 129 129 130
129 130 129 130 130 130 131 130 130 130 130 131 131 131 131 131 131
131 131 132 132 132 132 132 132 132 132 132 133 133 133 133 133 133
133 133 133 133 134 134 134 134 134 134 134 136 136 136 135 135 136
136 137 136 137 137 137 137 137 138 138 138 138 138 139 139 139 139
139 139 139 140 139 139 139 140 141 141 140 140 140 141 141 141 141
141 141 142 142 142 142 142 142 143 143 143 143 143 144 145 145 144
145 145 145 146 146 147 147 147 147 148 148 148 148 148 149 149 149
149 149 149 149 149 129 129 129 129 129 129 129 129 129 129 129 128
128 128 128 128 128 128 128 128 128 128 127 127 127 127 127 127 127
127 127 127 127 127 126 126 126 126 126 126 126 126 126 126 126 125
125 125 125 125 125 125 125 125 125 125 125 125 125 124 124 124 124
124 124 124 124 124 124 123 123 123 123 123 123 123 123 123 123 122
122 122 122 122 122 122 123 123 123 123 122 122 122 121 121 121 121
121 121 121 121 121 121 120 120 120 120 120 120 120 121 120 120 120
120 120 120 120 120 120 120 120 120 120 119 119 119 119 119 119 119
119 119 119 119 119 119 119 119 119 119 119 119 119 119 119 119 119
119 119 119 119 119 119 119 119 119 119 119 119 119 119 119 119 119
119 119 119 119 119 119 119 119 119 119 119 119 119 119 119 119 119
119 119 119 119 119 119 119 119 119 119 120 120 120 120 120 120 120
120 120 120 120 120 120 120 120 120 120 120 120 120 120 120 120 120
120 120 120 120 120 120 120 120 119 119 119 119 119 120 120 119 119
119 119 120 120 120 120 119 121 121 121 121 121 121 120 121 120 120
120 120 120 120 120 120 120 120 120 120 120 120 120 120 121 121 121
121 121 121 121 121 121 121 121 121 122 122 122 122 122 122 122 123
123 123 123 122 123 123 123 123 124 123 123 123 124 124 124 124 124
124 124 124 123 125 124 125 125 125 125 125 125 125 125 125 125 125
126 126 126 126 126 126 126 126 127 127 127 127 127 127 127 127 127
127 128 128 128 128 128 128 128 128 129 129 129 129 129 129 129 129
130 129 130 130 130 130 130 131 130 130 131 131 131 131 131 132 131
131 132 132 132 132 132 132 132 132 132 133 133 133 133 133 133 133
133 133 133 133 134 134 134 134 134 134 134 134 135 135 135 136 136
136 137 137 137 137 138 137 137 137 137 138 138 138 138 138 139 139
139 139 139 139 140 140 139 140 140 140 141 141 140 140 140 140 141
141 141 141 142 142 142 142 142 142 143 143 143 143 143 145 145 144
144 144 145 145 146 146 147 147 147 147 147 148 148 148 148 148 149
149 149 149 149 149 149 150 150 150 130 130 130 130 130 129 129 129
129 129 129 129 129 129 129 129 129 128 128 128 128 128 128 128 128
128 128 127 127 127 127 127 127 127 127 127 127 127 127 126 126 126
126 126 126 126 126 125 126 126 125 125 125 125 125 125 125 125 125
125 125 125 125 125 124 124 124 124 124 124 124 124 124 124 123 123
123 123 123 123 123 123 123 123 122 122 123 123 123 122 122 122 122
122 122 122 122 122 122 122 121 122 121 121 121 121 121 121 122 121
121 121 121 120 120 120 120 120 120 120 120 120 120 120 120 120 120
120 120 120 120 120 120 120 120 120 120 120 120 120 120 120 120 120
120 120 120 120 120 120 120 120 120 120 120 120 120 120 120 120 120
120 120 120 120 120 120 120 120 120 120 120 120 120 120 120 120 120
120 120 120 120 120 120 120 120 120 120 120 120 120 120 120 120 120
120 120 120 120 120 120 120 120 120 120 120 120 120 120 120 120 121
121 121 122 121 120 121 121 120 120 120 121 121 121 121 121 121 121
121 121 121 121 121 120 120 120 120 120 120 120 120 121 120 120 121
120 121 120 121 122 121 122 121 121 121 121 121 121 121 121 121 121
121 121 121 121 121 121 121 121 122 122 122 122 122 122 122 123 122
122 122 122 123 123 123 124 124 124 124 124 124 124 124 123 124 124
124 125 124 125 125 125 125 125 125 125 125 125 125 125 126 126 126
126 126 126 126 126 126 126 126 127 127 127 127 127 127 127 127 127
128 128 128 128 128 128 128 128 128 128 129 129 129 129 129 129 129
129 130 130 130 130 130 130 130 131 131 131 131 131 130 131 132 132
132 132 132 131 132 132 132 132 132 132 133 133 133 133 133 133 133
133 133 133 134 134 134 134 134 134 134 134 134 135 135 135 135 136
136 136 137 136 136 136 137 137 138 138 138 138 138 138 139 139 139
139 139 140 140 140 139 140 140 140 141 141 141 140 140 141 141 141
141 141 141 141 142 142 142 142 142 143 143 143 143 143 143 144 144
144 144 145 146 146 145 146 146 147 147 148 148 148 148 148 148 149
149 149 149 149 149 150 150 150 150 150 150 150 150 130 130 130 130
130 130 130 130 130 130 129 129 129 129 129 129 129 129 129 130 129
128 128 128 128 128 128 128 128 128 128 128 127 127 127 127 127 127
127 127 127 127 127 126 126 126 126 126 126 126 126 126 126 126 126
125 125 125 125 125 125 125 125 125 125 125 125 124 124 124 124 124
124 124 124 124 124 124 124 123 123 123 123 123 123 123 123 123 123
123 122 123 122 122 122 122 122 122 122 122 121 123 122 122 121 121
122 121 122 121 121 121 121 121 121 122 121 121 122 121 121 121 121
121 121 120 121 121 121 120 120 120 120 120 120 120 120 120 120 120
120 120 120 120 120 120 120 120 120 120 120 120 120 120 120 120 120
120 120 120 120 120 120 120 120 120 120 120 120 120 120 120 120 120
120 120 120 120 120 120 120 120 120 121 121 121 120 121 121 121 121
121 121 121 121 121 121 121 121 121 121 121 121 121 121 121 121 121
121 121 121 121 121 121 121 121 121 121 120 120 121 121 121 120 120
120 120 120 120 120 121 121 120 121 121 122 122 122 122 122 122 122
122 122 122 122 121 121 121 121 121 121 121 121 121 121 121 121 121
122 121 121 122 121 121 122 122 122 122 122 122 122 122 122 122 122
122 122 123 124 124 124 123 123 123 123 124 123 123 123 123 124 124
125 124 125 125 125 125 125 125 125 125 125 124 126 125 126 126 126
126 126 126 126 126 126 126 127 127 127 127 127 127 127 127 127 127
127 128 128 128 129 128 128 128 128 129 129 129 129 129 129 129 129
129 130 130 130 130 130 130 130 130 130 131 131 131 131 131 131 132
132 132 132 132 132 132 132 132 132 133 132 132 133 133 133 133 133
133 133 133 134 134 134 134 134 134 134 134 134 135 135 135 135 135
135 137 137 137 137 136 136 138 138 138 138 138 138 138 139 140 139
139 139 139 140 140 140 140 139 141 141 141 141 140 140 141 142 141
141 141 141 141 143 143 143 142 143 144 144 143 143 143 143 144 144
144 144 144 146 146 146 145 145 146 146 147 147 147 148 148 148 148
148 149 149 149 149 150 150 150 150 150 150 150 149 151 151 151 151
131 131 131 131 131 131 130 130 130 130 130 130 130 130 130 130 129
129 129 129 129 129 129 128 129 129 129 128 128 128 128 128 128 128
128 128 128 127 127 127 127 127 127 127 127 127 127 127 126 126 126
126 125 126 126 126 126 126 126 126 126 125 125 125 125 125 125 125
125 125 125 125 125 125 124 124 124 124 124 124 124 124 124 124 124
124 124 123 123 123 123 123 123 123 123 123 123 123 122 122 122 122
122 122 122 122 123 121 122 122 122 122 122 122 122 123 122 122 123
122 123 122 121 121 121 121 121 122 121 121 122 121 121 121 121 121
121 121 121 121 121 121 121 121 121 121 121 121 121 121 121 121 121
121 121 121 121 121 121 121 121 121 121 121 121 121 121 121 121 121
121 121 121 121 121 121 121 121 121 121 121 121 121 121 121 121 121
121 121 121 121 121 121 121 121 121 121 121 121 121 121 121 121 121
121 121 122 122 122 122 122 122 122 122 122 122 122 122 122 122 122
122 122 122 122 122 122 122 122 122 122 122 122 122 122 122 122 122
122 122 121 121 121 121 121 121 121 121 121 121 121 122 123 122 122
123 123 122 122 122 122 122 122 122 122 122 122 122 122 122 122 123
123 123 123 123 123 123 123 123 123 123 123 123 124 124 124 124 125
125 125 125 125 125 125 125 125 125 126 125 126 126 126 126 126 126
126 126 126 126 126 127 127 127 127 127 127 127 127 127 128 128 128
128 128 128 128 128 128 128 128 129 129 129 129 129 129 129 129 129
130 130 130 130 130 130 130 131 131 130 131 131 131 131 131 132 132
132 132 132 132 132 132 132 132 133 133 133 133 134 133 133 133 133
133 134 134 134 134 134 134 134 134 134 134 135 135 135 135 135 135
136 137 137 137 136 136 136 136 137 138 137 138 138 139 139 139 139
139 139 140 140 140 140 140 140 141 141 141 141 141 141 141 141 141
142 141 141 142 142 143 142 142 142 143 144 144 144 143 143 144 144
144 144 144 144 145 146 146 145 145 147 147 147 147 148 148 148 148
148 149 149 149 149 150 150 150 150 150 150 150 150 151 151 151 151
151 151 151 151 131 131 131 131 131 131 131 131 131 131 130 130 130
130 130 130 130 130 130 130 130 129 129 129 129 129 129 129 129 129
129 128 128 128 128 128 128 128 128 128 128 128 127 127 127 127 127
127 127 127 127 127 126 126 126 126 126 126 126 126 126 126 126 126
126 126 126 125 125 125 125 125 125 125 125 125 125 125 124 124 124
124 124 124 124 124 124 124 124 124 124 124 124 124 123 123 123 123
123 123 123 123 123 123 123 123 123 123 122 122 122 122 122 122 122
123 122 122 123 122 122 122 122 122 122 122 122 122 122 122 122 121
122 122 122 122 121 122 122 122 122 122 122 122 122 122 122 122 122
122 122 122 122 122 122 122 122 122 122 122 122 122 122 122 122 122
122 122 122 122 122 122 122 122 122 122 122 122 122 122 122 122 122
122 122 122 122 122 122 122 122 122 122 122 122 122 122 122 122 122
122 122 122 122 122 122 122 122 122 122 122 122 122 122 122 122 122
122 122 122 122 122 122 122 122 122 122 122 122 122 121 122 122 121
121 122 122 122 122 122 122 122 123 123 122 123 123 123 123 123 123
123 123 123 122 122 122 123 122 122 122 122 123 123 124 123 124 124
124 123 123 123 123 123 123 123 123 123 123 123 124 125 124 125 125
125 125 124 124 124 124 125 125 125 125 125 125 126 126 126 126 126
126 126 126 127 127 127 127 127 127 127 127 127 127 127 127 128 128
128 128 128 128 128 128 128 128 129 129 129 129 129 129 129 129 129
130 130 130 130 130 130 130 131 131 131 131 131 131 131 131 131 132
132 132 132 132 132 132 132 132 132 133 133 133 133 133 133 133 134
134 133 134 134 134 134 134 134 134 135 135 135 135 135 135 135 135
135 136 137 137 137 137 137 136 136 138 138 138 138 138 138 138 139
139 139 139 140 140 140 140 140 140 141 141 141 141 141 141 141 141
141 142 142 142 141 142 143 142 142 142 142 144 144 144 144 143 144
144 145 144 144 144 145 145 145 145 146 146 147 147 146 146 148 148
148 148 148 149 149 149 149 150 150 149 150 150 151 151 151 151 151
151 151 152 151 152 152 151 152 132 132 132 132 131 131 131 131 131
131 131 131 131 131 131 131 130 130 130 130 130 130 130 130 130 130
129 129 129 129 129 129 129 129 129 129 128 128 128 128 128 128 128
128 128 128 128 127 127 127 127 127 127 127 127 127 127 127 127 127
126 126 126 126 126 126 126 126 126 126 126 126 126 126 125 125 125
125 125 125 125 125 125 125 125 125 125 125 124 124 124 124 124 124
124 124 124 124 124 124 124 124 124 124 124 124 124 123 123 123 123
123 123 123 122 123 122 122 123 122 123 123 123 123 123 123 123 123
123 123 123 122 123 123 123 122 122 123 122 122 122 122 122 122 122
121 122 122 121 122 121 123 122 122 122 122 122 122 122 122 122 122
122 121 122 122 122 122 122 123 122 123 122 122 122 122 122 122 122
122 122 122 122 122 122 122 122 122 122 122 122 122 122 122 122 122
122 122 122 124 123 122 123 123 122 122 123 122 122 123 122 123 123
123 123 123 123 123 123 123 123 123 123 122 122 123 123 123 123 123
123 123 123 123 123 123 123 123 123 122 122 122 122 122 122 123 122
122 122 123 124 124 124 124 124 124 124 124 123 123 123 123 123 123
123 123 123 123 123 124 123 124 124 124 124 125 125 124 124 124 124
124 124 124 125 125 125 126 126 126 126 126 125 126 125 127 126 126
127 127 127 127 127 127 127 127 127 127 127 127 128 128 128 128 128
128 128 128 128 128 128 128 129 129 129 129 129 129 129 129 130 130
130 130 130 130 129 130 130 131 131 131 131 131 131 131 131 132 132
132 132 132 132 132 132 133 133 133 133 133 133 134 134 134 134 134
134 134 134 134 134 134 135 134 134 134 135 135 135 135 135 135 135
136 136 136 136 136 136 136 136 138 137 137 137 137 138 138 138 139
139 139 139 140 140 140 140 140 140 140 141 141 141 141 141 141 142
142 142 141 142 142 143 142 142 142 142 143 144 144 144 143 144 144
144 144 144 145 146 146 145 145 145 145 146 146 147 147 146 148 148
148 148 148 149 149 149 149 149 150 150 150 150 151 151 151 151 151
151 152 152 152 152 151 152 152 152 152 152 153 132 132 132 132 132
132 132 132 132 131 131 131 131 131 131 131 131 131 131 130 130 130
130 130 130 130 130 130 130 130 129 129 129 129 129 129 129 129 129
129 129 128 128 128 128 128 128 128 128 128 128 128 127 127 127 127
127 127 127 127 127 127 127 127 127 126 126 126 126 126 126 126 126
126 126 126 126 126 126 125 125 125 125 125 125 125 125 125 125 125
125 125 125 125 125 125 124 124 124 124 124 124 124 124 124 124 124
123 124 124 124 124 124 124 124 124 124 124 124 124 123 123 123 123
123 123 123 123 123 123 123 123 123 123 123 123 123 123 123 123 123
123 123 123 123 123 123 123 123 123 123 123 123 123 123 123 123 123
123 123 123 123 123 123 123 123 123 123 123 123 123 123 123 123 123
123 123 123 123 123 123 123 123 123 123 123 123 123 123 123 123 123
123 123 123 123 123 123 123 123 123 123 123 123 123 123 123 123 123
123 123 123 123 123 123 123 123 123 123 123 123 123 122 123 123 123
123 123 123 123 123 123 123 123 124 123 123 124 124 124 124 124 124
124 124 124 124 124 124 124 124 123 123 123 123 123 123 123 123 123
123 124 124 125 125 124 125 125 124 124 124 124 124 124 124 124 124
124 125 126 126 126 126 126 125 125 126 124 125 125 125 126 126 127
127 127 127 127 127 127 127 127 127 127 127 128 128 128 128 128 128
128 128 128 128 128 128 129 129 129 129 129 129 129 129 129 130 130
130 130 130 130 130 130 130 131 131 131 131 131 131 131 131 132 132
132 132 132 132 132 132 133 133 133 133 133 133 133 133 134 134 134
134 134 133 134 134 135 135 135 135 134 135 135 135 135 135 135 135
136 136 136 136 136 136 136 137 137 137 138 137 137 137 138 139 139
138 138 138 139 140 140 140 140 140 140 140 141 141 141 141 141 141
142 142 141 142 143 143 143 143 142 142 142 143 144 144 143 143 144
145 146 144 144 145 146 146 146 145 145 145 146 146 146 147 146 147
148 148 148 148 149 149 149 149 150 150 150 150 150 151 151 151 151
151 151 151 151 151 152 151 152 152 152 153 152 153 153 153 153 133
133 133 133 133 133 132 132 132 132 132 132 132 132 131 131 131 131
131 131 131 131 131 131 130 130 130 130 130 130 130 130 130 130 130
130 129 129 129 129 129 129 129 129 129 129 129 129 128 128 128 128
128 128 128 128 128 128 128 128 127 127 127 127 127 127 127 127 127
127 127 127 127 127 126 126 126 126 126 126 126 126 126 126 126 126
126 126 126 126 126 125 125 125 125 125 125 125 125 125 125 125 125
125 125 125 125 125 125 125 125 125 125 124 124 124 124 124 124 124
124 124 124 124 124 124 123 124 124 124 124 124 124 124 124 124 124
124 124 124 124 124 124 124 124 124 124 124 124 124 124 124 124 124
124 124 124 124 124 124 124 124 124 124 124 124 124 124 124 124 124
124 124 124 124 124 124 124 124 124 124 124 124 124 124 124 124 124
124 124 124 124 124 124 124 124 124 124 124 124 124 124 124 124 124
124 124 124 124 124 124 124 124 124 124 124 124 124 124 124 124 124
124 124 124 124 124 124 124 124 124 124 124 124 124 124 124 124 124
124 124 124 124 124 123 123 123 123 124 124 124 124 125 124 125 125
125 125 125 124 124 124 125 124 124 125 124 124 124 124 124 126 125
125 125 125 125 125 125 125 125 125 125 125 126 126 126 126 127 127
127 127 127 127 127 127 127 127 128 128 128 128 128 128 128 128 128
128 128 128 129 129 129 129 129 129 129 129 129 129 130 130 130 130
130 130 130 130 130 131 131 131 131 131 131 131 131 132 132 132 132
132 132 132 132 132 132 133 133 133 133 133 133 133 134 134 134 134
134 134 134 134 135 135 135 135 135 136 135 134 135 135 135 135 136
136 136 136 136 136 136 136 136 137 137 137 137 137 137 139 139 139
139 138 138 139 140 140 140 140 140 141 141 141 141 141 141 141 142
142 142 142 142 142 143 143 143 143 143 143 144 144 144 144 143 145
144 145 144 144 144 145 146 146 145 145 145 146 146 146 146 147 148
147 148 147 147 148 148 149 149 149 150 150 150 150 151 151 151 151
151 151 152 152 152 152 152 153 153 153 153 153 153 153 153 153 154
154 154 154 134 133 133 133 133 133 133 133 133 133 132 132 132 132
132 132 132 132 131 131 131 131 131 131 131 131 131 131 131 130 130
130 130 130 130 130 130 130 130 130 129 130 129 129 129 129 129 129
129 129 129 129 128 128 128 128 128 128 128 128 128 128 128 128 128
128 128 127 127 127 127 127 127 127 127 127 127 127 127 127 127 127
127 127 126 126 126 126 126 126 126 126 126 126 126 126 126 126 126
126 126 125 125 125 125 126 125 125 125 125 125 125 125 125 125 125
125 125 125 125 125 125 125 125 125 125 125 125 125 125 125 125 125
125 125 125 125 125 125 125 125 125 125 125 125 125 125 125 125 124
124 124 124 124 124 124 124 124 124 124 124 124 124 125 124 124 124
124 124 124 124 124 124 124 124 124 124 124 124 124 124 124 124 124
124 124 124 124 124 124 124 124 124 124 124 124 124 124 124 124 124
124 124 124 124 124 124 124 124 124 124 124 124 124 124 124 124 124
124 124 124 124 124 124 124 124 124 124 124 124 124 124 124 125 125
124 124 124 124 124 125 124 125 125 124 125 125 125 124 124 125 124
125 124 125 125 124 124 124 124 124 124 125 125 126 125 126 126 126
126 125 125 125 125 126 126 126 126 126 127 126 127 127 127 127 127
127 126 127 126 126 126 126 128 128 128 128 128 128 128 128 128 128
128 129 129 129 129 129 129 129 129 129 129 130 130 130 130 130 130
130 130 130 130 131 131 131 131 131 131 131 131 131 132 132 132 132
131 132 132 132 132 132 133 133 133 133 133 133 133 133 134 134 134
134 133 134 135 135 135 135 135 135 135 135 136 135 135 135 135 136
137 136 136 136 136 136 136 137 137 137 137 137 137 138 137 139 139
139 139 138 138 139 140 140 140 140 140 141 141 141 141 141 141 141
142 142 142 142 142 143 143 143 143 143 144 143 143 143 143 144 144
145 145 145 145 145 145 146 146 145 145 145 146 147 146 146 146 146
147 148 147 148 147 149 149 149 149 149 150 150 150 150 151 151 151
151 151 152 152 152 152 152 152 153 153 152 153 153 152 153 153 153
154 154 154 154 154 155 155 134 134 134 134 134 134 134 133 133 133
133 133 133 133 133 132 132 132 132 132 132 132 132 132 131 131 131
131 131 131 131 131 131 131 130 130 130 130 130 130 130 130 130 130
130 130 130 129 129 129 129 129 129 129 129 129 129 129 129 129 128
128 128 128 128 128 128 128 128 128 128 128 128 128 128 128 128 127
127 127 127 127 127 127 127 127 127 127 127 127 127 127 127 127 127
127 127 127 127 127 127 126 126 126 126 126 126 126 126 126 126 126
126 126 126 126 126 126 126 126 126 126 126 126 126 126 126 126 126
126 126 126 126 126 126 126 126 126 126 126 126 126 126 125 125 125
125 125 125 125 125 125 125 125 125 125 125 125 125 125 125 125 125
125 125 125 125 125 125 125 125 125 125 125 125 125 125 125 125 125
125 125 125 125 125 125 125 125 125 125 125 125 125 125 125 125 125
125 125 125 125 125 125 125 125 125 125 125 125 125 125 125 125 125
125 125 125 125 125 125 125 125 125 125 125 125 125 125 125 125 125
125 125 125 125 125 125 125 125 125 124 125 125 125 124 125 124 125
125 125 126 126 126 126 126 126 125 126 125 125 125 125 125 125 125
124 126 126 126 126 126 126 126 126 126 126 126 126 126 126 126 127
126 128 127 127 128 128 128 128 128 128 127 128 127 128 128 129 129
129 129 129 129 129 129 129 129 130 130 130 130 130 130 130 130 130
130 130 131 131 131 131 131 131 131 131 132 132 132 132 132 132 132
132 132 132 132 132 133 133 133 133 133 133 133 133 134 134 134 134
134 134 135 135 135 135 135 135 135 135 136 135 136 136 136 136 136
136 136 136 136 136 136 137 138 137 137 137 137 137 137 138 138 138
138 138 139 139 140 140 139 139 139 140 141 140 141 140 141 141 142
142 142 143 142 142 143 143 143 143 143 144 144 144 144 144 144 144
145 145 145 144 145 145 146 146 146 146 146 146 146 146 146 146 147
147 147 147 147 148 148 149 149 148 149 150 150 150 149 151 151 151
151 151 152 152 152 152 152 152 153 153 153 153 153 153 153 153 154
153 154 154 153 154 155 155 155 155 155 156 134 134 134 134 134 134
134 134 134 134 134 133 133 133 133 133 133 133 133 132 132 132 132
132 132 132 132 132 132 131 131 131 131 131 131 131 131 131 131 131
130 130 130 130 130 129 130 130 130 130 130 130 130 129 129 129 129
129 129 129 129 129 129 129 129 129 129 129 129 129 128 128 128 128
128 128 128 128 128 128 128 128 128 128 128 128 128 128 127 127 127
127 127 127 127 127 127 127 127 127 127 127 127 127 127 127 127 127
127 127 127 127 127 127 127 127 127 127 127 127 126 127 126 127 126
127 126 127 127 126 126 126 126 125 126 126 126 126 126 126 126 126
126 126 126 126 126 126 126 126 126 126 126 126 126 126 126 126 126
126 126 126 126 126 126 126 126 126 126 126 126 126 126 126 126 125
125 125 125 125 125 125 125 125 125 125 125 125 125 125 125 125 125
125 125 125 125 125 125 125 125 125 125 125 125 125 125 125 125 125
125 125 125 125 125 125 125 125 125 125 125 125 125 125 125 125 125
125 125 125 125 125 125 125 125 126 125 125 126 125 126 126 126 126
126 126 126 126 125 125 126 125 125 125 125 125 125 126 125 126 127
127 127 127 127 127 126 126 126 126 126 126 126 126 127 126 127 128
128 128 127 128 128 128 127 127 128 127 127 127 128 129 129 129 129
129 129 129 129 129 129 129 130 130 130 130 130 130 130 130 130 130
130 131 131 131 131 131 131 131 131 131 132 132 132 132 132 132 132
132 132 132 132 133 133 133 133 133 133 133 133 134 134 134 134 134
134 134 134 135 135 135 135 134 135 135 136 136 136 136 136 136 136
136 136 137 136 136 136 137 137 137 137 137 137 137 138 138 138 138
139 139 139 140 140 140 140 140 139 140 141 141 141 141 141 141 142
142 142 142 142 142 142 143 143 143 143 143 144 145 144 144 144 144
144 145 145 145 145 145 146 146 146 146 145 146 147 147 146 146 147
148 148 147 147 147 147 149 148 149 149 149 149 150 150 150 150 151
151 151 151 151 152 152 152 152 153 153 153 153 153 153 153 153 154
154 153 154 154 154 154 155 155 155 155 155 156 156 156 156 135 135
135 135 135 135 135 135 134 134 134 134 134 134 134 134 134 133 133
133 133 133 133 133 133 133 132 132 132 132 132 132 132 132 132 131
131 131 131 131 131 131 130 131 131 131 131 131 130 130 130 130 130
130 130 130 130 130 130 130 130 130 130 130 129 129 129 129 129 129
129 129 129 129 129 129 129 129 129 129 129 129 129 129 129 129 128
128 128 128 128 128 128 128 128 128 128 128 128 128 128 128 128 128
128 128 128 128 128 128 128 128 128 128 128 128 128 128 128 128 127
127 127 127 127 127 126 127 127 127 127 127 127 127 127 127 127 127
127 127 127 127 127 127 127 127 127 127 127 127 127 127 127 127 126
127 126 126 126 126 126 126 126 126 126 126 126 126 126 126 126 126
126 126 126 126 126 126 126 126 126 126 126 126 126 126 126 126 126
126 126 126 126 126 126 126 126 126 126 126 126 126 126 126 126 126
126 126 126 126 126 126 126 126 126 126 126 126 126 126 126 126 126
126 126 126 126 126 126 126 126 126 126 126 126 126 126 126 126 126
126 126 127 126 126 127 126 127 126 127 127 127 127 127 127 127 127
127 126 127 126 126 127 127 127 127 127 128 128 128 128 128 128 128
128 127 127 127 127 127 127 128 128 129 128 128 129 128 129 129 129
129 129 129 129 130 130 130 130 130 130 130 130 130 130 131 131 131
131 131 131 131 131 131 131 131 132 132 132 132 132 132 132 132 132
133 133 133 133 133 133 133 133 133 133 134 134 134 134 134 134 134
134 135 135 135 135 135 135 135 135 135 136 136 136 136 135 136 137
137 137 136 137 137 137 138 137 137 137 137 137 138 138 138 138 138
138 138 138 140 140 140 140 140 139 140 140 141 141 141 141 141 142
142 142 142 142 142 143 143 143 143 143 144 144 144 144 144 144 145
145 145 145 145 144 146 146 146 146 146 146 147 147 147 147 148 148
148 148 148 148 147 149 149 149 149 148 150 149 149 150 150 151 151
151 151 151 152 152 152 152 152 152 153 153 153 153 153 154 154 154
154 155 154 154 154 154 155 155 155 155 155 156 156 156 156 157 157
157 157 136 136 136 136 135 135 135 135 135 135 135 134 134 134 134
134 133 134 134 134 134 134 133 133 133 133 133 133 133 133 133 132
132 132 132 132 132 132 132 132 132 132 131 131 131 131 131 131 131
131 131 131 131 131 131 130 130 130 130 130 130 130 130 130 130 130
130 130 130 130 130 130 130 129 129 129 129 129 129 129 129 129 129
129 129 129 129 129 129 129 129 129 129 129 129 129 129 129 129 129
129 129 129 129 128 128 128 128 128 128 128 128 128 128 128 128 128
128 128 128 128 128 128 128 128 128 128 128 128 128 128 128 128 128
128 128 128 128 128 128 127 128 128 127 127 127 127 127 127 126 127
127 127 127 127 127 127 127 127 127 127 127 127 127 127 127 127 127
127 127 127 127 127 127 127 127 127 127 127 126 127 127 127 127 127
127 127 127 127 127 126 126 126 126 126 126 126 126 126 126 126 126
126 126 126 126 126 126 126 126 126 126 126 126 126 126 126 126 126
126 126 127 127 127 127 127 127 127 127 127 127 127 127 127 127 127
127 127 127 127 127 127 127 127 127 127 127 127 127 127 126 126 126
126 126 126 126 127 127 128 127 128 128 128 128 128 128 128 128 128
127 128 128 128 129 128 129 129 129 129 129 129 129 129 128 129 129
128 130 129 130 130 130 130 130 130 130 130 130 130 131 131 131 131
131 131 131 131 131 131 131 132 132 132 132 132 132 132 132 132 132
133 133 133 133 133 133 133 133 133 134 134 134 134 134 134 134 134
135 135 134 135 135 135 135 135 135 136 136 136 137 136 136 137 137
137 137 137 137 137 137 137 138 138 137 137 137 137 138 138 138 138
138 138 138 139 140 140 139 139 140 140 140 140 140 140 141 141 141
142 142 142 142 142 143 143 143 143 143 143 143 144 144 144 144 144
145 145 145 145 145 145 146 146 146 146 146 147 147 147 147 147 147
148 147 148 148 148 148 149 149 149 149 148 150 150 149 150 150 150
150 151 151 151 152 152 152 152 152 153 153 153 153 153 152 154 153
154 154 155 155 154 154 154 155 155 155 155 155 156 156 156 156 157
157 156 157 157 158 158 136 136 136 136 136 136 136 136 135 135 135
135 135 135 135 135 135 135 134 134 134 134 134 134 134 134 134 134
134 133 133 133 133 133 133 133 132 133 132 132 132 132 132 132 132
132 132 132 132 132 131 131 131 131 131 131 131 131 131 131 131 131
132 131 131 131 131 130 130 130 130 130 130 130 130 130 130 130 130
130 130 130 130 130 130 130 130 130 130 130 130 130 130 130 130 130
130 130 130 130 130 130 130 129 129 129 129 129 130 129 129 129 129
129 129 129 129 129 129 129 129 129 129 129 129 129 129 129 129 129
129 129 129 129 129 128 129 128 128 128 128 128 128 128 128 128 128
128 128 128 128 128 128 128 128 128 128 128 128 128 128 128 128 128
128 128 128 128 128 127 127 127 127 127 127 127 127 127 127 127 127
127 127 127 127 127 127 127 127 127 127 127 127 127 127 127 127 127
127 127 127 127 127 127 127 127 127 127 127 127 127 127 127 127 127
127 127 127 127 127 127 127 127 127 127 127 127 127 127 127 127 127
127 127 127 127 127 127 128 128 128 128 128 128 128 128 128 128 128
128 128 128 128 128 128 128 128 128 128 128 128 128 128 128 128 128
129 129 129 129 128 129 128 128 128 128 128 128 129 129 129 130 129
130 130 130 130 129 130 129 130 131 131 131 130 131 131 131 131 131
131 131 131 131 132 132 131 132 132 132 132 132 132 132 133 133 133
133 133 133 133 133 133 134 134 134 134 134 134 134 134 135 135 135
135 135 135 135 135 135 135 136 136 136 136 136 136 136 137 137 137
137 137 137 137 137 137 137 138 138 138 137 137 137 138 138 138 138
138 139 139 139 139 139 139 139 139 140 140 140 140 141 141 141 142
142 142 142 142 142 143 143 143 143 143 144 144 144 144 144 144 145
145 145 145 145 145 146 146 146 146 146 146 147 147 147 147 147 147
148 148 148 148 148 149 148 148 148 148 149 150 149 150 149 150 151
151 150 151 150 152 152 152 152 152 153 153 153 153 154 154 154 154
154 154 154 154 155 154 154 155 155 155 155 156 156 156 156 156 157
157 157 157 157 158 158 158 158 158 159 137 137 137 137 136 136 136
136 136 136 136 136 136 136 136 135 135 135 135 135 135 135 135 134
134 134 134 134 134 134 134 134 134 134 133 133 133 133 132 133 133
133 133 133 133 133 132 132 132 132 132 132 132 132 132 132 132 132
132 132 131 131 131 131 131 131 131 131 131 131 131 131 132 131 131
131 131 131 131 131 131 131 130 130 130 130 130 130 130 130 130 130
130 130 130 130 130 130 130 130 130 130 130 130 130 130 130 130 130
130 130 130 130 130 130 130 130 130 130 130 130 130 130 130 130 129
129 129 129 129 129 129 129 129 129 129 129 129 129 129 129 129 129
129 129 129 129 129 129 128 128 128 128 128 128 128 128 128 128 128
128 128 128 128 128 128 128 128 128 128 128 128 129 128 128 128 128
128 128 128 128 128 128 128 128 128 128 128 127 127 128 128 128 128
128 128 128 128 128 128 128 128 128 128 128 128 128 128 128 128 128
128 128 128 128 128 128 128 128 128 128 128 128 128 128 128 128 128
128 128 128 128 128 128 128 128 128 128 128 128 128 128 128 128 128
128 128 128 128 129 129 129 129 129 129 129 129 129 129 129 129 129
129 129 129 128 129 129 129 129 129 130 130 130 130 129 130 129 130
130 129 129 129 130 130 131 131 130 131 130 130 130 131 131 131 131
132 132 132 132 132 132 132 132 132 132 132 132 132 132 133 133 133
133 133 133 133 133 133 134 134 134 134 134 134 134 134 134 135 135
135 135 135 135 135 135 136 136 136 136 137 136 136 136 137 137 137
137 137 137 137 138 139 138 138 138 138 138 138 138 138 138 138 138
138 139 139 139 139 139 139 139 140 140 140 140 140 140 140 142 142
142 142 141 141 141 142 143 143 143 143 143 144 144 144 144 144 144
145 145 145 145 145 146 146 146 146 146 146 146 147 147 147 147 147
148 148 148 148 148 148 149 149 149 149 149 150 150 149 149 150 151
151 151 150 150 152 151 151 152 152 153 153 153 153 153 153 154 154
154 154 154 155 155 155 155 155 155 155 155 155 156 156 156 156 157
157 157 157 157 157 158 158 158 158 158 159 159 159 159 138 138 138
138 137 137 137 137 137 137 137 136 136 136 136 136 136 136 136 136
136 136 135 135 135 135 135 135 135 135 135 134 134 134 134 134 134
134 134 134 134 134 134 134 134 133 133 132 133 133 133 133 133 133
133 133 133 132 132 132 132 132 132 132 132 132 132 132 132 132 132
132 132 132 132 132 132 132 132 132 131 131 131 131 131 131 131 131
131 131 131 131 131 131 131 131 131 131 131 131 131 131 131 131 131
131 131 131 131 131 131 131 131 131 131 131 131 131 131 130 131 130
130 130 130 130 130 130 130 130 130 130 130 130 130 130 130 130 130
130 130 130 130 130 129 129 129 129 129 129 129 129 129 129 129 129
129 129 129 129 129 129 129 129 129 129 129 129 129 129 128 128 129
129 129 129 129 129 129 128 128 129 128 128 128 128 128 128 127 128
128 128 128 128 128 128 128 128 128 128 128 128 128 128 128 128 128
128 128 128 128 128 128 128 128 128 128 128 128 128 128 128 128 128
128 128 128 128 129 129 129 129 129 129 129 129 129 129 129 129 129
129 129 129 129 129 129 129 129 129 129 129 129 129 129 129 129 130
130 130 129 129 130 130 130 130 130 130 129 130 129 130 129 129 129
130 131 130 131 131 131 131 131 131 130 130 131 130 132 131 132 132
132 132 132 131 132 132 132 132 132 133 133 133 133 133 133 133 133
133 133 133 134 134 134 134 134 134 134 134 135 135 135 135 135 135
135 135 135 136 136 136 136 136 136 136 136 137 137 137 137 137 137
137 137 137 138 138 138 138 139 138 138 139 139 139 139 139 138 138
138 139 139 139 139 139 139 141 140 140 140 140 140 140 141 142 142
142 141 142 141 142 143 143 143 143 143 144 144 144 144 144 145 145
145 145 145 145 145 146 146 146 146 146 146 147 147 147 147 147 148
148 148 148 148 148 149 149 149 149 149 150 150 150 150 150 149 151
151 151 151 151 151 152 151 151 152 152 153 153 153 153 153 154 154
154 154 155 155 155 155 155 156 155 155 155 155 156 156 156 156 157
157 157 157 157 157 158 158 159 158 159 159 159 159 160 160 160 160
160 138 138 138 138 138 138 138 138 138 137 138 137 137 137 137 137
137 136 136 136 136 136 136 136 136 136 136 136 135 135 135 135 135
135 135 135 135 135 134 134 134 134 134 134 134 134 134 134 134 134
134 134 134 133 133 133 133 133 133 133 133 133 133 133 133 133 133
133 133 133 133 132 132 132 132 132 132 132 132 132 132 132 132 132
132 132 132 132 132 132 132 132 132 132 132 132 132 132 132 132 132
132 132 131 132 132 131 131 131 131 131 131 131 131 131 131 131 131
131 131 131 131 131 131 131 131 131 131 131 131 131 131 131 130 130
130 130 130 130 130 130 130 130 130 130 130 130 130 130 130 130 130
130 130 129 129 129 129 129 129 129 129 129 129 129 129 129 129 129
129 129 129 129 129 129 129 129 129 129 129 129 129 129 129 129 129
129 129 129 129 129 129 129 129 129 129 129 129 129 129 129 129 129
129 129 129 129 129 129 129 129 129 129 129 129 129 129 129 129 129
129 129 129 129 129 129 129 129 129 129 129 129 129 129 129 129 129
129 129 129 129 129 129 129 129 130 130 130 130 130 130 130 130 130
130 130 130 130 130 130 130 130 130 130 130 130 130 131 130 130 130
131 131 131 131 131 131 130 131 131 130 132 131 132 132 132 132 132
132 131 132 132 132 132 132 133 133 133 133 133 133 133 133 133 133
134 134 134 134 134 134 134 135 134 134 135 135 135 135 135 135 135
135 135 135 135 136 136 136 136 136 136 136 137 137 137 137 137 137
137 137 138 138 138 138 138 138 138 139 139 139 139 139 139 139 140
140 140 140 139 139 139 140 140 140 141 140 140 140 140 140 141 142
142 141 142 142 143 143 143 143 143 143 144 144 144 144 144 144 145
145 145 145 145 145 145 146 146 146 146 146 147 147 148 147 147 147
148 148 148 148 148 149 149 149 149 149 149 150 150 150 150 150 150
150 151 151 150 151 151 152 152 151 152 152 152 153 153 153 153 154
154 154 154 155 155 155 155 155 156 155 155 156 156 156 156 156 156
156 157 157 157 157 158 158 158 158 158 159 159 159 159 160 160 160
160 160 161 161 161 139 139 139 139 139 139 138 138 138 138 138 138
138 138 138 138 137 137 137 137 137 137 137 137 137 136 136 136 136
136 136 136 136 136 136 136 136 135 136 136 135 135 135 135 135 135
135 135 135 135 135 134 134 134 134 134 134 134 134 134 134 134 134
134 134 134 134 134 133 133 133 133 133 133 133 133 133 133 133 133
133 133 133 133 133 133 133 133 133 133 133 133 133 133 133 133 133
132 132 133 132 133 132 132 132 132 132 132 132 132 132 132 132 132
132 132 132 132 132 132 132 132 132 132 132 132 132 132 132 132 131
131 131 131 131 131 131 131 131 131 131 131 131 131 131 131 131 131
131 130 130 130 130 130 130 130 130 130 130 130 130 130 130 130 130
130 130 130 130 130 130 130 130 130 130 130 130 129 130 130 130 130
129 129 129 129 129 129 129 129 129 129 129 129 129 129 130 130 130
130 129 130 130 130 130 130 130 130 130 129 129 130 130 130 130 130
130 130 130 130 130 130 130 130 130 130 130 130 130 130 130 130 130
130 130 130 130 130 130 130 130 130 130 130 130 130 130 130 130 130
130 130 131 131 131 131 131 131 131 131 131 131 131 131 131 131 131
131 132 131 131 132 132 132 132 132 132 132 132 132 131 132 131 132
131 131 133 133 133 132 133 133 133 133 133 133 133 133 133 134 134
134 134 134 134 134 134 134 135 135 135 135 135 135 135 135 135 135
135 136 136 136 136 136 136 137 137 137 137 137 137 137 137 137 137
138 138 138 138 138 138 138 138 139 139 139 139 139 139 139 140 140
140 140 140 140 140 140 140 140 140 140 141 141 142 142 141 141 141
141 142 142 143 143 143 143 143 143 144 144 144 144 144 145 145 145
145 145 145 145 146 146 146 146 146 146 147 147 147 147 147 148 148
148 148 148 148 149 149 149 149 149 149 150 150 150 150 150 150 151
151 151 151 151 152 152 151 151 152 152 152 153 153 153 154 153 154
154 154 155 155 155 155 155 156 156 156 156 156 156 156 156 156 156
157 157 157 157 157 158 158 158 158 159 159 159 159 159 160 160 160
160 161 161 161 161 161 162 162 162 140 140 139 139 139 139 139 139
139 139 139 139 138 138 138 138 138 138 138 138 138 137 137 137 137
137 137 137 137 137 137 137 136 136 136 136 136 136 136 136 136 136
136 137 136 136 135 135 135 135 135 135 135 135 135 135 135 135 135
135 135 135 134 134 134 134 134 134 134 134 134 134 134 134 134 134
134 134 134 134 134 134 134 134 133 133 133 133 133 133 133 133 133
133 133 133 133 133 133 133 133 133 133 133 133 133 133 133 133 133
133 133 133 133 133 133 133 133 132 132 132 132 132 132 132 132 132
132 132 132 132 132 132 132 132 132 132 132 132 131 131 131 131 131
131 131 131 131 131 131 131 131 131 131 131 131 131 131 130 130 130
130 130 130 130 130 130 130 130 130 130 130 130 130 130 130 130 130
130 130 130 130 130 130 130 130 130 130 130 130 130 130 130 130 130
130 130 130 130 130 130 130 130 130 130 130 130 130 130 130 130 130
130 130 130 130 130 130 130 130 130 130 130 130 130 130 130 130 130
130 130 130 130 130 130 130 130 131 131 131 131 131 131 131 131 131
131 131 131 131 131 131 131 131 131 131 131 131 131 131 131 132 132
132 132 132 132 132 132 132 131 132 131 131 132 131 132 132 133 133
133 133 133 133 132 132 133 133 133 133 133 133 134 134 134 134 134
134 134 134 134 134 135 135 135 135 135 135 134 134 135 135 136 137
135 136 136 136 136 136 136 137 137 137 137 137 137 137 137 137 138
138 138 138 138 138 138 138 139 139 139 139 139 139 139 140 140 140
140 140 140 140 140 141 141 141 140 140 140 140 141 141 141 141 141
141 141 142 143 143 143 142 143 143 144 144 144 144 144 145 145 145
145 145 145 145 146 146 146 146 146 146 147 147 147 147 147 147 148
148 148 148 148 148 149 149 149 149 149 149 150 150 150 150 150 151
151 151 151 151 152 152 152 152 152 152 153 152 153 153 152 153 153
154 154 154 154 155 155 155 156 156 156 156 156 156 156 156 156 156
157 157 157 157 157 157 158 158 158 158 159 159 159 159 159 160 160
160 160 160 161 161 161 161 162 161 162 162 162 163 140 140 140 140
140 140 140 140 140 140 139 139 139 139 139 139 139 139 139 139 139
138 138 138 138 138 138 138 138 138 138 138 138 137 137 137 137 137
137 137 137 137 137 137 137 136 136 136 136 136 136 136 136 136 136
136 136 136 136 136 136 136 136 136 135 135 134 135 135 135 135 135
135 135 135 135 135 135 135 135 135 135 135 135 134 134 134 134 134
134 134 134 134 134 134 134 134 134 134 134 134 134 134 134 134 134
134 134 134 134 134 134 134 133 133 134 134 133 133 134 133 133 133
133 133 133 133 133 133 133 133 133 133 133 132 132 132 132 132 132
132 132 132 132 132 132 132 132 132 132 132 132 132 132 131 131 131
131 131 131 131 131 131 131 131 131 131 131 131 131 131 131 131 131
131 131 131 131 131 131 131 131 131 131 131 131 131 131 131 131 131
131 130 131 131 131 131 131 131 131 131 131 131 131 131 131 131 131
131 131 131 131 131 131 131 131 131 131 131 131 131 131 131 131 131
131 131 131 131 131 131 131 131 131 131 131 131 131 131 131 131 131
132 131 132 132 132 132 132 132 132 132 132 132 132 132 132 132 132
132 132 132 132 132 132 132 132 133 133 133 133 133 132 132 133 133
133 133 133 133 132 134 134 134 134 134 134 134 134 133 134 134 135
135 135 135 135 135 135 135 135 135 135 135 135 136 136 136 136 136
136 136 136 137 137 137 137 137 137 137 137 137 137 138 138 138 138
137 138 138 138 139 139 139 139 139 139 138 139 139 140 140 140 140
140 140 140 141 141 141 141 141 140 141 141 142 142 142 142 142 141
142 142 143 142 143 142 142 143 143 144 144 144 145 145 145 145 145
145 145 146 146 146 146 146 145 146 146 147 147 147 147 146 147 148
148 148 148 149 149 149 149 149 149 150 150 150 150 150 150 151 151
151 151 151 152 152 152 152 152 152 153 153 153 153 153 153 153 153
153 153 155 154 155 155 155 156 155 156 155 156 156 157 157 157 156
157 157 157 157 157 158 158 158 158 158 159 159 159 159 160 160 160
160 160 161 161 161 161 161 162 162 162 162 162 163 163 163 163 164
141 141 141 141 141 140 140 140 140 140 140 140 140 140 140 140 140
139 139 139 139 139 139 139 139 139 139 139 139 138 138 138 138 138
138 138 138 138 138 138 138 138 137 137 137 137 137 137 137 137 137
137 137 137 137 137 137 137 136 136 136 136 136 136 136 136 136 136
136 137 136 136 136 136 136 136 136 136 136 136 135 135 135 135 135
135 135 135 135 135 135 135 135 135 135 135 135 135 135 135 135 135
135 135 135 135 134 134 134 134 134 134 134 134 134 134 134 134 134
134 134 134 134 134 134 133 133 133 133 133 133 133 133 133 133 133
133 133 133 133 133 133 133 133 132 132 132 132 132 132 132 132 132
132 132 132 132 132 132 132 132 132 132 132 132 132 131 131 132 132
131 132 131 131 131 131 131 131 131 131 131 131 131 131 131 131 131
131 131 131 131 131 131 131 131 131 131 131 131 131 131 131 131 131
131 131 131 131 131 131 131 131 131 131 131 131 132 131 132 131 132
132 132 132 131 132 132 132 132 132 132 132 132 132 132 132 132 132
132 132 132 132 132 132 132 132 132 132 132 132 132 132 132 132 132
132 132 133 133 133 133 133 133 133 133 133 133 133 133 133 133 133
133 134 134 134 134 134 134 134 134 134 134 134 134 135 134 135 135
135 135 135 135 135 135 135 135 135 135 136 136 136 136 136 136 136
136 136 136 137 137 137 137 137 137 137 137 137 137 138 138 138 138
138 138 138 139 139 139 139 139 139 139 139 140 140 140 140 140 140
140 140 141 141 141 141 141 141 141 141 142 142 142 142 141 141 141
142 143 142 142 142 142 143 143 144 144 144 144 144 145 145 145 145
145 145 145 146 146 146 146 146 146 147 147 147 147 147 147 148 148
148 148 148 148 149 149 149 149 149 150 150 150 150 150 150 151 151
151 151 151 151 152 152 152 152 153 153 153 153 153 153 153 154 154
153 154 154 154 154 154 155 155 155 155 155 156 156 157 156 157 157
157 157 157 157 157 158 158 158 158 158 159 159 159 159 159 160 160
160 160 160 161 161 161 161 162 162 162 162 162 163 163 163 163 163
164 164 164 164 142 142 141 141 141 141 141 141 141 141 141 141 141
141 140 140 140 140 140 140 140 140 140 140 140 140 140 140 140 139
139 140 139 139 139 139 139 139 139 139 139 139 139 140 138 138 138
138 138 138 138 138 138 138 138 138 138 138 138 138 138 138 137 137
137 137 137 137 136 137 137 137 137 137 137 137 137 136 136 136 136
136 136 136 136 136 136 136 136 136 136 136 136 136 136 136 136 136
136 136 136 135 135 135 135 135 135 135 135 135 135 135 135 135 135
135 135 135 135 135 135 135 134 134 134 134 134 134 134 134 134 134
134 134 134 134 134 134 134 133 133 133 133 133 133 133 133 133 133
133 133 133 133 133 133 133 133 133 132 132 132 132 132 132 132 132
132 132 132 132 132 132 132 132 132 132 132 132 132 132 132 132 132
132 132 132 132 132 132 132 132 132 132 132 132 132 132 131 132 132
132 132 132 132 132 131 132 132 132 132 132 132 132 132 132 132 132
132 132 132 132 132 132 132 132 132 132 132 132 132 132 132 132 132
132 132 132 132 133 133 133 133 133 133 133 133 133 133 133 133 133
133 133 133 133 133 133 133 133 134 134 134 134 134 134 134 134 134
134 134 134 134 134 134 135 135 135 135 135 135 135 135 135 135 135
135 135 135 135 134 135 136 136 136 136 136 136 136 136 136 137 137
137 137 137 137 137 137 136 137 138 138 138 138 138 138 138 138 138
139 139 139 139 139 139 139 140 140 140 140 140 140 140 140 140 140
141 141 141 141 141 141 141 141 142 142 142 142 142 141 142 142 142
142 142 142 142 143 144 143 143 143 144 144 144 145 145 145 145 145
145 146 146 146 145 146 146 146 146 147 147 147 147 148 148 147 148
148 148 149 149 149 148 149 149 150 150 150 150 150 150 151 151 151
151 151 152 152 152 152 152 152 153 153 153 153 153 153 154 154 154
153 154 155 155 154 155 155 155 155 155 156 155 157 157 157 157 157
157 157 157 157 157 158 158 158 158 158 159 159 159 159 160 160 160
161 161 161 161 161 161 161 162 162 162 162 162 163 163 163 163 164
164 164 164 165 165 165 165 165 142 142 142 142 142 142 142 142 142
141 141 141 141 141 141 141 141 141 141 141 141 141 141 140 140 140
140 140 140 140 140 140 140 140 140 141 140 140 140 140 139 139 139
139 139 139 140 139 139 139 139 139 139 139 139 139 139 138 138 138
138 138 138 138 138 138 138 138 138 138 138 138 138 138 138 138 137
137 137 137 137 137 137 137 137 137 137 137 137 137 137 137 136 136
136 136 136 136 136 136 136 136 136 136 136 136 136 136 136 136 136
136 135 135 135 135 135 135 135 135 135 135 135 135 135 135 135 135
135 135 135 135 134 134 134 134 134 134 134 134 134 134 134 134 135
134 134 134 133 133 133 133 133 133 133 133 133 133 133 133 133 133
133 133 133 133 133 133 133 133 132 133 133 133 133 132 132 132 132
132 132 132 132 132 132 132 132 132 132 132 132 132 132 132 132 132
132 132 132 132 132 132 132 132 132 132 133 133 133 133 133 133 133
133 133 133 133 133 133 133 133 133 133 133 133 133 133 133 133 133
133 133 133 133 133 133 133 133 133 133 133 133 133 133 133 133 133
134 134 134 134 134 134 134 134 134 134 134 134 134 134 134 134 134
134 134 135 135 135 135 135 135 135 135 135 135 135 135 135 135 135
136 136 136 136 136 136 136 136 136 136 137 137 137 137 137 137 137
137 137 137 137 137 137 137 138 138 138 138 138 138 138 138 139 139
139 139 139 139 139 139 140 140 140 140 140 140 140 140 140 140 141
141 141 141 141 141 141 141 142 142 142 142 142 142 142 142 142 142
142 142 142 142 143 143 143 143 143 144 143 145 145 145 145 145 145
146 145 146 146 146 146 146 146 147 147 147 147 147 147 148 148 148
148 148 149 149 149 149 149 149 150 150 150 150 150 150 151 151 151
151 151 152 152 152 152 152 152 153 153 153 153 153 154 154 154 154
154 154 155 154 155 154 155 155 155 155 155 156 157 156 156 157 157
157 157 157 157 157 158 158 158 158 158 159 159 159 159 159 160 160
160 160 161 161 161 161 161 162 162 162 162 162 163 163 163 163 163
164 164 164 164 165 166 165 165 165 166 166 166 143 143 143 143 143
143 143 143 143 143 142 142 142 142 142 142 142 142 142 142 142 142
141 141 141 141 141 141 141 141 141 141 141 141 141 141 141 141 141
140 140 140 140 140 140 140 140 140 140 140 140 140 140 140 140 140
140 140 139 140 139 139 139 139 139 139 139 139 139 139 139 139 139
139 139 139 139 138 138 138 138 138 138 138 138 138 138 138 138 138
138 138 138 138 138 137 137 137 136 137 136 137 137 137 137 137 137
137 137 137 136 136 136 136 136 136 136 136 136 136 136 136 136 136
136 136 136 135 135 135 135 135 135 135 135 135 135 135 135 135 135
135 135 135 134 134 134 134 134 134 134 134 134 134 134 134 134 134
134 134 134 134 134 134 134 133 133 133 133 134 134 133 133 134 133
133 133 133 133 133 133 133 133 133 133 133 133 133 133 133 133 133
133 133 133 133 133 133 133 133 133 133 133 133 133 133 133 133 133
133 133 133 133 134 134 134 134 134 134 134 134 134 134 134 134 134
134 134 134 134 134 134 134 134 134 134 134 134 134 134 134 134 134
134 134 134 134 135 135 135 135 135 135 135 135 135 135 135 135 135
135 135 135 135 135 135 135 135 135 136 136 136 136 136 136 136 136
136 136 136 136 136 136 137 137 137 137 137 137 137 137 137 137 137
137 138 138 138 138 138 138 138 138 138 138 139 139 139 139 139 139
139 139 139 140 140 140 140 140 140 140 140 140 141 141 141 141 141
141 141 141 141 142 142 142 142 142 142 142 142 142 142 142 142 142
142 142 143 143 143 143 143 143 144 144 145 145 145 145 144 145 145
146 146 146 146 146 147 147 147 147 147 147 148 148 148 148 148 148
148 149 149 149 149 149 149 150 150 150 150 150 151 151 151 151 151
151 152 152 152 152 152 152 153 153 153 153 153 153 153 154 154 154
155 155 154 155 155 155 155 155 156 155 155 156 156 157 156 157 157
157 157 157 157 158 158 158 158 158 159 159 159 159 159 160 160 160
160 160 161 161 161 161 161 162 162 162 162 163 163 163 163 163 164
164 164 164 164 165 165 165 165 165 166 166 166 166 166 167 167 144
144 144 144 144 144 144 143 143 143 143 143 143 143 143 143 143 143
143 143 143 142 142 142 142 142 142 142 142 142 142 142 142 142 141
141 141 141 141 141 142 141 141 141 141 141 141 142 141 141 141 141
141 140 141 140 140 140 140 140 140 140 140 140 140 140 140 140 140
140 140 140 140 139 139 139 139 139 139 139 139 139 139 139 139 139
139 139 139 138 138 138 138 138 138 138 138 138 138 138 138 138 138
138 137 137 137 137 137 137 137 137 137 137 137 137 137 137 136 136
136 136 136 136 136 136 136 136 136 136 136 136 136 136 136 136 135
135 135 135 135 135 135 135 135 135 135 135 135 135 135 135 134 134
134 134 134 134 134 134 134 134 134 134 134 134 134 134 134 134 134
134 134 134 134 134 134 134 134 134 134 134 134 134 134 134 134 134
134 134 134 134 134 134 134 134 134 134 134 134 134 134 134 134 134
134 134 134 134 134 134 134 134 134 134 134 134 134 134 134 134 134
134 134 134 134 134 134 134 134 134 135 135 134 135 135 135 135 135
135 135 135 135 135 135 135 135 135 135 135 135 135 135 135 135 135
135 135 135 135 136 136 136 136 136 136 136 136 136 136 136 136 136
136 136 136 137 137 137 137 137 137 137 137 137 137 137 138 138 138
138 138 138 138 138 138 138 138 139 139 139 139 139 139 139 139 139
139 140 140 140 140 140 140 140 140 140 140 141 141 141 141 141 141
141 141 142 142 142 142 142 142 142 142 142 142 142 142 142 142 142
142 143 143 143 143 143 143 144 144 144 144 144 144 144 144 145 146
146 145 146 146 146 147 147 147 147 147 147 148 148 148 148 148 148
148 149 149 149 149 149 150 150 150 150 150 150 151 151 151 151 151
151 152 152 152 152 152 153 153 153 153 153 153 153 154 154 154 155
154 155 155 155 155 155 155 155 155 155 155 156 156 156 156 156 157
157 158 157 157 157 158 158 158 158 159 159 159 159 159 160 160 160
160 160 161 161 161 161 162 162 161 162 162 162 163 163 163 163 164
164 164 164 164 165 165 165 165 165 166 166 166 167 166 167 167 167
167 168 168 146 145 145 145 145 145 144 144 144 144 144 144 144 144
144 144 144 144 144 144 144 144 143 143 143 143 143 143 143 143 143
143 143 143 143 143 143 143 143 142 142 142 142 142 142 142 142 142
142 142 142 142 142 142 142 142 142 141 141 142 141 141 141 141 141
141 141 141 141 141 141 140 140 140 140 140 140 140 140 140 140 140
140 140 140 140 140 140 140 140 138 139 139 139 139 139 139 139 139
139 139 139 139 139 138 138 138 138 138 138 138 138 138 138 138 138
138 138 137 137 137 137 137 137 137 137 137 137 137 137 137 137 137
136 136 136 136 136 136 136 136 136 136 136 136 136 136 136 136 136
136 136 136 136 135 135 135 135 135 135 135 135 135 135 135 135 135
135 135 135 135 135 135 135 135 135 135 134 135 134 134 134 135 134
134 135 135 134 134 134 134 135 135 135 135 135 135 135 134 135 134
134 134 134 135 135 135 135 135 135 135 135 135 135 135 135 135 135
135 135 135 135 135 135 135 135 135 135 135 135 135 135 135 135 135
135 136 135 135 136 136 136 136 136 136 136 136 136 136 136 136 136
136 136 136 136 136 136 136 136 136 137 137 137 137 137 137 137 137
137 137 137 137 137 137 137 137 137 137 137 138 138 138 138 138 138
138 138 138 139 139 139 139 139 139 139 139 139 139 140 140 140 140
140 140 140 140 140 140 140 141 141 141 141 141 141 141 141 141 142
142 142 142 142 142 142 142 142 142 142 142 142 142 142 142 143 143
143 143 143 143 143 144 144 144 144 144 144 145 145 145 145 145 146
146 146 147 147 147 147 147 147 147 148 148 148 148 148 148 148 149
149 149 149 150 150 150 150 150 150 150 150 151 151 151 151 151 152
152 152 152 153 152 153 153 153 153 153 154 154 154 154 154 155 155
155 155 155 154 155 155 155 155 155 156 156 156 156 156 156 157 157
157 157 157 158 158 158 158 158 158 159 159 159 160 160 160 160 160
160 161 161 161 161 161 162 162 162 162 162 163 163 163 163 163 164
164 164 165 165 165 165 165 165 166 166 166 166 166 167 167 167 167
168 168 168 168 168 168 169 146 146 146 145 145 146 145 145 145 145
146 145 145 145 145 145 145 144 144 144 144 144 144 144 144 144 144
144 144 145 144 144 144 144 144 144 144 143 143 143 143 143 143 143
143 143 143 143 143 143 143 143 143 143 142 142 142 142 142 142 142
142 142 142 142 142 142 141 141 141 141 141 141 141 141 141 141 141
141 141 141 141 141 141 140 140 140 140 140 140 140 140 140 140 140
140 140 140 140 139 139 139 139 139 139 139 139 139 139 139 139 139
139 138 138 138 138 138 138 138 138 138 138 138 138 138 138 138 138
137 137 137 137 137 137 137 137 137 137 137 137 137 137 137 136 136
136 136 136 136 136 136 136 136 136 136 136 136 136 136 136 136 136
136 136 136 136 136 135 135 135 135 135 135 135 135 135 135 135 135
135 135 135 135 135 135 135 135 135 135 135 135 135 135 135 135 135
135 135 135 135 135 135 135 135 135 135 135 135 135 135 135 135 135
135 135 135 136 136 136 136 136 136 136 136 136 136 136 136 136 136
136 136 136 136 136 136 136 136 136 136 136 136 136 136 136 136 137
137 137 137 137 137 137 137 137 137 137 137 137 137 137 137 137 137
137 137 137 137 138 138 138 138 138 138 138 138 138 138 138 138 138
138 138 139 139 139 139 139 139 139 139 140 140 140 140 140 140 140
140 140 140 140 141 141 141 141 141 141 141 141 141 141 142 142 142
142 142 142 142 142 142 142 142 142 142 142 142 142 142 143 143 143
143 143 143 143 143 144 144 144 144 144 144 145 146 146 145 145 145
146 146 147 147 147 147 147 147 147 148 148 148 148 148 148 149 149
149 149 150 149 150 150 150 150 150 150 150 150 151 151 151 152 152
152 152 152 152 152 153 153 153 153 153 153 154 154 154 154 154 155
155 155 155 155 155 155 156 155 155 155 156 156 156 157 156 157 157
157 157 157 157 158 158 158 158 159 159 159 159 159 159 160 160 160
160 160 161 161 161 161 162 162 162 162 162 163 163 163 163 163 164
164 164 164 164 165 165 165 165 165 166 166 166 166 167 167 167 167
167 168 168 168 168 168 169 169 169 169 169 148 148 148 147 147 147
146 146 146 146 146 146 147 146 146 146 146 146 146 146 145 145 145
145 145 145 145 145 145 145 145 146 145 145 145 145 145 144 144 144
144 144 144 144 144 144 144 144 145 144 144 144 144 144 144 144 144
143 143 143 144 143 143 143 143 143 143 143 143 143 142 142 142 142
142 142 142 142 142 142 142 142 142 142 142 142 141 141 141 141 141
141 141 141 141 141 141 141 140 140 140 140 140 140 140 140 140 140
140 140 140 140 140 139 139 139 139 139 139 139 139 139 139 139 139
139 138 138 138 138 138 138 138 138 138 138 138 138 138 138 138 138
138 137 137 137 137 137 137 137 137 137 137 137 137 137 137 137 137
137 137 137 136 136 136 136 136 136 136 136 136 136 136 136 136 136
136 136 136 136 136 136 136 136 136 136 136 136 136 136 136 136 136
136 136 136 136 136 136 136 136 136 136 136 136 136 136 136 136 136
136 136 136 136 136 136 136 136 136 136 136 136 136 137 136 137 137
137 137 137 137 137 137 137 137 137 137 137 137 137 137 137 137 137
137 137 137 137 137 137 138 138 138 138 138 138 138 138 138 138 138
138 138 138 138 138 138 138 138 138 138 138 138 138 139 139 139 139
139 139 139 139 139 139 139 140 141 140 140 140 140 140 140 141 141
141 141 141 141 141 141 141 141 142 142 142 142 142 142 142 142 142
142 143 143 143 143 143 143 143 142 142 143 143 143 143 144 143 143
143 144 144 144 144 144 144 144 144 145 145 145 145 145 145 145 146
147 147 147 147 147 148 148 148 148 148 148 148 148 149 149 149 149
149 149 150 150 150 150 150 149 150 151 151 151 151 151 152 152 152
152 152 152 153 153 153 153 153 153 154 154 154 154 154 155 155 155
155 155 155 155 155 155 155 155 155 156 156 156 156 157 157 157 157
157 157 158 158 158 158 158 159 159 159 159 159 160 160 160 160 160
161 161 161 161 162 162 162 162 162 163 163 163 163 163 163 163 164
164 164 164 165 165 165 165 166 166 166 165 166 167 167 167 167 168
168 168 168 168 168 169 169 169 169 169 170 170 170 170 171 148 147
148 148 147 148 147 148 148 148 148 148 146 147 147 147 146 147 146
147 146 146 146 146 147 146 147 147 146 146 146 146 146 146 146 145
146 145 145 145 145 145 145 145 145 145 146 145 145 145 146 146 144
144 144 144 144 144 144 144 144 144 144 144 144 144 144 143 143 143
143 143 143 143 143 143 143 143 143 143 143 142 142 142 142 142 142
142 142 142 142 142 142 142 141 141 141 141 141 141 141 141 141 141
141 141 141 141 140 140 140 140 140 140 140 140 140 140 140 140 139
139 139 139 139 139 139 139 139 138 139 139 139 139 139 139 138 138
138 138 138 138 138 138 138 138 138 138 138 138 138 138 138 138 137
138 137 137 137 137 137 137 137 137 137 137 137 137 137 137 137 137
137 137 137 137 137 137 136 137 137 136 137 136 137 136 137 137 137
137 137 137 137 136 137 137 136 137 137 137 137 137 137 137 137 137
137 137 137 137 137 137 137 137 137 137 137 137 137 137 137 137 137
137 137 137 137 137 137 137 137 137 137 137 137 138 138 138 138 138
138 138 138 138 138 138 138 138 138 138 138 138 138 138 138 138 138
138 138 138 138 139 139 139 139 139 139 139 139 139 139 139 139 139
139 139 139 139 140 140 140 140 140 140 140 140 140 141 141 141 141
141 141 141 141 141 141 142 142 142 142 142 142 142 142 142 143 142
143 143 143 143 143 143 143 144 143 143 143 143 143 143 143 143 144
144 144 144 144 144 144 144 144 145 145 145 145 145 145 145 146 146
146 147 147 147 147 148 148 148 148 148 148 148 149 149 149 149 149
150 150 150 150 150 151 150 151 151 151 151 151 151 151 151 152 152
152 152 152 152 153 153 153 153 154 154 154 154 154 154 154 155 155
155 155 155 155 155 155 155 155 156 156 156 156 156 156 157 157 157
157 157 157 159 158 158 158 159 159 159 159 159 160 160 160 160 160
161 161 161 161 161 162 162 162 162 162 162 163 163 163 163 164 164
164 164 164 165 165 165 165 166 166 166 167 166 166 167 167 167 167
168 169 168 168 168 168 169 169 169 169 170 170 170 170 170 171 171
171 171 149 150 149 148 149 149 149 149 149 149 149 149 149 148 149
148 148 148 148 148 148 148 148 148 148 147 147 148 148 148 147 148
147 146 147 147 147 147 147 147 147 147 146 147 146 146 146 146 147
146 146 146 146 147 146 146 145 145 146 145 145 145 145 145 145 146
145 146 145 144 145 145 145 145 145 144 144 144 144 144 144 144 143
143 143 143 143 143 143 143 143 143 143 142 142 142 142 142 142 142
142 142 142 142 142 142 142 141 141 141 141 141 141 141 141 141 141
141 141 141 140 140 140 140 140 140 140 140 140 140 140 140 140 140
140 140 139 139 139 139 139 139 139 139 139 139 139 139 139 139 139
139 139 138 139 138 138 138 138 138 138 138 138 138 138 138 138 138
138 138 138 138 138 138 138 138 138 138 138 138 138 138 137 137 137
137 137 137 137 137 138 137 137 137 137 137 137 137 137 137 137 137
138 138 138 138 138 138 138 138 138 138 138 138 138 138 138 138 138
138 138 138 138 138 138 138 138 138 138 138 138 138 138 138 138 138
138 138 139 139 139 139 139 139 139 139 139 139 139 139 139 139 139
139 139 139 139 139 139 139 139 139 139 139 139 139 139 140 140 140
140 140 140 140 140 140 140 140 141 141 141 141 141 141 141 141 141
141 141 142 142 142 142 142 142 142 142 142 143 143 143 143 143 143
143 143 143 144 144 144 144 144 144 143 143 143 144 144 144 144 144
144 144 145 145 145 145 145 145 145 145 145 145 145 145 146 145 146
146 146 146 147 148 148 148 148 148 149 149 149 149 149 149 150 150
150 150 150 150 149 151 151 151 151 151 151 151 151 151 152 152 152
152 152 152 153 153 153 153 154 154 154 154 154 155 155 155 155 155
155 155 155 155 155 155 156 156 156 156 156 156 157 157 157 157 157
157 158 158 158 158 158 159 159 159 159 159 160 160 160 160 160 161
161 161 161 161 162 162 162 162 162 162 163 163 163 163 163 164 164
164 164 166 165 165 165 166 166 166 166 166 167 167 167 167 167 169
168 168 168 168 170 169 169 169 169 170 170 170 170 170 171 171 171
171 172 172 172 172 172 150 150 150 150 150 150 150 150 150 150 150
150 149 149 150 149 149 149 149 149 149 149 149 149 149 149 149 149
148 149 148 148 148 148 148 148 148 148 148 148 147 148 148 148 147
148 148 148 148 147 147 147 147 147 146 147 146 146 146 146 146 146
147 147 147 146 145 146 146 145 145 145 145 145 146 146 145 146 145
145 145 144 144 144 144 144 144 144 144 144 143 143 143 143 143 143
143 143 143 143 143 143 143 142 142 142 142 142 142 142 142 142 142
142 142 142 142 141 141 141 141 141 141 141 141 141 141 141 141 140
140 140 140 140 140 140 140 140 140 140 140 140 140 140 140 140 140
140 139 139 139 139 139 139 139 139 139 139 139 139 139 139 139 139
139 139 139 139 139 139 139 138 138 138 138 138 138 138 138 138 138
138 138 138 138 138 138 138 138 138 138 138 138 138 138 138 138 138
138 139 138 138 138 138 138 138 138 138 138 138 138 138 138 138 138
138 138 138 138 138 138 138 139 139 139 139 139 139 139 139 139 139
139 139 139 139 139 139 139 139 139 139 139 139 139 139 140 140 140
140 140 140 140 140 140 140 140 140 140 140 140 140 140 140 140 140
140 140 140 140 140 141 141 141 141 141 141 141 141 141 141 141 141
142 142 142 142 142 142 142 142 143 143 143 143 143 143 143 143 143
144 144 144 144 144 144 144 144 144 144 144 144 145 144 144 144 145
145 145 145 145 145 145 145 145 145 145 146 146 146 146 146 146 146
146 146 148 148 148 148 147 148 148 149 149 149 149 149 150 150 150
150 150 149 150 150 151 151 151 151 151 151 152 152 152 152 152 152
152 152 153 153 153 153 153 153 154 154 154 153 154 155 155 155 155
155 155 155 155 155 155 155 156 156 156 156 157 157 157 157 157 157
158 158 158 158 158 158 158 159 159 159 160 160 160 160 160 160 161
161 162 162 162 162 162 162 162 162 163 163 163 163 163 163 163 164
164 164 165 166 165 165 165 166 166 166 166 166 167 167 167 167 167
168 168 168 168 168 169 169 169 170 170 170 170 170 170 171 171 172
171 171 172 172 172 172 173 173 173 173 151 151 151 151 151 151 151
151 151 151 151 151 151 151 151 151 151 150 150 150 150 150 150 150
150 150 150 150 150 150 150 150 150 149 149 149 149 149 149 149 149
149 149 149 149 149 149 148 149 147 148 148 148 148 147 148 148 148
148 148 148 148 148 148 147 147 147 147 147 146 147 146 147 146 147
147 146 146 146 145 145 145 146 145 146 146 146 146 146 146 145 145
145 144 144 144 144 144 144 144 144 144 144 144 143 143 143 143 143
143 144 144 143 143 143 142 142 142 142 142 142 142 142 142 142 142
142 142 142 142 142 141 141 141 141 141 141 141 141 141 141 141 141
141 141 141 140 140 140 140 140 140 140 140 140 140 140 140 140 140
140 140 140 140 140 140 140 140 140 139 140 139 139 139 139 139 139
139 139 139 139 139 139 139 139 139 139 139 139 139 139 139 139 139
139 139 139 139 139 139 139 139 140 139 139 139 139 139 139 139 139
140 139 139 139 139 139 139 139 139 139 138 139 139 139 139 139 140
139 139 140 140 140 140 140 140 140 140 140 140 140 140 140 140 140
140 140 140 140 140 140 140 140 141 141 141 141 141 141 141 141 141
141 141 141 141 141 141 141 141 141 142 142 142 142 142 142 142 142
142 142 142 143 143 143 143 143 143 143 143 143 143 143 144 144 144
144 144 144 144 144 144 145 145 145 145 145 145 145 146 146 145 145
145 145 145 145 145 146 146 146 146 146 146 146 146 146 146 146 146
147 147 147 147 147 147 147 148 148 148 149 149 150 150 150 150 150
150 150 151 151 151 151 151 151 152 152 152 152 152 152 152 151 152
153 153 153 153 153 153 154 154 154 154 154 154 155 155 155 155 155
155 155 155 155 156 156 156 156 156 157 157 157 157 157 158 158 158
158 158 158 158 158 160 159 159 159 159 161 160 160 160 160 161 161
161 162 162 162 162 162 162 163 163 163 163 163 163 163 164 164 164
164 164 165 165 165 166 166 166 166 166 167 168 167 168 167 167 168
168 168 168 169 169 169 169 169 170 170 171 170 170 171 171 171 171
171 172 172 172 172 172 173 173 173 173 173 174 174 174 152 152 152
152 152 152 152 152 152 152 152 152 152 152 152 151 151 151 151 151
151 151 151 151 151 151 151 151 151 150 151 150 150 151 150 150 150
150 150 150 150 150 150 150 150 150 150 149 149 149 149 149 149 149
149 149 149 149 149 149 148 149 148 148 148 148 148 149 148 148 148
148 148 147 148 148 146 147 146 147 147 147 146 146 147 146 146 146
146 146 146 146 146 146 146 146 145 145 146 146 144 144 144 144 144
144 145 144 145 144 145 145 144 144 143 143 143 143 144 143 143 143
143 143 143 142 142 142 142 142 142 142 142 142 142 142 142 142 142
142 142 142 141 141 141 141 141 141 141 141 141 141 141 141 141 141
141 141 141 141 141 140 140 140 140 140 140 140 140 140 140 140 140
140 140 140 140 140 140 140 140 140 140 140 140 140 140 140 140 140
140 140 140 140 140 140 140 140 140 140 139 140 140 140 140 140 140
140 140 140 140 140 140 140 140 140 140 140 140 140 140 140 140 140
140 140 140 140 140 140 140 140 140 141 141 141 141 141 141 141 141
141 141 141 141 141 141 141 141 141 141 141 141 141 141 141 141 141
141 141 141 141 141 142 142 142 142 142 142 142 142 142 142 142 142
143 143 143 143 143 143 143 143 143 143 143 144 144 144 144 144 144
144 144 144 144 145 145 145 145 145 145 145 146 147 145 145 146 146
146 145 145 147 146 146 146 146 146 146 146 146 146 146 147 147 147
147 147 147 147 147 148 148 148 149 149 149 149 150 150 150 150 150
150 151 151 151 151 151 151 152 152 152 151 152 152 152 152 153 153
153 153 153 153 153 153 154 154 154 154 154 155 155 155 155 155 156
155 155 156 155 156 156 156 156 156 157 157 157 157 157 157 158 158
158 158 158 158 159 159 159 159 159 158 160 160 160 160 160 161 161
161 161 162 162 162 162 162 163 163 163 163 163 164 164 164 164 164
164 164 165 165 165 165 166 166 165 166 167 167 167 167 167 168 168
168 168 168 169 169 169 170 170 170 171 170 170 170 171 171 171 171
171 172 172 172 172 172 173 173 173 173 173 174 174 174 174 175 175
175 153 154 152 152 153 153 153 153 153 153 153 153 152 153 153 153
152 152 152 152 152 152 152 152 152 152 152 152 152 152 152 152 151
150 151 151 151 151 151 151 151 152 151 151 151 151 151 150 151 150
150 150 150 150 150 150 150 150 150 150 150 150 150 150 149 149 149
149 149 149 149 149 149 149 149 148 148 148 148 148 148 148 148 148
148 148 148 148 148 148 146 147 146 146 146 147 146 146 147 146 145
146 145 145 145 145 146 145 146 145 145 145 144 145 144 144 144 144
144 144 144 144 144 144 144 143 143 143 143 143 144 143 143 143 143
143 143 143 143 143 143 142 142 142 142 142 142 142 142 142 142 142
142 142 142 142 142 142 142 142 142 141 141 141 141 141 141 141 141
141 141 141 141 141 141 141 141 141 141 141 141 141 141 141 141 141
141 141 141 141 141 141 141 141 141 141 141 141 141 141 141 141 140
141 141 141 141 141 141 141 141 141 141 141 141 141 141 141 141 141
141 141 141 141 141 141 141 141 141 141 141 142 142 142 142 142 142
142 142 142 142 142 142 142 142 142 142 142 142 142 142 142 142 142
142 142 142 142 142 142 142 142 142 142 143 143 143 143 143 143 143
143 143 143 143 143 144 144 144 144 144 144 144 144 144 144 144 145
145 145 145 145 145 145 145 146 146 146 146 146 146 145 145 146 147
146 147 147 146 146 146 147 147 147 147 147 147 147 147 147 147 147
147 147 147 148 148 148 148 149 149 150 150 150 150 150 150 151 151
151 151 151 151 151 152 152 152 152 152 153 153 153 153 153 153 153
153 153 153 153 154 154 154 154 153 155 155 155 155 155 155 155 155
155 156 156 156 156 156 157 157 157 157 157 157 157 158 158 158 158
158 158 159 159 159 159 159 159 159 160 160 160 160 160 161 161 161
160 162 162 162 162 162 163 163 163 163 163 164 164 164 164 164 164
164 164 165 165 165 165 166 166 166 166 167 167 167 167 168 168 168
168 168 169 169 169 170 170 170 171 170 171 172 172 172 171 171 171
171 172 172 172 173 173 173 173 173 174 174 174 174 174 175 175 175
176 175 175 176 176 153 153 153 153 153 153 154 153 154 154 154 154
153 153 153 153 153 152 153 153 153 153 152 153 153 152 153 153 153
152 153 152 152 152 151 152 152 151 152 152 152 152 152 151 151 151
151 151 151 151 151 151 151 150 151 151 151 151 151 151 151 150 150
150 150 150 150 150 149 149 150 150 149 149 149 149 149 149 149 149
149 149 149 149 148 148 148 148 148 148 148 148 148 148 148 148 148
146 147 147 147 147 146 147 148 147 146 146 146 145 145 145 145 145
145 146 145 145 146 146 145 146 145 145 144 145 144 144 144 144 144
144 144 144 144 144 144 145 144 144 144 143 143 143 143 143 143 143
143 143 143 143 143 143 143 142 143 142 142 142 142 142 142 142 142
142 142 142 142 142 142 142 142 142 142 142 142 142 142 142 142 142
141 142 141 142 142 141 141 141 141 141 141 141 141 141 141 141 141
141 141 141 141 141 141 141 141 141 141 141 141 141 141 142 142 142
142 142 142 142 142 142 142 142 142 142 142 142 142 142 142 142 142
142 142 142 142 142 142 142 142 142 142 142 142 142 142 142 142 142
142 142 143 143 142 143 143 143 143 143 143 143 143 143 143 143 143
143 143 144 144 144 144 144 144 144 144 144 144 145 145 145 145 145
145 145 145 145 146 146 146 146 146 146 146 146 146 146 147 147 147
147 147 147 146 147 147 147 147 147 147 147 148 147 147 147 148 148
148 148 148 148 148 148 149 148 149 149 149 150 149 150 150 151 151
151 151 151 152 152 152 152 152 152 152 153 153 153 153 153 153 153
153 154 154 154 154 154 154 154 154 155 155 155 155 155 155 156 155
155 155 156 156 156 156 156 156 157 157 157 157 157 158 158 157 158
158 159 159 159 159 159 159 160 160 160 160 160 160 160 160 161 161
161 161 162 162 162 162 163 163 163 163 164 164 164 164 164 164 164
164 165 165 165 165 165 166 166 166 166 167 167 167 167 167 168 168
168 169 169 169 169 170 171 171 170 171 171 170 172 171 172 172 172
172 172 172 172 172 173 173 173 173 174 174 174 174 174 175 175 175
175 175 176 176 176 176 177 177 177 154 154 154 154 154 154 154 154
154 154 154 155 154 154 154 154 155 154 154 154 153 153 153 154 153
154 153 153 154 154 154 154 154 153 152 153 153 153 153 153 153 153
153 153 153 153 153 153 152 152 152 152 152 152 152 152 152 152 152
151 151 151 151 151 151 151 151 151 151 151 151 151 151 151 150 150
150 150 150 150 150 150 150 150 150 150 149 149 149 149 149 149 149
149 149 149 148 148 148 148 148 148 148 148 149 151 151 146 147 147
147 147 148 146 146 146 146 147 146 146 146 146 145 145 145 145 145
145 145 145 146 145 145 145 145 145 145 146 145 145 145 144 144 144
144 144 144 144 144 144 144 144 144 144 144 144 144 144 143 143 143
143 143 143 143 143 143 143 143 143 143 143 143 143 143 143 143 143
143 143 143 143 143 143 143 143 143 143 142 142 143 142 142 142 142
142 142 142 142 142 142 142 142 142 142 142 142 142 142 142 142 143
143 142 143 142 143 143 143 143 143 143 143 143 143 143 143 143 143
143 143 143 143 143 143 143 143 143 143 143 143 143 143 143 143 143
143 143 143 143 143 143 144 144 144 144 144 144 144 144 144 144 144
144 144 144 144 144 145 145 145 145 145 145 145 145 145 145 146 146
146 146 146 146 146 146 146 146 147 147 147 147 147 147 147 147 147
148 148 147 147 147 147 147 147 148 148 148 148 148 148 148 149 148
148 148 148 148 148 149 149 149 149 149 150 149 150 151 151 151 151
151 152 152 152 152 152 152 153 153 153 153 153 153 154 154 154 154
154 154 154 154 154 154 154 155 155 155 155 155 155 155 156 156 155
157 156 156 156 156 157 157 158 157 157 158 158 159 158 158 159 159
159 159 159 159 160 160 160 160 160 160 160 160 160 161 161 161 161
162 162 162 162 163 163 163 163 163 163 164 164 164 164 165 165 165
165 165 165 164 165 166 165 166 167 167 167 167 167 168 168 168 168
168 169 169 169 169 170 170 170 170 171 172 172 171 171 171 171 172
172 172 172 172 172 173 173 173 174 174 175 174 174 175 175 175 175
175 176 176 176 176 176 177 177 177 177 177 178 178 155 155 155 155
155 155 155 155 155 155 155 154 154 154 154 154 154 154 154 154 154
154 154 155 154 154 154 154 154 154 154 153 153 153 153 154 153 154
154 154 154 154 154 153 153 153 153 153 153 153 153 153 153 153 153
153 153 152 152 152 152 152 152 152 152 152 152 152 152 152 151 151
151 151 151 151 151 151 151 151 151 151 151 151 151 150 150 150 150
150 150 150 150 150 149 149 149 149 149 149 148 149 148 148 148 148
147 148 148 148 147 148 147 149 152 162 163 168 174 167 154 146 147
147 146 147 147 147 146 146 148 146 146 146 145 145 145 146 145 146
145 145 145 145 145 145 145 145 145 145 145 145 144 145 144 145 144
144 144 144 144 144 144 144 144 144 144 144 144 144 144 144 144 144
144 144 144 144 144 144 143 143 143 143 143 143 143 143 143 143 143
143 143 143 143 143 143 143 143 143 143 143 143 143 143 143 143 143
143 143 143 143 143 143 143 144 143 143 143 143 143 143 143 144 144
144 144 144 144 144 144 144 144 144 144 144 144 144 144 144 144 144
144 144 144 144 144 144 144 144 144 144 144 144 144 144 144 145 145
145 145 145 145 145 145 145 145 145 145 145 145 146 146 146 146 146
146 146 146 146 146 147 147 147 147 147 147 147 147 147 147 148 148
148 148 148 148 148 148 149 149 148 148 148 148 148 148 149 148 149
149 149 149 149 149 149 149 149 149 149 149 150 151 150 151 151 151
151 150 152 152 152 152 153 153 153 153 153 153 154 154 154 154 154
154 154 154 154 155 155 155 155 155 155 155 155 155 155 155 156 156
156 157 157 156 157 157 158 157 157 158 158 158 158 158 158 159 160
159 159 159 160 161 160 160 160 160 160 160 161 161 162 161 161 161
162 162 162 162 163 163 163 163 163 164 164 164 164 165 165 165 165
165 165 165 165 166 166 166 166 166 166 167 167 167 168 168 168 168
168 169 169 169 170 170 171 170 171 170 172 172 172 172 172 172 173
173 173 172 173 173 174 173 173 173 174 174 174 174 175 175 175 175
175 176 176 176 176 177 177 177 177 177 177 178 179 178 178 178 178
157 157 156 156 157 156 156 156 156 156 156 156 156 156 156 156 156
156 156 155 155 155 155 155 155 155 155 155 155 155 155 154 154 154
154 154 154 154 154 154 154 154 154 154 153 153 153 154 153 153 153
153 153 153 154 153 153 153 153 153 153 153 152 152 153 152 153 153
153 153 153 152 152 152 152 152 152 152 152 152 152 152 151 151 151
151 151 151 151 151 151 151 150 150 150 150 150 149 150 150 149 150
150 149 148 148 148 149 149 148 149 148 148 161 166 165 177 170 169
168 157 168 169 159 147 147 147 146 147 147 148 147 147 147 147 146
147 147 146 147 146 146 146 146 146 146 146 146 146 146 146 146 146
146 145 145 145 145 145 145 145 145 145 145 145 145 145 145 145 145
145 145 145 145 145 145 145 145 145 145 145 145 145 144 145 144 144
144 144 144 144 144 144 144 144 144 144 144 144 144 144 144 144 144
144 144 144 144 144 144 144 144 144 144 144 144 144 144 144 144 144
144 144 144 144 145 145 145 145 145 145 145 145 145 145 145 145 145
145 145 145 145 145 145 145 145 145 145 145 145 145 145 145 145 146
146 146 146 146 146 146 146 146 146 146 146 146 146 146 147 147 147
147 147 147 147 147 147 147 147 147 148 148 148 148 148 148 147 148
148 148 148 148 149 149 149 148 148 148 149 150 149 149 149 149 149
149 149 149 149 149 150 150 150 150 150 150 150 150 151 152 152 152
152 152 152 153 153 153 153 153 153 154 154 154 154 154 154 155 155
155 155 155 155 155 155 155 155 155 155 156 156 156 156 156 157 157
157 157 157 157 157 158 158 157 158 158 159 158 158 159 159 160 159
159 159 160 160 160 160 160 161 161 161 161 161 161 161 161 162 162
162 162 162 163 163 164 163 163 164 164 165 164 165 165 165 165 165
165 165 166 166 166 166 166 166 166 167 167 167 168 168 168 168 168
169 169 169 169 170 170 170 170 171 172 172 172 172 172 173 173 173
173 173 173 172 174 173 173 173 173 175 174 174 175 175 175 175 176
176 176 176 177 177 177 177 177 177 178 178 178 178 178 179 179 179
179 179 179 180 158 157 157 157 157 157 157 157 157 157 157 157 157
157 157 157 156 156 156 156 156 156 156 156 156 156 156 156 155 155
155 155 155 155 155 155 155 155 155 154 154 154 154 154 154 154 154
154 154 154 154 154 153 153 153 153 153 153 153 153 153 154 153 153
154 154 154 152 152 152 152 152 152 153 153 153 153 152 153 153 152
152 152 152 151 151 152 152 152 151 152 151 151 151 151 151 151 151
151 151 150 150 149 150 150 150 150 150 150 149 149 150 149 152 168
176 186 190 192 196 194 186 197 182 196 163 156 148 149 149 148 147
148 148 148 148 147 147 147 147 147 147 147 147 148 147 148 148 147
148 146 146 146 146 146 146 146 146 146 146 146 146 146 146 146 146
146 146 146 146 146 146 146 146 145 145 145 145 145 145 145 145 145
145 145 145 145 145 145 145 145 145 145 145 145 145 145 145 145 145
145 145 145 145 145 145 145 145 145 145 145 145 145 145 145 145 145
145 145 145 145 145 145 145 145 145 145 145 145 145 145 145 145 145
145 145 145 146 146 146 146 146 146 146 146 146 146 146 146 146 146
146 146 146 146 146 146 146 146 147 147 147 147 147 147 147 147 147
147 147 147 147 147 148 148 148 148 148 148 148 148 148 149 149 149
149 149 149 149 148 149 149 149 150 149 149 149 150 150 149 149 150
151 151 150 150 150 150 150 150 150 150 150 151 151 151 151 151 151
152 153 153 153 153 153 153 153 153 154 154 154 154 154 155 155 155
155 155 155 155 155 155 156 156 156 156 156 156 156 156 157 157 157
157 157 157 158 158 158 158 158 158 159 159 159 159 159 160 159 160
160 159 160 160 160 161 161 161 161 161 161 161 161 161 161 162 162
162 162 162 163 164 163 164 164 164 165 164 164 165 165 166 165 165
165 166 166 166 166 166 166 166 166 167 167 167 167 168 168 168 169
169 169 169 169 170 170 170 170 171 172 171 172 172 173 173 173 173
173 173 173 173 174 173 174 173 174 174 174 175 175 175 175 176 176
176 176 176 177 177 177 177 177 177 178 178 178 178 179 178 178 179
179 180 179 180 180 180 180 181 159 160 159 159 159 159 159 158 158
158 158 158 158 158 158 158 158 158 157 157 157 157 157 157 157 157
157 157 158 157 157 156 156 156 156 156 156 156 156 156 156 156 155
155 155 155 155 156 155 155 155 154 154 154 154 154 154 154 154 155
154 154 154 154 153 153 153 153 153 153 153 154 154 154 154 154 154
153 152 152 153 153 152 153 153 153 152 152 152 151 152 152 152 152
152 152 152 151 152 151 150 151 150 151 151 151 150 151 150 151 151
150 151 156 166 172 192 198 202 198 194 205 213 216 225 223 210 182
151 148 150 148 148 148 148 148 148 148 149 148 148 148 149 148 148
148 148 148 148 148 148 149 148 148 147 147 147 147 147 147 147 147
147 147 147 147 147 147 147 147 147 147 147 146 147 147 147 147 147
147 147 147 147 146 146 146 146 146 146 146 146 146 146 146 146 146
146 146 146 146 146 146 146 146 146 146 146 146 146 146 146 146 146
146 146 146 146 146 146 146 146 146 146 146 146 146 146 146 146 146
146 147 147 147 147 147 147 147 147 147 147 147 147 147 147 147 147
147 147 147 147 147 147 147 147 147 147 148 148 148 148 148 148 148
148 148 148 148 148 148 148 149 149 149 149 149 149 149 149 149 149
150 149 150 149 149 150 150 150 150 150 150 150 150 150 151 150 150
151 151 151 150 150 151 151 152 151 151 151 151 151 151 151 152 152
153 153 153 153 153 154 154 154 154 154 154 154 154 155 155 155 155
156 156 156 156 156 156 156 156 156 156 157 157 157 157 157 157 157
158 158 158 158 158 158 159 159 159 159 158 160 160 160 160 160 161
160 161 160 160 162 161 161 161 161 161 162 162 162 162 162 162 162
162 162 163 163 163 163 164 165 165 165 165 166 165 166 166 167 166
166 166 166 166 166 166 167 167 167 167 167 168 168 168 168 168 169
169 169 169 170 170 171 171 171 171 171 171 172 172 173 173 173 173
174 174 174 174 174 174 174 174 175 175 175 175 176 175 175 176 176
176 176 177 178 177 177 177 178 178 178 178 178 178 179 179 179 179
180 180 181 180 180 180 181 181 181 181 182 182 160 160 160 160 160
160 160 159 159 159 159 159 159 159 159 159 159 159 159 158 158 158
158 158 158 158 158 158 157 157 157 157 157 157 157 157 157 157 157
157 156 156 156 156 156 156 156 156 156 156 156 156 155 155 155 155
155 155 155 155 154 154 154 154 154 154 154 154 154 154 154 154 153
153 153 153 153 153 154 153 154 154 153 152 152 153 152 152 153 153
153 151 151 151 151 152 152 152 152 152 151 152 152 152 152 152 152
151 151 150 152 151 166 168 194 196 184 204 213 209 217 222 223 227
228 227 226 226 210 201 180 155 155 150 150 150 149 150 149 149 149
149 149 149 149 149 150 150 149 149 149 148 148 148 148 148 148 148
148 148 148 148 148 148 148 148 148 148 148 148 148 148 147 147 147
147 147 147 147 147 147 147 147 147 147 147 147 147 147 147 147 147
147 147 147 147 147 147 147 147 147 147 147 147 147 147 147 147 147
147 147 147 147 147 147 147 147 147 147 147 147 147 147 147 147 147
147 147 147 147 147 147 147 147 147 147 147 147 148 148 148 148 148
148 148 148 148 148 148 148 148 148 148 148 148 148 148 148 149 149
149 149 149 149 149 149 149 149 149 149 149 149 150 150 150 150 150
150 150 150 150 150 151 151 150 151 151 150 150 151 151 151 151 152
152 151 151 152 152 152 152 151 152 152 151 152 152 153 152 152 153
152 153 153 154 154 153 154 154 154 155 155 155 155 155 155 156 156
156 156 156 156 156 156 156 156 157 157 157 157 157 157 157 158 158
158 158 158 158 158 159 159 159 159 159 160 160 160 160 160 161 160
161 161 160 162 161 162 161 161 162 162 162 162 162 162 162 162 162
162 163 163 163 164 164 164 165 165 165 166 165 166 165 166 167 166
166 166 166 167 167 167 167 167 167 167 167 167 168 168 168 169 169
169 169 169 170 170 170 170 171 171 171 171 172 173 173 173 173 174
173 174 174 174 174 174 174 175 175 175 175 175 176 175 176 176 177
177 176 177 177 177 178 178 178 178 178 178 179 179 178 179 179 179
180 180 180 180 180 180 181 181 181 181 182 182 182 182 182 182 161
162 161 161 161 161 161 161 161 161 160 160 160 160 160 160 160 160
160 160 160 160 159 159 159 159 159 159 159 159 159 159 158 158 158
158 158 158 158 158 158 158 157 157 157 157 157 157 157 157 157 157
157 156 156 156 156 156 156 156 156 156 155 155 155 155 155 155 155
155 154 154 154 154 154 154 154 155 154 154 153 153 153 153 154 153
153 153 153 153 153 153 152 152 152 152 152 152 152 152 152 152 152
152 151 151 151 151 151 151 163 172 186 191 196 204 208 210 210 209
211 210 210 210 216 218 222 224 218 214 210 195 163 154 155 152 150
150 150 150 150 150 150 150 150 150 150 150 150 150 149 149 150 149
149 149 149 149 149 149 149 149 149 149 149 149 149 149 149 149 149
149 149 149 149 149 149 149 149 149 149 149 149 149 148 148 148 148
148 148 148 148 148 148 148 148 148 148 148 148 148 148 148 148 148
148 148 148 148 148 148 148 148 148 148 148 148 148 148 148 148 148
148 148 148 148 149 149 149 149 149 149 149 149 149 149 149 149 149
149 149 149 149 149 149 149 149 149 149 149 149 149 149 150 150 149
149 150 150 150 150 150 150 150 150 150 150 150 150 150 151 151 151
151 151 151 151 151 151 151 152 152 152 152 152 152 152 151 152 152
152 152 151 153 152 152 153 153 153 152 153 152 153 153 153 154 153
154 154 154 154 153 155 154 155 155 155 155 155 156 156 156 156 156
156 157 157 157 157 157 157 157 157 157 157 158 158 158 158 158 158
158 159 159 159 159 159 159 160 160 160 160 160 160 161 160 160 161
161 161 162 162 162 162 162 162 162 163 162 162 162 163 163 163 163
163 163 164 164 164 165 165 165 166 166 166 165 166 166 167 166 167
167 168 168 167 168 167 167 167 168 168 168 168 168 169 169 169 169
169 170 170 170 170 171 171 171 171 172 172 172 172 173 174 174 174
174 174 174 174 174 175 175 175 175 175 175 176 176 176 176 176 177
176 177 177 177 177 178 178 178 177 179 179 179 180 180 180 180 180
180 181 180 181 180 181 181 181 181 182 182 182 182 183 183 183 183
183 183 183 162 162 162 162 162 162 162 162 161 161 161 161 161 161
161 161 161 161 161 160 160 160 160 160 160 160 160 160 160 160 160
160 160 159 159 159 159 159 159 159 158 158 158 158 158 158 158 158
158 158 158 157 157 157 157 157 157 157 157 157 156 156 156 156 156
156 156 156 156 156 155 155 155 155 155 155 155 154 154 154 154 154
154 154 154 154 154 154 153 153 153 153 153 153 153 153 153 153 153
153 153 152 152 152 152 152 152 153 156 158 158 159 163 171 179 178
191 194 198 197 196 196 196 197 204 207 205 209 213 216 219 193 177
169 166 151 151 150 151 152 152 152 152 151 150 150 151 151 150 150
150 150 150 150 150 150 150 150 150 150 150 150 150 150 150 150 150
150 150 150 150 150 150 150 150 150 150 150 149 149 149 149 149 149
149 149 149 149 149 149 149 149 149 149 149 149 149 149 149 149 149
149 149 149 149 149 149 149 149 149 149 149 149 149 149 149 149 149
149 149 149 149 149 149 149 149 149 149 149 149 149 149 149 149 149
150 149 150 150 150 150 150 150 150 150 150 150 150 150 150 150 150
150 150 151 151 150 151 151 151 151 151 151 151 151 151 151 151 151
151 151 151 152 152 152 152 152 152 152 152 152 152 152 153 153 153
153 152 153 153 153 153 152 153 154 154 154 153 154 153 154 153 154
154 153 155 155 155 155 155 155 155 156 156 156 156 156 156 156 157
157 157 157 157 157 157 157 157 158 158 158 158 158 158 158 159 159
159 159 159 159 160 160 160 160 160 160 160 161 161 161 161 161 161
162 163 162 162 162 161 162 163 162 162 163 163 163 163 163 163 163
163 163 164 164 165 164 165 164 165 166 166 166 166 167 167 167 167
168 168 168 168 167 168 168 167 169 168 168 168 168 169 169 169 169
169 170 170 170 170 171 171 171 171 172 172 172 173 173 174 174 174
174 174 174 174 175 175 174 175 175 175 176 176 176 176 176 177 176
176 177 177 177 177 177 178 178 178 178 179 179 180 179 180 180 180
181 180 180 180 180 182 181 181 181 182 182 183 182 183 183 183 183
183 183 183 184 184 184 184 163 164 163 163 163 163 163 163 163 163
163 162 162 162 162 162 162 162 162 162 162 162 161 161 161 161 161
161 161 161 161 161 160 160 160 160 160 160 160 160 160 160 160 159
159 159 159 159 159 159 159 159 159 159 158 158 158 158 158 158 158
158 157 157 157 157 157 157 157 157 156 156 156 156 156 156 156 156
156 155 155 155 155 155 155 155 155 155 155 155 154 154 154 154 154
154 154 154 154 154 154 153 153 153 153 153 153 153 153 153 153 154
170 179 186 186 183 193 195 194 193 189 184 178 185 192 191 194 195
200 203 204 206 202 186 182 166 160 157 171 171 166 157 152 152 152
151 151 151 151 151 151 151 151 151 152 151 151 151 151 151 151 151
151 151 151 151 151 151 151 151 151 151 151 151 151 151 151 151 151
151 151 151 151 151 151 151 151 150 150 151 150 150 150 150 150 150
150 150 150 150 150 150 150 150 150 150 150 150 150 150 150 150 150
150 150 150 150 150 150 150 150 150 151 151 151 151 151 151 151 151
151 151 151 151 151 151 151 151 151 151 151 151 151 151 151 151 151
151 151 151 151 151 152 152 152 152 152 152 152 152 152 152 152 152
152 152 152 153 153 153 153 153 153 153 153 153 153 153 153 154 154
154 154 153 153 154 154 154 153 154 154 154 155 154 155 154 154 155
155 155 155 156 156 156 156 156 156 156 156 157 157 157 157 157 157
157 158 158 158 158 158 158 158 158 158 159 159 159 159 159 159 160
160 160 160 160 160 160 160 161 161 161 161 161 162 162 162 162 162
162 162 162 163 163 163 162 163 163 163 163 163 163 163 164 165 164
164 164 164 164 164 166 166 166 166 166 167 167 167 167 167 168 167
168 167 168 168 168 168 169 169 168 169 170 170 170 169 169 170 170
170 170 170 171 171 171 171 172 172 172 172 172 174 174 174 174 175
175 175 175 175 175 175 175 176 176 176 176 176 177 177 177 177 178
177 177 177 177 178 178 178 179 179 179 179 179 179 180 181 180 181
180 180 181 182 182 181 181 182 183 182 182 183 183 183 183 183 183
184 184 184 184 184 184 184 185 185 185 187 164 165 165 165 164 164
164 165 164 164 165 164 164 163 163 163 163 163 163 163 163 163 162
162 162 162 162 162 162 162 162 162 161 161 162 161 161 161 162 162
161 160 160 160 160 160 160 160 160 160 160 160 160 159 159 159 159
159 159 159 158 158 158 158 158 158 158 158 158 157 157 157 157 157
157 157 157 156 156 156 156 156 156 156 156 156 156 156 156 156 155
155 155 155 155 155 155 154 154 154 154 154 154 154 154 154 154 156
159 160 160 166 188 202 202 202 209 210 206 199 198 191 194 189 178
181 186 186 191 193 197 197 193 186 196 198 186 170 166 170 167 156
153 153 153 152 153 153 152 152 152 152 152 152 152 152 152 152 152
152 152 152 152 152 152 152 152 152 152 152 152 152 152 152 152 152
152 152 152 152 152 151 152 151 151 151 151 151 151 151 151 151 151
151 151 151 151 151 151 151 151 151 151 151 151 151 151 151 151 151
151 151 151 151 151 151 151 151 151 151 151 151 151 151 151 152 152
152 152 152 152 152 152 152 152 152 152 152 152 152 152 152 152 152
152 152 152 152 152 152 152 152 152 152 153 153 153 153 153 153 153
153 153 153 153 153 153 153 153 153 154 154 154 154 154 154 154 154
154 154 154 155 155 155 154 155 155 155 155 154 155 155 154 156 155
155 156 156 156 156 156 157 157 157 157 157 157 157 157 157 157 158
158 158 158 158 158 158 158 159 159 159 159 159 159 159 160 160 160
160 160 160 160 161 161 161 161 161 161 161 162 161 162 162 162 162
162 163 163 163 163 163 163 164 163 163 163 163 163 163 164 164 164
164 164 164 165 166 166 166 166 167 167 166 167 167 167 168 168 168
168 169 169 169 169 169 169 169 168 170 170 170 169 170 171 171 171
170 170 171 171 171 171 171 172 172 172 173 172 173 174 174 174 175
174 175 175 175 175 175 175 176 176 176 176 177 177 177 177 178 178
178 177 176 178 178 178 178 179 179 179 179 180 180 181 180 181 181
180 180 181 181 182 182 182 183 183 182 183 183 183 184 184 184 184
184 184 184 184 184 184 184 184 185 185 185 185 186 186 186 167 166
166 166 166 166 166 166 165 165 166 166 166 166 165 165 164 165 164
164 164 164 164 164 164 163 164 164 163 163 163 163 163 163 162 162
162 162 162 162 162 162 162 161 161 161 161 161 161 161 161 161 161
160 160 160 160 160 160 160 160 160 159 160 159 159 159 159 159 159
158 158 158 158 158 158 158 158 158 158 157 157 157 157 157 157 157
157 157 157 156 156 156 156 156 156 156 156 155 155 155 155 155 155
155 154 155 155 162 170 189 198 210 213 212 207 203 200 198 195 196
192 191 186 184 189 194 198 189 184 184 189 174 170 172 172 174 191
200 202 209 212 207 189 178 199 168 156 154 154 153 154 154 153 153
153 153 153 153 153 153 153 153 153 153 153 153 153 153 153 153 153
153 153 153 153 153 153 153 153 153 153 153 153 153 153 153 153 153
153 153 153 153 153 153 153 152 153 153 153 153 153 153 152 153 152
153 153 153 153 153 153 153 153 153 153 153 153 153 153 153 153 153
153 153 153 153 153 153 153 153 153 153 153 153 153 153 153 153 153
153 153 153 153 153 153 153 154 154 154 154 154 154 154 154 154 154
154 154 154 154 154 154 154 155 155 155 155 155 155 155 155 155 155
155 155 155 156 156 156 156 156 156 156 156 156 156 156 157 157 157
157 157 157 157 157 157 157 158 158 158 158 158 158 158 158 158 158
159 159 159 159 159 159 159 159 160 160 160 160 160 160 160 161 161
161 161 161 161 161 161 162 162 162 162 162 162 163 163 163 163 163
163 163 163 164 164 164 164 163 164 164 164 164 164 164 164 165 166
165 166 165 166 166 166 167 167 167 167 167 168 168 168 168 168 169
169 169 169 169 169 170 170 170 170 169 170 170 170 170 171 170 171
171 171 171 172 172 172 172 172 173 173 173 173 174 174 174 174 175
175 175 175 175 176 176 176 176 176 177 177 177 177 177 178 178 178
178 178 178 179 178 179 179 179 179 179 180 180 180 181 181 181 181
181 181 182 182 181 183 182 183 182 183 183 184 184 184 184 184 184
184 184 184 185 185 185 185 185 185 185 186 186 186 186 187 187 187
187 187 168 167 168 167 166 167 166 167 166 166 167 167 166 165 166
166 165 166 165 166 165 165 166 166 165 164 165 165 163 165 164 165
164 164 164 163 163 163 163 163 162 162 162 162 162 162 162 162 162
162 162 161 161 161 161 161 161 161 161 161 160 160 160 160 160 160
160 160 160 159 159 159 159 159 159 159 159 159 159 158 158 158 158
158 158 158 158 158 157 157 157 157 157 157 157 157 156 156 156 156
156 156 156 163 172 172 180 178 179 196 197 206 207 206 205 205 204
196 190 191 201 179 170 201 211 195 188 190 186 173 170 174 174 159
165 176 189 194 194 193 195 194 190 188 185 180 171 170 170 156 155
155 154 154 154 154 154 154 154 154 154 154 154 154 154 154 154 154
154 154 154 154 154 154 154 154 154 154 154 154 154 154 154 154 154
154 154 154 154 154 154 154 153 154 154 154 154 154 153 153 154 154
153 154 154 153 154 153 153 153 153 153 153 153 153 153 154 154 154
154 154 154 154 154 154 154 153 154 154 153 154 154 154 154 154 154
154 154 154 154 154 154 154 154 154 154 154 155 155 155 155 155 155
155 155 155 155 155 155 155 155 155 155 155 156 156 156 156 156 156
156 156 156 156 156 156 156 156 157 157 157 157 157 157 157 157 157
157 157 157 158 158 159 158 158 158 158 158 158 159 159 159 159 159
159 159 159 159 160 160 160 160 160 160 161 161 161 161 161 161 161
161 161 162 162 162 162 162 162 162 162 163 163 163 163 163 163 163
163 164 164 164 164 164 164 164 164 164 164 164 164 165 165 165 165
166 166 166 167 167 167 167 167 168 169 168 168 168 168 169 169 169
169 169 169 170 170 170 169 170 171 171 171 171 171 170 171 172 171
171 171 171 172 172 172 172 172 172 174 174 173 175 175 175 175 175
175 176 176 176 176 176 176 177 177 177 177 177 177 178 178 178 178
178 179 179 178 178 179 179 179 180 180 180 180 181 181 181 182 182
182 182 182 182 183 182 183 183 182 183 183 184 184 184 184 184 184
184 184 184 184 185 185 186 186 185 185 186 186 186 186 187 187 187
187 188 189 189 189 189 169 169 169 169 169 168 168 168 167 167 168
167 168 167 167 168 168 167 166 167 166 166 166 166 167 166 166 166
165 166 166 165 165 165 164 164 165 164 164 164 164 165 164 164 164
163 163 163 163 163 163 163 163 162 162 162 162 162 162 162 162 161
161 160 161 161 161 161 161 161 161 161 160 161 160 160 160 160 160
160 159 159 158 159 159 159 159 159 158 158 158 158 158 158 158 158
158 157 158 157 164 172 181 195 197 183 176 186 194 206 207 207 207
204 204 206 205 203 202 200 202 198 199 209 214 201 196 192 182 181
168 173 172 178 174 172 168 171 169 169 168 164 160 160 161 158 157
156 156 156 156 156 156 156 156 156 156 156 156 156 156 156 156 155
155 155 155 155 155 155 155 155 155 155 155 155 155 155 155 155 155
155 155 155 155 155 155 155 155 155 155 155 155 155 155 155 155 155
155 155 155 155 155 155 155 155 155 155 155 155 155 155 155 155 155
155 155 155 155 155 155 155 155 155 155 155 155 155 155 155 155 155
155 155 155 155 155 155 156 156 156 156 156 156 156 156 156 156 156
156 156 156 156 156 156 156 156 156 156 157 157 157 157 157 157 157
157 157 157 157 157 157 157 157 158 158 158 158 158 158 157 158 158
158 158 158 159 159 159 159 159 159 159 159 159 160 160 160 160 160
160 160 160 160 161 161 161 161 161 160 161 161 162 162 162 162 162
162 162 162 163 163 163 163 163 163 163 163 164 164 164 164 165 164
164 165 165 164 164 164 164 165 165 165 165 165 165 165 165 166 166
166 166 167 167 167 168 167 168 168 168 169 169 169 169 169 169 170
170 170 169 170 171 171 171 171 171 172 172 172 171 171 172 172 172
172 172 172 172 174 173 173 173 173 173 173 175 174 174 175 176 176
176 176 176 176 177 177 177 177 177 177 178 178 178 178 178 179 179
179 178 178 179 179 179 180 180 181 180 180 180 181 181 181 182 182
182 182 182 183 183 183 183 183 183 183 184 184 184 185 184 184 185
185 186 186 185 185 185 185 186 186 186 186 186 187 189 187 187 187
188 188 188 189 189 190 190 190 191 190 169 168 169 169 168 168 168
169 168 168 168 168 168 169 169 168 167 168 167 168 168 168 167 167
166 167 167 167 166 167 166 167 166 166 165 165 166 165 166 166 166
165 165 165 164 164 164 164 165 164 164 164 164 164 164 164 163 163
163 164 162 164 163 162 162 162 162 162 162 162 162 161 161 161 161
161 161 161 161 160 160 160 160 160 160 160 159 159 159 159 159 159
159 159 159 159 159 160 163 164 168 166 172 179 168 176 179 182 186
192 193 194 194 191 193 192 190 189 192 192 191 182 183 188 190 186
180 174 171 171 164 164 165 165 161 159 163 166 158 158 157 157 157
158 157 157 157 157 157 157 157 157 157 157 157 157 157 157 156 157
157 156 156 156 156 156 156 156 156 156 156 156 156 156 156 156 156
156 156 156 156 156 156 156 156 156 156 156 156 156 156 156 156 156
156 156 156 156 156 156 156 156 156 156 156 156 156 156 156 156 156
156 156 156 156 156 156 156 156 156 156 156 156 156 156 156 156 156
156 156 156 156 156 156 156 156 156 156 156 157 156 157 158 157 157
157 157 157 157 157 157 157 157 157 157 157 157 158 158 158 158 158
158 158 158 158 158 158 158 158 158 158 158 159 159 159 159 159 159
159 160 160 159 159 160 160 160 160 160 160 160 160 160 160 160 161
161 161 161 161 161 161 161 161 162 162 162 162 162 162 162 162 162
164 163 163 163 163 163 163 164 164 164 164 164 164 164 165 165 165
165 165 165 165 165 166 166 166 166 166 165 166 166 166 166 166 166
166 168 167 168 168 168 168 168 168 169 169 169 169 169 170 170 170
170 170 171 171 171 171 171 171 172 172 172 172 171 172 173 174 172
173 173 172 174 173 173 173 175 175 174 174 174 175 175 175 176 176
176 176 176 177 177 177 177 177 177 178 178 179 178 178 179 179 179
179 179 180 179 179 179 179 180 180 180 181 181 182 181 182 182 182
183 182 183 183 182 183 184 184 183 184 184 184 185 185 184 185 185
186 186 185 185 185 186 186 186 186 186 186 186 187 187 187 188 188
189 188 189 189 190 190 190 190 190 191 191 191 191 191 170 170 170
170 169 170 169 170 169 169 169 169 169 169 169 169 168 169 168 169
168 168 169 168 168 168 168 168 167 167 167 167 167 167 167 167 167
166 166 166 166 166 166 166 166 165 165 165 165 165 165 165 165 166
165 164 164 164 165 165 169 168 164 164 164 163 162 163 163 163 163
164 162 162 162 162 162 162 161 161 161 161 161 161 161 160 160 160
160 160 160 160 160 160 160 160 160 161 161 166 172 171 169 177 175
164 168 166 168 166 166 168 174 183 179 177 175 166 166 165 165 162
162 161 161 160 161 159 159 159 159 159 159 159 159 159 159 159 159
159 159 159 159 158 158 158 158 158 158 158 158 158 158 158 158 158
158 158 158 157 158 158 158 158 158 158 158 158 158 158 158 158 158
158 158 158 158 158 158 158 158 158 157 157 157 157 157 157 157 157
157 157 157 157 157 157 157 157 157 157 157 157 157 157 157 157 157
157 157 157 157 157 157 157 157 157 157 157 157 157 157 157 157 157
157 157 157 158 157 158 158 158 158 158 158 158 158 158 158 158 158
158 158 158 158 158 158 158 158 158 159 159 159 159 159 159 159 159
159 159 159 159 159 159 159 159 160 160 160 160 160 160 160 160 160
160 160 160 160 160 161 161 161 161 161 161 161 161 161 161 162 162
162 162 162 162 162 162 163 162 163 163 163 163 163 163 163 163 163
164 164 164 164 164 164 164 165 165 165 165 165 165 166 166 165 166
166 166 166 166 166 165 166 166 166 166 167 166 167 168 168 167 168
168 168 168 169 169 169 169 169 169 170 170 170 170 171 170 171 171
171 171 171 172 172 172 172 172 172 172 173 173 173 173 173 173 174
174 174 174 174 174 175 174 174 174 174 175 176 176 176 176 177 177
177 177 177 177 178 178 178 178 178 178 179 179 179 179 179 179 180
180 181 178 180 180 180 180 180 180 182 182 182 182 182 183 183 182
183 183 183 184 184 184 184 184 184 185 185 185 185 185 185 185 185
185 185 185 186 186 186 186 186 186 187 187 187 187 187 187 188 188
189 189 190 190 190 190 190 190 190 191 191 191 190 191 190 191 192
191 171 171 171 171 171 170 170 170 170 170 170 170 170 170 170 170
169 170 169 170 169 169 169 168 170 168 168 168 168 168 168 168 168
168 168 168 167 167 168 168 167 168 167 167 166 166 166 166 166 166
166 166 166 166 166 166 165 165 165 165 166 165 165 165 164 164 164
164 164 164 164 163 163 163 163 163 162 162 162 162 162 162 161 161
161 161 161 161 161 161 161 161 161 161 161 161 161 161 161 161 161
161 161 161 165 167 174 175 174 172 173 172 169 172 171 161 161 161
161 161 161 161 160 160 160 160 160 160 160 160 160 160 160 160 160
160 160 160 160 160 160 160 160 159 160 160 160 159 159 159 159 159
159 159 159 159 159 159 159 159 159 159 159 159 159 159 159 159 159
159 159 159 159 159 159 159 159 159 159 158 158 158 158 158 158 158
158 158 158 158 158 158 158 158 158 158 158 158 158 158 158 158 158
158 158 158 158 158 158 158 158 158 158 158 158 158 158 158 158 158
158 158 158 158 158 158 158 158 159 159 159 159 159 159 159 159 159
159 159 159 159 159 159 159 159 159 159 159 160 160 160 160 160 160
160 160 160 160 160 160 160 160 160 160 160 160 161 161 161 161 161
161 162 161 161 161 161 161 161 162 162 162 162 162 162 162 162 162
163 162 163 162 163 163 163 163 163 163 163 164 164 164 164 164 164
164 164 164 165 165 165 165 165 165 165 165 164 166 166 166 166 166
166 167 167 167 166 166 167 167 166 168 167 167 168 167 168 167 169
169 168 169 169 169 169 170 170 170 170 170 170 171 171 171 171 171
171 171 172 172 172 172 172 172 172 173 173 173 173 174 174 174 174
174 174 175 175 175 174 175 175 175 176 175 176 175 176 177 177 177
177 177 177 177 178 178 178 178 178 178 178 178 179 179 179 179 179
180 179 180 179 180 180 181 180 182 182 182 181 183 183 183 183 183
183 183 183 184 183 184 184 184 185 185 185 185 185 186 185 185 185
185 185 185 186 186 186 186 187 186 187 187 187 187 188 188 189 189
189 189 189 190 190 190 190 191 191 190 191 190 191 191 191 191 191
191 191 191 191 192 172 172 172 172 172 172 172 172 172 171 172 171
171 171 171 171 171 171 170 171 170 170 170 170 170 170 170 170 170
170 169 169 169 169 170 169 169 168 168 168 168 168 168 168 168 168
168 168 167 167 167 167 167 167 167 167 167 166 166 166 166 166 166
166 165 165 165 165 165 165 165 164 164 164 164 164 164 164 163 163
163 163 163 163 163 163 162 162 162 162 162 162 162 162 162 162 162
162 162 162 162 162 162 162 162 162 162 163 167 177 166 163 163 162
162 162 163 162 162 162 162 162 162 162 162 162 162 162 162 161 161
161 161 161 161 161 161 161 161 161 161 161 161 161 161 161 161 161
161 160 160 160 160 160 160 160 160 160 160 160 160 160 160 160 160
160 160 160 160 160 160 160 160 160 160 160 160 160 160 160 159 159
159 159 159 159 159 159 159 159 159 159 159 159 159 159 159 159 159
159 159 159 159 159 159 159 159 159 159 159 159 159 160 159 160 160
160 160 160 160 160 160 160 160 160 160 160 160 160 160 160 160 160
160 160 159 160 160 161 160 161 161 161 161 161 161 161 161 161 161
161 161 161 161 161 161 161 161 161 162 161 161 162 162 162 162 162
162 162 162 162 162 162 162 163 163 163 163 163 163 163 163 163 163
164 164 164 164 164 164 164 164 164 164 165 165 165 165 165 165 165
165 165 165 164 166 166 166 166 166 166 166 167 167 167 167 167 167
167 168 168 168 168 167 168 167 168 168 169 169 168 169 169 169 170
170 170 170 170 170 170 171 171 171 171 171 170 172 172 172 172 172
172 173 173 173 173 173 173 173 174 174 174 174 174 174 174 175 174
174 175 175 176 176 176 176 176 177 177 177 176 177 177 177 177 176
178 178 178 178 178 178 179 178 179 179 179 179 179 179 178 179 180
181 180 180 182 180 182 181 182 182 182 182 182 183 183 183 183 184
184 184 184 185 185 185 185 185 185 185 186 185 185 185 185 185 185
186 186 186 186 186 186 186 187 187 187 187 188 188 188 189 188 189
190 190 190 189 190 191 191 191 191 192 190 191 192 191 192 191 191
191 192 192 193 192 192 192 192 193 174 174 173 173 173 173 173 173
173 172 173 172 172 172 172 172 172 172 171 171 171 171 171 171 172
171 171 171 170 170 170 170 170 170 170 170 170 169 169 169 169 169
169 170 169 169 169 168 168 168 168 168 168 168 168 168 167 167 167
167 167 167 166 166 166 166 166 166 166 165 165 165 165 165 164 164
164 164 164 164 164 164 164 164 164 164 164 164 164 164 164 163 163
163 163 163 164 164 164 163 163 163 164 163 163 166 167 165 168 174
172 170 171 176 199 194 187 188 184 179 165 163 163 163 163 163 163
163 163 163 162 162 162 162 162 162 162 162 162 162 162 162 162 162
162 161 161 161 161 161 161 161 161 161 161 161 161 161 161 161 161
161 161 161 161 161 161 161 161 160 160 160 160 160 160 160 160 160
160 160 160 160 160 160 160 160 160 160 160 160 160 160 160 160 160
160 160 160 160 160 160 160 160 160 160 160 160 160 160 160 160 160
160 160 160 160 160 160 160 161 161 161 161 161 161 161 161 161 161
161 161 161 161 161 161 161 162 161 162 162 162 162 162 162 162 162
162 162 162 162 162 162 162 162 162 162 162 162 162 162 162 162 162
164 163 163 163 163 163 163 163 163 164 164 164 164 164 164 164 164
164 164 164 165 165 165 165 165 165 165 165 165 165 165 166 166 166
166 166 166 166 166 166 167 167 167 167 167 167 167 167 168 168 168
168 168 168 168 168 169 169 169 169 169 169 168 170 170 170 170 170
170 170 171 171 171 171 171 171 171 171 172 172 172 172 172 173 173
173 173 173 173 174 173 174 174 174 174 174 175 175 175 175 175 175
176 176 176 176 176 176 177 177 176 176 177 177 177 178 177 178 178
178 178 177 178 178 179 179 179 179 179 179 179 180 180 180 179 180
180 180 180 181 181 181 181 182 182 183 183 183 183 183 182 184 184
184 184 184 185 185 185 185 185 186 185 186 186 186 186 185 186 186
186 186 186 187 186 187 187 187 187 187 188 188 188 188 188 188 189
189 190 189 190 190 190 191 190 191 191 192 192 191 191 191 191 191
193 192 193 193 195 201 208 205 218 226 224 230 228 176 176 175 174
174 175 175 175 174 174 174 174 174 174 174 174 173 174 173 173 173
173 174 173 173 172 172 172 172 172 172 172 171 171 171 171 171 171
171 171 170 170 170 170 170 170 170 170 170 170 170 169 169 169 169
169 169 168 168 168 168 168 168 167 167 167 167 167 167 166 166 166
166 166 166 166 166 166 166 166 166 166 166 165 166 165 166 165 165
165 165 165 165 165 165 165 166 165 165 165 166 167 167 174 185 187
174 171 175 184 180 179 185 185 182 187 188 187 185 187 179 172 164
164 164 164 164 164 164 164 164 164 164 164 164 164 164 164 164 163
163 163 163 163 163 164 163 163 162 163 163 163 163 163 163 163 163
163 162 162 162 162 162 162 162 162 162 162 162 162 162 162 162 162
162 162 162 162 162 161 162 161 162 162 162 162 162 162 162 162 162
162 162 162 162 162 162 162 162 162 162 162 162 162 162 162 162 162
162 162 162 162 162 162 162 162 162 162 162 162 162 162 162 162 162
162 163 163 163 163 163 163 163 163 163 162 163 163 163 163 163 163
163 163 163 163 163 163 163 163 163 163 163 163 163 163 164 163 163
164 164 164 164 164 164 163 164 164 164 165 165 165 165 165 165 165
165 166 166 166 166 166 166 166 166 166 166 166 166 166 167 167 167
167 167 167 167 167 168 168 168 168 168 168 168 168 169 168 169 169
169 170 169 169 170 169 170 170 170 170 170 170 171 171 171 171 171
171 170 171 172 172 172 172 172 172 172 173 173 173 173 173 173 173
174 174 174 174 174 174 175 175 175 175 175 175 176 176 176 176 176
176 177 177 177 177 177 177 177 177 178 178 178 178 178 178 178 178
178 178 179 179 179 179 179 180 179 179 179 179 180 179 180 180 180
180 180 181 182 184 210 214 217 183 182 183 182 184 184 184 184 184
185 185 185 185 185 185 185 186 185 185 185 186 186 186 186 186 186
186 187 187 187 187 187 187 188 188 188 188 188 189 190 190 190 190
190 190 191 190 190 196 218 228 216 200 191 191 192 192 196 192 192
192 193 193 193 194 196 194 212 235 242 242 242 237 235 234 237 237
176 176 176 176 176 176 175 176 176 176 175 175 175 174 175 175 175
175 174 175 175 175 174 173 174 173 174 174 174 174 173 174 174 173
173 172 172 172 172 172 172 171 172 171 171 171 171 172 171 170 170
170 170 170 170 169 169 170 169 169 169 169 169 168 168 168 168 168
168 167 167 167 168 167 167 167 167 167 167 167 167 167 167 167 167
167 167 167 167 167 167 167 166 166 167 166 167 167 168 178 175 177
172 167 169 168 170 172 169 167 170 168 167 166 166 166 166 166 167
167 167 168 168 170 165 165 165 165 165 165 165 165 165 165 165 165
164 165 165 164 165 164 165 164 164 164 164 164 164 164 164 164 164
164 164 164 164 164 164 164 164 164 163 163 163 163 163 163 163 163
163 163 163 163 163 163 163 163 163 163 163 163 163 163 163 163 163
163 163 163 163 163 163 163 163 163 163 163 163 163 163 163 163 163
163 163 163 163 163 163 163 163 163 163 163 163 163 163 163 163 163
163 163 163 163 163 163 163 163 163 163 163 163 163 163 164 164 164
162 164 164 164 164 164 164 164 164 164 164 164 164 164 164 165 164
165 165 165 165 166 165 165 165 166 166 166 166 166 166 166 166 166
166 167 166 167 167 167 167 167 167 167 167 167 167 168 167 168 168
168 168 168 168 168 168 168 168 168 168 169 169 169 169 169 170 170
170 170 170 170 170 170 171 170 171 171 171 171 171 171 171 172 172
172 172 172 172 172 172 172 173 172 172 173 173 173 174 174 174 174
174 174 174 175 175 175 175 176 175 176 176 176 176 176 176 176 177
177 177 177 177 177 177 178 178 178 178 178 178 179 179 179 178 179
179 179 179 179 179 179 179 179 180 179 180 180 179 226 223 237 216
222 223 219 231 200 182 183 183 190 193 201 209 201 202 186 183 185
185 185 184 184 184 184 186 185 185 186 186 186 186 186 186 186 186
186 187 187 187 187 188 188 188 189 189 189 196 192 194 189 193 204
199 205 204 198 207 219 227 229 233 234 240 237 238 238 204 202 201
209 201 198 200 203 218 237 220 222 237 238 236 238 240 239 238 239
237 233 234 238 176 176 176 176 176 177 176 176 176 176 177 176 176
176 176 176 176 176 175 176 176 175 175 175 175 175 175 175 174 175
175 175 174 175 175 174 174 173 173 173 173 173 173 173 172 172 172
172 172 172 171 171 171 171 171 171 170 170 170 170 170 170 170 170
169 169 169 169 169 169 169 169 169 169 169 169 169 169 169 169 168
169 170 169 169 168 169 168 168 168 168 168 169 168 168 168 170 183
184 182 178 174 170 168 168 168 168 168 168 168 168 168 168 168 168
170 170 171 171 172 170 170 170 170 169 167 167 167 167 167 167 166
166 166 166 167 166 166 166 166 166 166 166 166 166 166 166 166 166
166 166 165 165 165 165 165 165 165 165 165 165 165 165 165 165 165
165 165 165 165 165 165 165 164 165 165 164 165 165 165 164 165 164
165 165 164 164 165 165 165 165 165 165 165 165 165 165 165 165 165
165 165 164 164 165 164 164 165 164 164 164 164 164 164 164 164 164
164 164 164 164 164 164 164 164 164 165 165 165 165 165 165 165 165
165 165 165 165 165 165 165 165 165 165 166 165 166 166 166 166 166
166 166 166 166 166 166 167 166 167 167 167 166 167 167 167 168 167
168 168 168 168 168 168 168 168 168 168 168 169 169 169 169 169 169
169 169 169 169 168 168 169 169 169 170 170 170 170 170 170 170 171
171 171 171 171 171 170 172 172 172 172 172 172 173 172 174 173 173
173 172 173 173 173 173 173 173 174 174 174 174 175 175 175 175 175
175 175 176 176 176 176 176 176 177 177 177 177 177 177 177 177 178
178 178 178 178 178 178 178 178 179 179 179 179 180 180 180 180 180
180 180 180 180 180 180 180 180 180 181 180 196 216 214 212 226 221
227 226 237 238 236 238 240 234 232 232 220 216 223 224 224 225 222
218 208 214 212 197 186 185 186 186 187 187 188 187 187 188 187 188
187 188 188 188 188 188 188 188 189 190 189 223 213 197 194 200 198
201 224 228 231 236 234 235 236 238 241 241 242 241 241 240 240 240
240 235 234 234 237 236 236 237 236 236 230 231 230 230 228 228 230
231 231 231 230 230 230 229 227 177 177 177 177 177 177 177 177 177
177 176 177 176 176 176 176 177 177 176 176 176 176 176 175 176 175
176 176 175 175 175 174 175 174 175 174 175 174 174 174 174 173 173
174 174 173 174 173 173 172 173 173 172 172 172 171 171 171 171 171
171 171 171 171 170 170 170 170 171 170 170 170 170 170 170 170 170
170 170 170 170 170 170 170 170 170 170 170 170 170 170 170 170 170
170 170 170 170 171 170 170 172 171 170 170 169 169 169 169 170 169
169 169 169 169 169 169 169 169 168 168 169 168 168 168 168 168 168
168 168 168 168 168 168 167 168 166 167 167 167 167 167 167 167 167
167 167 167 167 167 167 167 166 166 166 166 166 166 166 166 166 166
166 166 166 166 166 166 166 166 166 166 166 166 166 166 166 166 166
166 166 165 166 166 165 166 165 165 165 165 165 165 165 165 165 165
165 165 165 165 165 165 165 165 166 165 166 165 165 165 165 165 165
165 165 165 165 165 165 165 165 166 165 165 166 166 166 166 166 166
166 166 166 166 166 166 167 166 166 166 166 167 167 167 167 167 167
167 167 167 167 167 167 167 168 168 167 168 168 168 168 168 168 168
168 169 168 169 169 169 169 169 169 169 169 169 169 169 169 169 169
169 169 169 170 170 170 170 170 170 171 171 171 171 171 171 171 171
171 172 172 172 172 172 172 172 172 173 173 173 173 173 173 173 173
173 173 173 174 174 174 174 174 175 175 175 175 175 175 175 175 176
176 176 176 176 176 177 177 177 177 177 177 177 178 178 178 178 178
178 178 179 179 179 179 179 179 179 179 179 179 180 180 180 181 181
180 180 181 180 181 181 181 182 181 180 180 181 180 180 217 210 212
236 232 232 227 225 240 237 235 235 236 235 234 233 230 225 222 221
220 214 209 202 205 207 208 195 191 188 197 198 200 197 217 226 234
232 220 214 216 188 189 189 189 190 190 190 189 195 198 216 229 236
241 242 241 238 238 237 241 238 240 241 241 241 240 239 238 238 239
237 237 238 240 240 240 239 240 238 233 234 233 230 227 223 218 219
221 221 221 221 222 223 225 224 224 218 214 210 178 178 178 178 178
178 178 178 178 178 178 178 178 178 178 178 177 177 177 177 177 177
177 177 176 176 177 176 176 176 176 176 176 176 176 175 175 175 175
175 175 175 174 174 174 174 174 174 174 174 173 174 173 173 173 173
173 173 173 173 172 172 172 172 172 172 172 172 172 171 172 172 172
172 172 172 172 172 172 172 172 172 172 172 173 172 172 172 172 172
172 172 172 172 172 172 172 172 172 172 172 171 171 171 171 171 171
171 171 171 171 170 170 170 172 170 170 170 170 170 170 170 170 170
170 170 170 169 170 169 169 169 169 169 169 169 169 169 169 169 169
169 169 169 169 168 169 168 168 168 168 168 168 168 168 168 168 168
168 168 168 168 168 168 168 168 168 167 168 167 167 167 167 167 167
168 167 167 167 167 167 167 167 167 167 167 167 167 167 167 167 167
167 167 167 167 167 167 167 167 167 167 167 167 167 167 167 167 167
167 167 167 167 167 167 167 167 167 167 167 167 167 167 167 167 167
167 167 167 168 168 168 168 168 168 168 168 168 168 168 168 168 168
168 168 168 169 169 169 169 169 169 169 169 169 169 169 169 169 170
170 170 170 170 170 170 170 170 169 170 170 170 170 170 170 170 170
171 171 171 171 171 171 171 172 172 172 172 172 172 172 172 172 173
173 173 173 173 173 173 173 173 173 173 174 174 174 174 174 174 174
174 174 175 175 175 175 175 175 176 175 175 176 176 177 177 177 177
177 177 177 177 178 178 178 178 178 178 179 179 179 179 179 179 179
179 180 180 180 180 180 179 180 180 180 180 181 181 180 181 182 182
182 182 182 182 182 182 182 182 181 181 181 181 181 182 182 188 184
199 223 228 222 230 226 232 228 219 218 215 219 218 223 224 223 226
226 226 224 223 223 221 222 226 228 225 195 198 204 214 220 234 238
235 233 235 236 237 238 227 232 227 195 214 206 204 205 196 196 213
238 238 240 239 239 241 235 230 226 230 228 228 226 228 218 218 221
224 221 229 231 232 228 231 230 231 230 229 227 227 226 225 225 224
224 224 224 225 226 226 224 215 200 201 199 201 199 194 196 196 181
179 179 180 179 179 179 179 178 178 178 178 178 178 178 178 178 178
178 178 178 178 178 178 178 178 177 177 177 177 177 178 177 178 176
176 176 176 176 176 176 176 175 175 175 175 175 175 175 174 175 174
174 174 174 174 174 174 174 174 174 174 174 173 173 174 173 174 173
174 173 174 173 173 173 173 173 173 173 175 174 173 173 173 174 173
173 173 173 174 174 174 174 174 174 173 173 173 174 174 173 173 173
172 172 172 172 172 172 172 172 172 172 172 172 172 171 171 171 171
171 171 171 171 171 171 171 171 171 171 171 170 171 170 170 170 170
170 170 170 170 170 170 170 170 169 170 170 170 170 170 169 170 169
169 169 169 169 169 169 169 169 169 169 169 169 169 169 169 169 169
169 169 169 169 169 168 169 169 168 168 168 168 168 168 168 168 168
168 168 168 168 168 168 168 168 168 168 168 168 168 168 168 168 168
168 168 168 168 168 168 168 168 168 168 168 168 168 168 168 168 168
168 168 168 169 169 169 169 169 169 169 169 169 169 169 169 169 169
169 170 169 170 170 170 170 170 170 170 171 170 170 170 170 170 170
170 170 170 170 170 171 171 171 171 171 171 171 171 171 171 171 171
171 172 172 172 172 172 172 172 172 172 173 172 173 173 173 173 173
174 174 174 174 174 174 174 174 174 174 174 174 174 175 175 175 175
175 175 175 175 176 177 176 176 176 177 177 177 177 177 177 177 178
178 178 178 178 178 178 178 179 180 179 179 179 179 179 179 180 180
180 180 180 180 181 181 181 181 181 181 180 181 181 182 182 182 182
182 182 182 182 182 182 184 189 195 195 201 204 206 199 209 203 185
185 188 185 198 224 221 216 216 214 212 216 214 212 211 216 217 216
215 215 218 220 222 226 226 228 229 231 234 235 235 236 236 234 232
234 231 232 234 232 234 236 236 237 238 238 236 235 239 240 240 239
237 234 234 226 227 231 231 223 226 221 222 222 220 217 217 216 216
219 219 220 221 221 224 223 225 224 226 226 226 225 225 223 214 217
220 216 215 214 215 214 218 214 215 219 218 204 195 196 196 196 196
196 196 195 183 181 181 182 181 181 181 181 180 180 181 180 179 179
179 179 179 179 179 179 179 179 178 178 178 178 178 178 178 178 178
178 178 178 178 177 177 177 177 177 178 177 177 177 177 177 177 176
176 178 176 176 176 176 176 176 176 176 176 176 176 175 176 176 175
176 176 176 175 175 175 175 175 175 175 175 175 176 175 176 175 175
176 175 176 175 175 175 175 175 175 175 175 174 175 174 175 174 174
174 175 175 174 174 174 174 174 174 175 174 174 175 174 174 173 173
173 173 173 173 173 173 173 173 173 173 172 174 172 172 172 172 172
172 172 172 172 172 172 172 172 172 172 172 172 172 171 171 171 171
171 171 171 171 172 171 171 171 171 171 171 171 171 171 171 171 171
171 171 171 170 170 170 170 170 170 170 170 170 170 170 170 170 170
170 170 170 170 170 170 170 170 170 170 170 170 170 170 170 170 170
170 170 170 170 170 170 170 170 170 170 170 170 170 170 170 170 170
170 170 170 170 170 170 170 170 171 171 171 171 171 171 171 171 171
171 171 171 171 171 171 171 171 171 171 171 171 171 171 171 171 171
171 172 172 172 172 172 172 172 172 172 172 172 172 172 173 173 173
173 173 173 173 173 173 174 174 174 174 174 174 174 174 174 174 174
175 174 175 175 175 175 175 175 175 175 175 175 176 176 176 176 176
176 177 177 177 177 177 177 177 178 178 178 178 178 178 179 179 179
179 178 179 179 179 179 180 180 180 180 180 180 180 180 180 181 181
181 181 181 182 182 182 182 182 182 182 182 182 182 182 183 182 183
184 184 183 183 184 185 186 183 185 201 202 205 210 212 208 214 214
212 211 199 202 213 215 215 214 212 214 215 216 216 215 214 214 213
214 215 215 217 218 218 218 220 220 221 224 225 226 227 227 233 231
231 227 226 225 220 219 226 225 224 224 225 228 227 230 232 231 233
232 232 232 232 227 224 223 220 222 221 222 223 221 220 220 220 219
218 217 217 214 215 217 218 218 219 220 222 224 224 225 225 225 215
209 206 199 198 196 196 197 196 196 196 196 196 196 196 196 196 197
196 196 197 196 196 196 197 216 199 201 190 190 183 182 182 182 182
182 182 182 182 181 182 181 180 181 181 180 180 181 181 181 179 180
180 179 180 179 178 178 178 178 178 178 179 178 178 177 178 178 176
177 183 185 180 178 179 178 177 177 177 177 177 177 177 177 177 177
177 177 177 178 177 177 177 177 177 177 177 177 177 177 177 177 177
177 177 177 177 177 176 176 176 177 177 176 176 176 176 176 176 176
176 176 175 176 176 175 176 175 176 176 175 175 175 175 175 175 175
174 175 174 175 174 174 174 175 174 174 175 175 174 174 174 174 174
173 173 173 173 173 173 173 173 173 173 173 173 173 173 173 173 173
173 173 172 172 172 172 172 172 172 172 172 172 172 172 172 172 172
172 172 172 172 172 172 172 172 172 172 172 172 172 171 171 171 171
171 171 171 171 171 171 171 171 171 171 171 171 171 171 171 171 171
171 171 171 171 171 171 171 171 171 171 171 171 171 171 171 171 171
171 171 172 172 172 172 172 172 172 172 172 172 172 172 172 172 172
172 172 172 172 172 172 172 172 172 172 172 172 172 172 172 172 172
172 173 173 173 173 173 173 173 173 173 173 173 173 173 174 174 174
174 175 174 174 174 174 174 175 175 175 175 175 175 175 175 175 175
175 175 175 175 175 175 176 176 176 176 176 176 176 176 177 177 177
177 177 177 178 178 178 178 178 178 178 179 179 179 179 179 180 180
180 180 180 180 180 180 180 180 180 180 180 181 181 181 181 181 182
182 182 182 182 182 182 183 183 182 183 183 182 183 183 183 184 184
185 187 194 202 216 226 205 203 213 226 215 206 215 216 216 211 195
205 186 188 188 195 204 204 207 208 209 211 207 205 209 210 216 213
216 209 214 218 220 221 221 220 214 217 214 217 216 212 212 215 218
217 220 218 221 224 224 222 222 224 219 220 219 220 220 219 220 220
217 219 225 222 223 222 220 222 223 222 222 221 224 220 220 216 217
217 207 201 213 199 205 202 202 205 205 202 200 200 204 222 220 220
216 199 198 199 198 197 198 197 197 197 197 197 197 197 196 196 197
197 197 197 197 197 197 197 197 199 202 211 232 234 233 209 210 207
203 202 186 183 182 186 183 183 182 182 183 182 182 183 183 182 182
182 181 182 182 182 182 181 181 181 181 181 180 181 181 182 182 181
180 180 180 180 182 181 181 182 187 190 179 178 180 180 180 179 178
178 178 178 178 178 178 178 178 178 178 178 178 178 178 178 178 178
178 178 178 178 178 178 178 178 178 178 178 178 178 178 178 178 178
178 178 178 178 178 178 177 177 177 177 177 177 177 177 177 177 177
177 177 176 176 176 176 176 176 176 176 176 176 176 176 176 176 176
176 176 176 175 175 175 175 175 175 175 175 175 175 175 175 175 175
175 175 174 174 174 174 174 174 174 174 174 174 174 174 174 174 174
174 174 174 174 174 174 174 174 174 174 174 174 173 173 174 173 173
172 173 173 173 173 173 173 173 173 173 173 173 173 173 173 173 173
173 173 173 173 173 173 173 173 173 173 173 173 173 173 173 173 173
173 173 173 173 173 173 173 173 173 173 173 173 173 173 173 173 173
174 173 174 174 174 174 174 174 174 174 174 174 174 174 174 174 174
174 174 174 174 174 174 174 175 175 175 175 175 175 175 175 175 175
175 175 175 175 175 175 176 176 176 176 176 176 176 176 176 176 176
176 177 177 177 176 177 177 177 177 177 178 178 178 178 178 178 178
179 179 179 179 179 179 179 180 180 180 180 180 180 180 180 180 180
180 181 181 181 181 181 181 181 182 182 182 182 182 182 182 183 183
183 183 183 184 184 184 184 184 183 183 184 184 184 184 184 185 185
185 185 184 184 188 193 207 216 213 211 222 217 206 220 219 217 215
211 210 211 221 213 216 212 200 195 192 192 191 191 190 189 192 195
205 200 217 218 225 228 225 223 224 223 223 224 225 225 223 225 224
216 215 216 212 216 217 215 217 220 218 221 220 219 220 221 222 219
218 219 219 220 221 221 221 220 222 219 222 214 209 206 205 201 200
200 199 206 213 218 210 215 206 200 202 200 199 199 199 200 204 215
219 218 214 206 205 201 198 198 198 197 197 197 197 197 197 196 197
198 198 198 198 198 198 198 198 198 203 214 214 233 239 239 235 236
236 235 227 213 212 220 204 205 198 199 198 213 204 188 183 183 183
183 183 183 182 183 182 184 183 182 182 182 182 182 182 181 181 182
182 182 182 182 182 181 182 180 182 182 184 186 187 180 181 181 180
181 181 181 181 181 181 181 181 181 181 181 181 181 181 181 181 181
181 180 180 179 180 180 179 180 179 180 180 179 179 179 179 179 179
179 179 179 179 179 178 178 178 178 178 178 178 178 178 178 178 178
178 178 178 178 178 178 178 178 178 178 178 177 177 177 177 177 177
177 177 177 177 177 177 177 177 177 176 176 176 176 176 176 176 176
176 176 176 176 176 176 176 176 176 176 176 176 176 176 175 175 175
175 175 175 175 175 175 175 175 175 175 175 175 175 175 175 175 175
175 175 175 175 175 175 175 175 175 175 175 175 174 174 174 175 174
175 174 174 175 174 174 175 174 174 174 174 174 174 174 174 174 174
174 174 174 175 174 174 174 174 174 174 175 175 175 175 175 175 175
175 175 175 175 175 175 175 175 175 175 175 175 175 175 175 175 175
175 175 175 175 175 176 176 176 176 176 176 176 176 176 176 176 176
176 176 176 176 176 177 177 177 177 177 177 177 177 177 177 177 177
177 178 178 179 178 178 178 178 178 178 179 179 179 179 179 179 179
179 180 180 180 180 180 180 180 180 181 181 181 181 181 181 181 181
181 181 181 181 181 182 182 182 182 183 183 183 183 183 183 183 184
183 184 184 184 184 185 185 185 185 185 185 185 185 185 185 185 185
185 185 186 186 185 193 193 196 206 221 198 188 189 188 195 194 191
190 190 190 189 189 188 187 188 200 202 202 211 203 194 196 191 189
188 189 192 200 200 197 218 224 225 228 228 227 226 222 224 226 226
225 224 220 212 211 214 212 212 214 214 216 216 217 219 221 224 222
220 218 218 220 220 222 222 222 223 218 216 216 210 207 202 206 208
229 221 211 205 211 206 218 220 218 219 208 210 206 214 212 221 222
202 200 201 201 201 200 200 199 199 199 198 198 198 198 198 198 198
198 198 198 199 199 200 199 200 199 198 202 224 224 210 234 238 235
233 233 234 233 232 230 228 228 227 229 227 226 224 224 222 226 230
223 214 207 183 184 184 184 183 183 183 184 183 183 183 183 183 184
183 188 189 184 183 183 183 183 183 183 183 184 183 183 183 182 183
183 183 183 183 183 183 183 183 183 183 183 183 183 183 182 183 183
183 183 183 183 183 183 183 183 183 182 182 182 182 182 182 182 182
182 181 182 182 182 182 181 182 181 181 181 181 180 181 180 180 180
180 181 180 179 180 178 179 179 179 179 179 179 179 179 179 179 179
178 178 178 178 178 178 178 178 178 178 178 178 178 178 178 178 178
178 178 178 178 178 178 178 178 178 178 178 178 178 178 178 177 178
177 177 177 177 177 177 177 177 177 177 177 177 177 177 177 177 177
177 177 177 177 177 177 177 177 177 177 178 177 176 176 176 176 176
176 176 176 176 176 176 176 176 176 176 176 176 176 176 176 176 176
176 176 176 176 176 176 176 176 176 176 176 176 176 176 176 176 176
177 177 176 177 177 177 177 177 177 177 177 177 177 177 177 177 177
177 177 177 177 177 177 177 177 177 177 178 178 178 178 178 178 178
178 178 178 178 178 178 178 178 178 179 179 179 179 179 179 179 179
179 179 179 179 180 180 180 180 180 180 180 180 180 181 181 181 181
181 181 181 181 181 181 181 181 181 181 182 182 182 182 182 182 182
182 183 183 183 183 183 184 184 184 184 184 184 185 185 185 185 185
185 186 186 186 186 186 186 186 186 186 185 186 185 185 196 199 204
206 194 187 187 187 187 188 201 233 234 217 232 226 228 216 220 214
201 193 197 188 189 189 188 188 188 189 188 189 189 189 189 189 189
189 189 189 191 190 190 191 192 200 203 215 226 230 227 223 220 212
211 213 216 216 217 215 216 217 215 218 216 217 215 217 220 221 222
222 224 225 226 226 217 201 208 208 203 202 201 203 202 200 198 202
201 200 218 226 228 226 219 219 222 220 208 218 219 215 216 214 210
217 216 211 202 203 203 201 200 200 200 200 199 199 199 199 202 199
198 200 199 199 200 199 199 206 226 216 209 205 216 213 215 218 227
230 233 230 225 225 223 219 220 220 221 222 222 222 222 222 222 224
222 223 232 232 233 234 228 198 186 186 186 188 184 184 184 184 187
188 185 187 184 189 194 193 185 189 198 200 190 183 184 183 183 183
184 183 184 184 184 184 184 184 184 184 184 184 184 184 184 185 184
184 184 184 184 184 184 184 183 184 184 183 184 184 184 184 183 184
183 184 184 183 182 183 183 183 183 183 183 183 183 183 183 183 182
183 183 182 182 181 182 182 182 182 182 182 182 182 182 181 181 181
181 181 181 181 181 181 181 181 180 181 181 180 180 180 180 180 180
180 180 180 180 180 180 180 180 180 180 180 180 180 180 180 178 180
180 178 179 178 179 179 178 178 178 178 178 178 178 178 178 178 178
178 178 178 178 178 178 178 178 178 178 179 178 178 178 178 178 179
178 178 178 178 179 178 179 179 179 179 178 179 178 179 179 178 179
178 179 178 178 179 178 179 178 178 178 178 179 178 179 178 178 179
178 178 178 178 178 178 178 178 178 178 178 178 178 178 178 178 178
178 178 178 178 178 179 179 179 179 179 179 179 179 179 179 179 179
179 179 179 179 179 179 179 179 179 180 180 180 180 180 180 180 180
180 180 180 180 181 182 181 181 181 181 181 181 181 181 181 181 182
182 182 182 182 182 182 182 182 182 182 183 183 183 183 183 183 183
183 183 184 184 184 184 184 185 185 185 185 185 185 185 186 186 185
186 186 185 186 185 185 186 185 186 186 186 186 186 186 188 186 188
188 189 195 202 193 189 189 189 190 194 208 216 221 221 218 216 216
216 213 216 218 212 204 206 198 212 221 211 197 195 190 189 190 191
190 190 190 190 190 190 191 192 191 193 193 195 201 211 210 210 209
209 209 202 208 211 214 214 216 216 217 219 218 218 216 219 218 218
218 219 222 224 227 227 228 222 219 203 198 199 198 199 199 199 200
199 200 199 199 200 202 201 203 204 202 201 201 203 205 206 210 209
212 211 205 202 203 203 203 202 201 201 201 201 200 200 200 200 200
200 200 206 206 206 204 204 215 206 209 214 217 232 226 222 215 225
229 233 230 227 225 224 224 222 220 220 212 212 214 216 216 217 216
218 220 221 224 224 225 228 228 233 232 216 224 214 192 186 198 201
207 211 203 206 210 220 215 212 203 201 196 203 207 207 207 206 212
203 197 198 187 197 188 190 188 185 185 185 185 185 186 185 185 185
185 185 185 185 185 185 185 185 185 185 185 184 184 184 184 184 184
184 184 184 184 184 184 184 184 184 184 184 184 184 184 184 184 184
184 184 184 184 183 184 183 183 184 183 184 184 183 183 183 183 183
183 183 183 183 182 182 182 183 183 182 183 182 183 182 182 183 182
183 183 183 183 183 182 182 181 182 182 182 182 182 182 182 182 182
182 182 182 182 182 181 182 182 182 182 182 182 182 182 182 181 181
181 181 181 181 182 181 181 182 181 181 181 181 181 181 181 181 181
181 181 181 181 181 181 181 180 181 181 181 180 180 181 180 181 180
180 180 180 180 180 180 180 180 180 180 180 180 180 180 180 180 180
180 180 180 180 180 180 180 180 180 180 180 180 180 180 180 180 180
180 180 180 180 180 180 180 180 180 180 181 181 181 181 181 181 181
181 181 181 181 181 181 181 181 181 181 181 181 182 182 182 182 182
182 182 182 182 182 182 182 182 183 182 182 183 183 183 183 183 183
183 183 183 183 183 184 184 184 184 184 184 184 185 185 185 185 185
185 185 185 186 186 186 186 186 187 186 187 186 187 186 186 186 187
186 186 187 187 186 187 187 187 187 187 187 188 187 187 187 187 188
189 188 188 188 189 189 190 189 188 189 188 189 195 199 197 197 195
201 195 195 195 195 193 191 193 190 190 190 191 192 191 192 192 192
192 191 193 194 192 191 193 193 193 193 193 194 193 195 194 194 194
195 195 195 195 196 196 196 195 200 204 204 210 215 208 206 208 211
212 210 210 203 204 208 207 220 222 220 216 213 199 200 200 201 208
218 204 216 221 201 202 206 203 201 202 202 202 202 203 202 203 204
206 204 204 204 204 204 204 204 204 203 204 203 202 201 202 202 201
201 200 201 201 202 202 202 202 201 202 202 202 202 204 219 224 232
232 233 228 232 232 230 227 220 220 215 215 217 214 214 209 210 210
211 212 214 215 216 216 218 222 223 229 230 231 234 234 230 231 204
196 203 199 201 200 202 199 197 196 202 202 200 196 197 199 198 207
208 212 213 204 197 197 191 193 189 190 190 188 188 187 187 187 187
187 187 187 187 187 187 187 187 187 187 187 186 186 186 186 186 186
186 186 186 186 186 186 186 185 185 186 185 185 185 185 185 185 185
185 184 185 184 184 184 184 184 184 184 184 184 184 184 184 184 184
184 184 184 184 184 184 184 184 184 184 184 184 184 184 184 183 183
183 183 183 183 184 184 183 183 183 183 183 183 183 183 183 183 183
182 183 182 182 183 182 183 183 183 183 182 183 182 183 183 182 183
183 183 183 183 183 183 182 183 182 182 183 182 181 180 181 181 181
181 181 182 182 182 182 181 181 181 181 181 181 181 181 182 181 181
181 182 181 181 181 181 181 181 181 181 181 181 181 181 181 181 181
181 181 181 181 181 181 181 181 181 181 181 181 181 181 181 181 182
182 181 181 182 182 182 182 182 182 182 182 182 182 182 182 182 182
182 182 182 182 182 182 183 182 183 183 183 183 183 183 183 183 183
183 183 183 183 184 184 184 184 184 184 184 184 184 184 184 184 184
184 184 185 185 185 185 185 185 185 185 185 185 186 186 186 186 186
186 186 187 186 187 187 186 186 187 187 186 186 186 187 186 186 187
187 187 187 188 187 187 189 189 189 188 188 188 188 189 188 189 189
189 189 188 190 190 190 190 190 190 189 190 189 189 189 188 190 190
190 190 190 190 190 190 190 190 191 191 190 191 191 191 192 192 192
193 192 193 193 193 192 202 218 214 200 197 204 202 196 194 196 195
195 196 196 196 196 196 198 200 199 200 198 197 197 198 198 199 201
200 204 204 202 200 200 201 217 208 207 216 218 216 207 207 209 208
205 202 212 211 224 230 224 222 218 206 207 205 206 211 211 205 205
205 205 205 203 205 205 204 204 205 204 204 204 204 204 203 203 203
202 202 202 202 201 202 202 203 203 203 203 203 203 203 203 202 209
213 215 214 218 221 218 214 214 211 203 206 206 205 198 199 198 198
199 207 204 205 206 208 207 205 208 208 208 207 208 212 212 216 217
219 216 216 210 203 200 201 198 197 194 191 190 191 190 190 189 189
189 189 190 189 190 192 191 190 191 190 189 189 189 189 189 189 189
189 189 189 189 189 189 189 189 189 189 189 189 189 189 189 189 189
189 188 188 188 188 188 188 188 188 188 188 188 188 188 188 187 187
187 187 187 187 187 187 187 187 187 187 186 186 186 186 187 186 186
186 186 186 186 186 186 186 186 185 185 186 185 185 185 185 185 185
185 185 185 185 185 185 185 185 185 185 185 184 184 184 184 184 184
184 184 184 184 184 184 184 184 184 184 184 184 184 184 184 184 184
184 184 184 183 183 184 184 184 184 183 183 183 183 183 183 183 183
183 183 183 183 183 183 183 183 183 182 183 183 183 183 183 183 183
183 183 183 183 183 183 183 183 183 183 183 183 183 183 183 183 183
183 183 183 183 183 183 183 183 183 183 184 184 183 184 184 184 183
183 183 184 183 183 184 184 184 184 184 184 184 184 184 184 184 184
184 184 184 184 184 184 184 184 184 184 185 185 185 185 185 185 185
185 185 185 184 185 185 185 185 185 185 186 186 186 186 186 186 186
186 186 186 186 187 187 187 187 187 187 187 187 186 186 186 187 186
187 188 188 187 186 187 187 187 188 188 188 188 188 188 188 188 188
188 189 189 189 189 190 190 190 191 189 189 190 190 189 190 190 190
190 190 190 190 190 191 191 192 191 192 191 191 191 191 191 191 191
190 191 192 191 191 191 191 191 191 191 191 192 192 193 192 193 193
194 194 194 194 194 195 194 200 218 218 225 218 215 208 207 201 200
197 196 196 198 197 197 197 197 198 198 203 208 199 200 199 198 200
200 199 200 199 199 200 199 201 204 202 202 206 216 219 219 224 234
234 227 220 219 209 210 207 208 206 210 221 217 214 219 214 210 208
205 206 206 206 206 206 206 205 205 206 206 206 205 205 204 204 203
204 204 203 203 204 204 204 204 204 204 204 205 204 204 204 205 208
206 204 204 204 203 202 203 205 202 204 201 201 202 202 201 200 200
199 200 200 200 199 211 210 208 208 208 206 206 203 203 202 202 199
203 204 209 211 203 200 198 192 192 195 196 192 191 192 192 191 191
190 191 191 191 191 191 191 191 191 191 191 191 191 192 191 190 190
191 191 190 190 190 190 190 190 190 190 190 190 190 190 190 190 190
190 190 190 189 189 189 189 190 189 189 189 189 189 189 189 189 189
189 189 189 189 189 189 189 189 189 188 189 188 188 188 188 188 188
188 188 188 187 188 188 188 188 188 187 187 187 187 187 188 187 187
187 187 187 187 187 187 187 186 187 187 186 187 186 186 186 186 186
186 186 186 186 186 186 186 186 186 186 186 186 185 186 186 185 185
184 185 185 185 185 186 185 185 185 185 185 185 185 185 185 185 185
185 185 185 185 185 185 185 185 185 185 185 185 185 185 185 185 185
185 185 185 185 185 185 185 185 185 184 185 185 185 185 185 185 185
185 185 185 185 185 185 185 185 185 185 185 185 185 185 185 185 185
185 185 185 185 185 185 185 185 186 186 185 185 185 185 185 185 185
185 185 186 186 186 186 186 186 186 186 186 186 186 186 186 186 186
186 187 186 187 186 186 187 186 187 187 187 187 187 187 187 187 187
187 187 187 188 188 188 188 188 188 188 188 188 188 188 188 188 189
188 188 189 188 188 188 188 189 189 189 189 190 190 190 190 190 190
190 191 191 191 191 190 191 191 191 191 191 191 191 191 191 191 191
191 191 191 191 191 191 192 192 192 192 193 192 192 192 192 192 191
192 192 192 192 192 192 193 193 193 193 193 193 193 193 193 194 194
194 194 195 195 194 194 195 195 195 195 196 202 202 199 198 196 197
198 198 197 198 200 218 232 225 203 199 198 204 202 201 204 203 218
210 205 208 204 203 203 203 202 201 202 206 221 213 211 218 223 226
226 231 231 233 230 231 233 222 217 208 211 206 206 205 207 212 207
206 206 206 207 207 207 207 206 208 208 210 214 213 206 207 206 206
206 205 205 205 205 205 204 205 204 204 204 204 204 205 205 205 204
204 205 205 204 205 204 203 203 203 203 202 202 202 201 201 201 201
201 201 201 200 201 201 201 201 200 206 205 203 202 203 203 201 197
195 196 195 195 195 196 195 194 194 194 194 194 194 193 194 196 197
192 191 192 192 192 192 192 193 192 193 193 193 193 193 193 193 192
193 193 193 193 193 193 193 193 193 192 192 193 193 192 192 192 192
192 192 192 192 192 192 192 191 191 191 191 191 191 191 191 191 191
191 191 191 190 191 191 190 190 189 190 190 190 190 190 190 190 189
190 190 189 189 190 189 189 189 189 189 189 189 189 189 189 189 189
189 189 189 189 189 189 189 189 189 189 189 189 189 189 189 189 189
189 188 188 190 188 188 190 188 188 188 188 188 188 188 188 188 188
188 188 188 188 188 188 188 188 188 188 188 188 188 188 188 187 187
188 187 187 187 187 187 187 187 187 187 187 187 187 187 187 187 187
187 187 187 187 187 187 187 187 187 187 187 187 187 187 187 187 187
187 187 187 187 187 187 187 187 187 187 187 187 187 187 186 186 187
187 187 187 187 187 187 187 187 187 187 187 187 187 187 187 187 187
187 187 187 188 188 188 188 188 188 188 188 188 188 188 188 188 188
188 188 188 188 187 188 188 188 189 188 188 189 189 189 189 189 189
189 188 188 188 188 188 189 190 190 189 189 189 189 190 190 190 190
189 190 191 190 190 190 190 190 191 191 191 191 192 192 192 191 192
192 192 192 192 192 192 192 192 193 192 193 192 192 192 192 192 192
192 192 192 192 193 193 192 193 193 194 194 194 194 194 194 194 193
194 194 193 194 194 193 194 194 194 194 194 194 194 194 194 194 195
195 195 195 195 195 196 195 196 200 204 196 196 196 197 197 198 198
198 198 198 199 200 200 205 226 228 231 234 230 225 221 218 210 210
208 207 205 205 205 203 203 203 204 204 204 203 204 211 214 214 212
217 217 217 217 215 218 222 222 222 224 222 216 208 206 207 206 207
207 207 208 208 208 208 208 208 208 207 207 208 207 207 208 208 207
206 205 205 205 206 205 206 205 205 205 205 205 205 206 206 206 206
205 206 206 206 206 206 206 204 204 204 203 203 202 204 202 202 202
201 202 201 201 201 201 201 201 200 201 201 202 202 196 196 196 196
196 195 195 196 196 197 198 196 195 194 194 194 194 194 194 195 194
195 198 200 198 194 195 195 194 194 194 194 194 194 194 194 194 194
194 194 194 194 194 195 194 194 194 194 194 194 194 193 193 193 193
193 193 193 193 193 193 193 193 193 192 192 193 192 192 193 192 192
192 192 192 193 192 192 192 192 192 192 192 192 192 192 192 191 191
191 191 192 191 191 191 191 191 191 191 191 191 191 191 191 191 191
191 191 190 190 190 190 190 190 190 190 190 190 190 190 190 190 190
190 190 189 190 189 190 189 189 189 189 189 189 189 189 189 189 189
189 189 189 189 189 189 189 189 189 189 189 189 189 189 189 189 189
189 189 189 189 189 189 189 189 189 189 189 189 189 189 189 189 189
189 188 189 188 188 188 188 188 188 188 188 188 189 188 188 188 188
188 188 188 188 188 188 188 188 188 188 188 188 188 188 188 188 189
188 189 188 188 188 189 189 188 189 188 189 189 189 189 189 190 189
189 189 189 189 189 189 189 189 189 189 189 189 189 189 190 190 189
190 190 190 190 190 190 190 190 190 190 190 190 190 190 190 190 190
190 190 191 190 191 191 191 191 191 191 191 191 191 192 192 191 192
192 192 192 192 192 192 192 192 192 192 192 192 192 193 193 193 192
193 193 193 193 193 193 193 193 193 193 193 193 193 194 194 193 193
193 193 194 193 193 194 194 194 194 195 195 195 195 195 195 195 195
197 205 200 194 194 194 194 195 195 196 204 210 213 204 196 196 194
202 206 196 196 198 218 224 214 221 221 218 210 204 201 197 204 212
212 212 223 208 207 202 208 202 201 200 206 209 212 222 223 226 224
229 225 222 213 204 204 204 204 204 204 204 204 205 205 205 205 205
206 206 206 205 206 206 206 206 207 208 208 207 207 208 209 211 209
208 208 208 208 208 208 208 209 208 209 208 209 209 208 209 208 208
208 208 209 208 207 207 207 206 206 206 207 207 207 207 207 208 208
207 207 207 207 207 208 207 207 206 206 206 206 205 205 203 204 204
204 203 204 203 202 202 203 203 203 203 203 203 203 203 204 204 204
197 197 198 197 199 199 198 199 200 198 202 197 196 196 196 196 196
196 196 196 196 196 196 197 196 196 197 197 197 197 196 197 197 197
197 197 197 197 197 197 197 196 196 196 196 196 196 196 196 196 196
196 196 196 196 195 195 195 195 195 195 195 195 195 195 194 194 195
195 194 194 194 194 194 193 194 193 194 194 193 194 194 193 193 193
193 193 193 193 193 192 193 193 193 193 193 193 193 193 193 193 193
193 193 193 193 192 193 193 192 192 192 192 192 192 192 192 192 192
192 192 192 192 191 192 192 192 192 192 192 192 192 192 192 192 192
192 192 192 192 191 191 192 191 191 191 191 191 190 191 191 191 191
191 191 191 191 191 191 191 191 191 191 191 190 190 191 191 191 191
191 191 191 191 191 191 191 191 191 191 191 191 191 191 191 190 190
191 191 191 191 191 191 191 191 191 191 191 191 191 191 191 191 191
191 191 191 190 191 191 191 191 191 191 191 191 191 191 191 191 190
191 191 191 191 191 191 191 191 191 191 191 191 191 191 191 191 192
191 192 192 192 191 191 192 192 192 192 192 192 192 192 192 192 192
192 192 192 192 193 193 193 193 193 192 193 193 193 194 193 194 194
194 194 194 194 194 194 194 194 194 194 194 195 195 194 194 194 194
194 194 194 194 195 195 195 195 194 195 195 195 195 196 196 195 196
195 195 195 195 195 196 195 196 196 196 196 197 197 197 197 197 201
207 209 220 224 233 233 223 217 216 212 212 233 220 219 232 237 225
227 231 235 232 220 218 219 226 232 237 234 233 236 236 235 232 230
219 214 212 206 220 225 225 224 216 221 228 221 210 211 208 213 214
218 212 216 225 220 212 211 209 206 206 206 206 207 206 206 206 206
207 207 207 207 206 207 208 208 209 211 214 209 210 208 207 209 209
209 209 209 209 210 210 210 209 210 210 211 211 211 211 211 211 210
210 209 210 209 209 208 208 208 208 207 207 207 208 208 208 208 208
209 209 209 208 209 209 209 208 208 208 208 208 207 207 206 206 206
206 205 205 205 205 205 204 204 205 203 204 205 205 205 205 205 205
205 205 206 206 198 198 198 198 198 198 198 199 198 198 198 198 198
198 198 198 198 198 198 198 198 199 198 198 198 198 198 198 198 198
198 198 198 198 198 198 198 198 198 197 198 198 197 197 197 197 197
197 197 197 197 197 197 197 197 197 196 196 197 197 197 196 197 197
196 196 196 196 196 196 196 196 196 196 196 196 196 196 196 196 196
195 195 196 195 195 195 195 195 195 195 195 195 194 195 195 194 195
194 194 194 194 194 194 194 194 194 194 194 194 194 194 194 193 194
194 193 193 193 193 193 193 193 194 193 194 194 193 193 193 193 193
193 193 192 193 192 192 193 192 192 192 192 192 192 192 192 192 193
192 192 192 192 192 192 192 192 192 192 192 192 192 192 192 192 192
192 192 192 192 192 192 192 192 192 192 192 192 192 192 192 192 192
192 192 192 192 192 192 192 192 192 192 192 192 192 192 192 192 192
192 192 192 192 192 192 192 192 192 192 193 192 192 193 192 192 193
192 192 192 194 193 193 192 193 193 193 193 193 193 193 193 193 193
193 193 193 193 193 193 193 193 193 194 193 194 194 194 194 195 194
194 194 194 194 194 194 194 194 194 194 194 195 195 195 195 195 195
195 195 194 195 194 195 195 194 196 194 195 196 196 196 196 196 196
196 196 197 197 196 197 197 196 198 197 197 197 197 197 197 197 197
198 197 197 197 197 197 197 197 197 198 198 198 199 199 199 198 198
198 198 197 198 215 227 229 229 231 225 220 223 224 221 220 229 223
227 228 228 232 234 235 233 235 234 232 232 229 227 226 225 228 230
232 234 235 236 235 238 222 225 226 231 232 232 230 230 226 220 217
226 215 213 226 224 230 226 232 221 209 208 207 208 207 207 206 207
208 208 208 208 208 208 208 207 209 209 209 209 209 209 209 210 209
210 210 210 210 211 211 211 211 211 212 212 211 212 212 212 212 212
211 211 211 211 210 210 210 209 211 211 211 210 209 209 209 208 209
209 211 209 210 210 210 210 210 209 209 209 209 209 208 208 207 207
206 206 206 206 206 206 206 206 204 205 205 205 205 205 205 205 206
206 206 206 206 207 207 207 207 200 200 200 200 200 199 199 200 200
200 200 200 200 200 200 200 200 200 199 200 200 200 200 200 200 200
200 200 200 200 200 200 200 200 200 200 200 200 200 200 200 200 200
200 200 199 199 200 199 199 199 199 199 199 199 200 199 198 198 199
198 198 198 198 198 198 198 197 198 198 198 198 198 198 197 197 197
197 197 197 197 197 197 197 197 197 197 197 197 197 197 198 197 197
196 196 197 197 197 197 197 197 197 197 196 197 197 196 197 197 196
197 196 196 196 196 196 196 196 196 196 196 196 196 196 196 196 196
195 195 196 195 195 195 195 195 195 196 195 195 195 195 195 195 195
195 195 195 195 195 195 195 195 195 195 195 195 195 195 194 195 194
194 195 194 195 194 194 194 194 194 194 194 194 194 194 194 194 194
194 194 194 194 194 195 194 194 194 194 194 194 194 194 194 194 194
195 195 195 195 194 194 195 194 194 194 195 194 195 195 195 195 195
195 195 195 195 195 195 195 195 195 195 195 195 194 195 195 195 194
195 195 195 195 195 195 194 194 194 194 194 195 195 195 196 196 196
196 195 195 196 195 195 195 195 195 195 195 195 196 196 196 196 196
196 196 196 197 197 197 197 197 197 197 198 198 198 198 198 198 198
198 198 198 198 198 198 198 199 198 199 199 200 199 199 200 199 199
198 198 198 198 198 199 198 198 198 198 199 199 199 199 199 199 199
198 199 198 205 211 214 208 208 213 214 212 217 220 221 215 204 207
204 202 200 201 206 207 213 221 225 226 227 225 226 223 222 221 222
221 222 222 223 224 225 225 226 227 228 226 220 218 222 223 223 222
221 219 217 218 209 208 215 218 224 227 227 230 230 228 224 213 209
209 208 209 209 209 210 209 209 209 210 210 210 211 210 210 210 211
211 211 212 212 212 212 212 213 213 213 213 213 213 212 213 213 212
212 212 213 212 211 211 211 211 211 210 210 210 210 210 210 210 211
210 210 210 210 210 210 210 210 210 210 210 210 209 209 210 208 208
208 208 208 208 207 207 207 207 207 207 207 206 207 206 206 207 206
207 207 207 207 207 207 208 207 208 208 209 208 201 202 202 202 201
201 202 202 202 201 202 202 203 201 202 202 202 202 202 202 202 202
202 202 202 202 202 202 201 202 201 201 201 202 201 201 201 201 201
201 201 201 200 200 200 200 200 200 200 200 200 200 200 200 200 199
200 200 200 200 200 199 200 200 199 200 200 199 199 199 199 199 199
200 199 200 199 199 199 199 199 199 199 199 199 199 199 198 198 199
198 198 198 198 198 198 198 199 198 198 198 198 198 198 198 198 198
198 198 198 198 198 197 197 198 197 197 197 197 197 197 197 197 197
197 197 197 197 197 197 197 197 197 197 197 197 197 197 197 197 197
197 197 197 197 197 197 197 197 196 196 197 196 197 196 196 197 196
196 196 196 196 197 196 196 197 196 197 196 196 196 196 196 196 197
197 196 196 196 196 196 196 196 198 198 197 196 196 196 196 196 196
196 196 196 196 196 196 196 196 196 196 196 196 196 196 196 196 196
196 196 197 196 196 196 196 196 196 196 196 196 196 196 195 196 197
197 197 197 197 197 197 197 197 197 197 197 197 197 196 197 196 197
197 196 198 196 197 197 197 198 198 198 198 198 198 198 198 198 198
198 198 198 198 199 199 199 199 199 199 199 199 199 199 199 200 199
200 200 200 200 200 199 200 200 201 201 200 200 200 201 201 200 200
200 200 199 199 200 199 199 199 199 200 200 196 194 194 195 195 196
195 196 196 189 181 166 146 141 141 143 158 170 170 187 191 197 185
203 201 201 204 205 203 207 216 219 204 189 179 181 190 203 204 218
221 226 226 228 227 222 229 232 233 233 233 234 234 234 231 231 231
226 225 226 221 209 209 208 208 210 210 209 210 210 209 210 211 210
210 210 210 210 210 210 211 211 211 210 211 211 211 212 211 212 212
212 212 212 213 213 213 213 212 213 213 213 213 213 213 214 214 213
214 213 214 214 214 213 212 212 212 211 211 211 211 210 211 211 211
211 211 211 211 212 212 211 212 211 211 212 212 212 211 211 210 210
210 209 210 208 208 208 208 207 208 207 207 207 207 208 207 207 207
207 208 208 208 209 208 209 210 209 210 210 210 210 210 210 210 203
204 204 204 204 203 204 204 204 203 204 204 204 204 204 204 204 204
204 204 204 204 205 204 204 204 204 204 204 204 204 204 204 204 204
203 203 204 203 203 203 203 203 203 203 203 203 203 203 203 203 202
202 202 202 202 202 202 202 202 202 200 201 202 202 201 202 202 201
201 201 201 201 201 201 201 201 201 201 201 201 201 201 200 200 201
201 200 200 200 200 200 201 200 200 200 200 200 200 200 200 200 200
200 200 200 200 200 200 200 200 200 200 200 200 200 200 200 200 200
200 200 200 200 200 200 199 200 199 199 199 199 199 199 199 199 199
199 199 199 199 199 199 199 199 199 199 199 199 199 199 199 199 199
199 199 199 199 198 198 198 198 198 197 199 198 198 198 198 198 198
198 198 198 198 198 198 198 198 198 198 198 198 198 198 198 198 198
198 198 198 198 198 198 198 198 199 198 197 198 198 197 199 198 198
198 198 198 199 199 197 198 198 199 199 199 199 199 199 199 199 199
199 199 199 199 199 199 199 199 199 199 198 199 199 200 199 199 200
199 199 200 199 199 200 200 200 200 200 200 200 200 200 200 200 200
200 200 200 200 200 201 201 201 201 201 201 201 201 200 200 200 200
200 202 201 202 202 202 201 201 202 201 201 201 202 202 202 203 202
196 171 150 154 154 152 152 152 150 149 145 143 142 139 140 140 130
140 136 132 128 128 129 130 135 145 144 140 138 138 144 146 135 134
138 139 145 134 140 141 146 164 163 155 133 134 134 137 132 137 138
141 142 135 143 149 157 165 208 226 225 226 225 227 227 228 227 228
228 225 225 223 215 208 210 210 211 210 210 210 209 211 211 212 211
212 211 212 212 212 212 212 212 213 213 213 213 213 213 213 213 214
214 214 214 213 213 213 214 214 214 215 214 214 215 215 216 214 215
216 216 215 216 215 215 215 214 214 214 214 212 213 213 213 212 212
212 213 213 213 213 212 213 214 213 213 214 213 213 213 213 212 212
212 212 211 211 211 210 210 210 210 209 209 209 209 209 209 209 209
209 209 209 210 209 210 210 211 211 211 211 211 211 211 211 211 212
210 194 172 205 205 205 206 205 205 205 206 206 206 207 206 204 205
206 205 206 206 206 206 206 207 207 208 207 205 205 205 205 205 206
206 209 218 216 216 210 205 204 204 204 204 204 204 204 204 204 204
204 204 204 203 203 203 203 204 203 204 203 203 203 202 203 203 203
203 203 203 203 203 203 203 203 203 203 203 203 203 203 203 203 203
203 203 203 202 202 202 202 202 202 202 202 202 202 202 202 202 202
202 202 202 202 202 203 201 201 201 201 201 202 201 201 201 201 201
201 201 201 201 201 201 201 201 200 200 200 200 200 200 201 200 200
200 200 200 200 200 200 200 200 200 200 200 200 200 200 200 200 200
200 200 200 200 200 200 200 200 200 200 200 200 200 200 200 200 200
200 200 200 200 200 200 200 200 200 200 200 200 200 200 200 200 200
200 200 200 200 200 200 200 200 200 200 200 200 200 200 200 200 200
200 200 200 200 200 200 200 200 200 200 200 200 200 200 200 200 200
200 200 200 201 201 201 201 201 201 201 201 201 201 201 201 201 201
201 201 201 201 201 201 201 201 201 201 202 202 201 202 202 203 202
202 202 202 202 202 202 202 202 201 202 202 202 203 202 203 203 203
203 202 202 203 203 203 203 204 204 204 204 204 204 204 205 197 190
188 188 154 130 131 130 137 126 125 126 134 132 134 132 136 133 126
132 142 131 142 126 126 128 138 135 126 124 125 127 133 142 142 138
133 133 134 134 139 140 141 142 144 139 143 138 133 130 131 130 127
128 135 144 144 137 133 134 135 136 131 129 135 142 158 186 220 227
229 231 235 235 232 232 232 231 227 223 218 214 211 211 212 212 213
212 212 212 213 213 213 213 213 213 213 213 214 214 214 214 214 214
214 214 215 215 215 215 215 214 216 216 216 216 216 216 216 216 217
217 217 217 217 216 216 216 216 216 215 215 215 215 214 214 214 213
214 214 214 214 214 214 215 215 214 215 215 214 215 215 214 214 214
214 214 213 213 212 212 212 211 211 211 211 211 211 211 210 210 211
210 210 211 211 211 211 211 211 210 212 212 211 213 212 212 212 213
205 180 148 146 145 145 145 208 208 207 207 207 208 208 207 208 208
208 208 207 207 208 208 208 208 208 207 207 207 207 207 207 207 207
207 208 207 206 206 216 218 221 216 212 213 213 209 207 210 206 206
206 206 206 205 205 206 205 205 205 206 206 206 206 205 205 206 206
205 205 205 205 205 205 205 205 205 205 205 205 205 205 205 204 205
205 205 205 204 204 205 204 205 205 204 204 204 204 204 204 204 204
204 204 204 204 204 204 204 204 204 204 204 204 204 204 204 204 204
204 204 204 202 204 204 203 204 203 203 203 203 203 203 203 203 203
203 203 203 203 202 202 203 203 203 202 202 203 203 203 203 203 203
203 203 203 203 203 203 203 202 203 202 202 202 203 202 203 202 202
202 202 202 202 202 202 202 202 202 203 202 202 202 202 202 204 204
202 201 202 202 203 202 202 202 202 202 202 202 202 202 202 202 202
202 202 202 202 203 202 202 202 203 202 203 203 203 203 203 203 203
203 203 203 203 203 203 203 203 203 203 203 203 203 203 203 203 203
203 203 203 203 203 202 202 203 203 204 204 204 204 204 204 204 204
204 204 204 203 204 204 204 204 206 205 204 203 204 204 204 205 205
204 204 204 204 204 204 204 204 205 206 205 205 205 206 178 145 137
129 129 142 139 137 126 120 122 120 121 121 120 122 121 121 132 130
130 127 126 123 124 128 139 133 143 148 131 140 134 132 130 124 129
136 152 149 141 135 132 125 129 131 132 131 128 134 133 129 129 131
134 139 129 126 128 130 132 132 133 126 127 127 132 143 141 137 136
143 148 151 158 203 226 227 227 229 230 231 234 236 233 234 230 228
228 227 219 214 214 214 214 215 214 214 215 215 215 215 215 216 216
216 216 215 215 216 216 216 216 217 217 218 217 217 218 217 217 218
218 218 218 218 218 217 218 217 218 217 217 216 216 215 215 215 215
215 215 215 215 216 215 216 217 216 217 216 216 216 216 216 216 216
216 215 216 214 214 213 213 213 213 213 213 212 212 213 212 211 212
212 212 212 212 213 212 212 213 213 213 214 214 214 214 214 214 214
216 214 191 153 146 145 145 145 144 144 144 208 209 209 208 209 209
209 209 209 209 209 209 209 209 209 209 209 209 209 208 208 208 208
208 208 209 209 209 208 209 208 210 209 210 212 215 213 212 211 210
208 209 208 208 208 207 207 207 207 207 207 208 208 208 208 211 211
212 210 207 207 207 207 207 207 207 207 207 212 216 213 211 207 208
208 218 218 216 212 206 207 206 206 208 216 231 210 207 207 206 206
206 206 206 206 206 206 206 205 205 205 204 206 205 206 206 205 205
205 205 205 205 205 205 205 205 205 205 205 204 205 205 205 205 204
205 205 204 205 204 205 204 204 205 204 204 204 204 204 204 205 204
204 204 204 204 204 204 204 204 204 204 204 204 204 204 204 204 204
204 204 204 204 204 204 204 204 204 204 204 204 204 205 205 204 204
204 204 205 204 205 204 204 204 204 204 204 204 205 204 204 204 204
204 204 204 204 204 204 204 204 204 204 204 204 204 204 204 204 204
204 204 204 204 204 204 204 204 204 204 205 205 204 204 204 204 205
204 205 204 205 205 204 205 204 205 205 208 207 205 205 204 204 205
205 204 205 206 206 206 205 205 205 206 206 206 206 205 206 206 205
205 206 206 207 206 206 207 206 207 206 206 207 207 208 198 150 122
123 124 133 132 126 121 125 121 120 120 120 121 120 120 121 121 121
122 128 127 121 125 129 123 121 130 137 128 124 139 123 123 123 123
123 123 122 124 125 126 124 125 125 130 140 133 130 133 130 124 124
124 125 126 126 125 125 134 125 131 134 142 142 129 126 126 126 129
133 133 131 134 135 139 144 151 154 149 215 227 229 229 231 232 232
234 236 236 236 236 235 233 222 216 216 216 216 216 216 216 217 216
217 217 217 217 217 216 218 218 218 218 217 218 218 218 219 218 219
219 219 219 219 219 219 219 219 219 219 218 218 218 218 217 217 217
216 217 216 216 217 217 217 217 217 217 217 217 217 217 217 217 217
217 218 217 216 216 216 215 215 215 214 213 214 214 214 213 214 213
212 213 213 213 213 213 214 214 214 214 214 214 216 215 215 215 215
216 216 216 212 190 145 145 145 145 144 144 144 143 143 143 210 211
211 210 209 210 210 210 210 210 211 210 211 210 210 210 210 210 210
210 210 210 210 210 210 210 210 210 209 209 209 209 209 209 209 209
210 209 209 209 209 209 209 209 209 209 209 209 209 209 209 209 209
209 209 209 209 208 209 209 209 209 209 208 208 209 209 217 221 220
222 220 220 224 229 230 229 223 219 224 225 222 227 229 227 228 228
227 218 208 208 208 207 208 208 208 208 208 208 208 208 208 207 213
213 212 207 206 206 207 207 207 207 207 206 207 207 207 207 207 207
207 207 207 207 207 207 207 207 207 207 207 207 207 206 207 207 206
207 206 207 207 207 206 206 206 206 206 206 206 206 206 206 206 206
206 206 206 206 206 206 206 206 206 206 206 206 205 206 206 206 206
206 206 206 205 206 206 206 205 206 206 206 206 206 206 205 206 205
205 206 206 206 205 205 206 207 207 205 206 206 206 208 207 207 207
207 207 207 207 207 207 207 207 207 207 207 207 206 206 206 207 206
206 206 206 206 206 206 206 206 206 207 206 206 206 206 207 208 207
208 206 209 210 209 209 209 208 207 208 208 208 208 207 208 208 208
209 208 208 208 209 209 209 209 209 209 209 209 209 210 210 203 160
136 125 132 132 128 128 124 141 135 129 121 120 120 120 121 122 121
121 121 121 125 123 140 150 128 122 125 128 121 123 130 127 123 132
127 124 122 122 122 122 124 125 127 126 123 124 124 124 131 126 124
124 124 124 123 124 124 124 124 124 125 124 124 126 125 125 126 124
126 125 126 127 133 138 134 131 129 127 130 138 141 148 153 178 225
224 226 227 227 227 226 226 225 229 229 224 220 218 218 217 217 218
219 219 218 220 218 218 219 219 219 218 219 220 220 220 220 221 221
221 221 221 221 221 221 222 221 221 220 221 220 220 220 219 219 219
218 219 218 218 218 219 219 219 219 219 219 219 218 218 218 219 218
219 218 218 218 218 218 218 217 216 217 217 216 216 216 216 215 215
215 215 215 215 216 214 215 215 216 216 216 216 216 215 216 216 216
216 216 216 216 216 216 192 149 145 144 144 144 143 144 143 143 143
143 143 212 212 211 211 211 212 212 211 211 211 211 212 211 212 211
211 211 211 211 211 210 210 211 210 211 211 211 211 211 211 211 211
210 210 210 210 210 210 210 210 210 210 210 210 210 210 210 210 210
210 210 210 210 210 210 210 210 210 210 210 210 210 212 216 210 210
211 212 216 222 223 224 223 223 227 225 228 227 224 224 225 223 224
227 230 230 230 226 228 219 211 209 209 209 209 209 209 209 209 209
210 218 217 217 221 221 216 209 209 208 209 209 209 208 208 208 208
209 208 208 208 208 208 208 208 208 208 208 208 208 208 208 208 208
208 208 208 208 207 208 208 208 208 209 208 208 208 208 208 208 208
208 208 208 208 208 208 208 208 208 208 208 208 208 208 208 208 208
209 208 208 209 208 208 207 208 208 208 208 208 208 208 208 208 208
208 208 208 208 208 208 208 208 208 209 218 220 219 216 214 208 208
208 210 209 214 214 208 209 209 212 213 209 208 208 208 208 210 211
209 208 208 208 208 208 208 208 208 208 208 208 208 208 209 209 209
209 209 209 209 209 209 209 209 209 210 209 210 209 210 210 212 212
211 210 210 210 210 211 210 210 210 210 210 211 211 211 211 211 211
191 123 122 122 122 120 119 119 131 142 136 131 126 122 130 139 126
121 121 120 119 119 120 122 129 137 132 135 132 122 121 124 124 121
123 121 122 122 124 123 124 122 122 123 123 126 124 123 123 123 123
123 123 124 124 125 138 130 130 128 130 131 129 129 129 126 126 126
125 125 124 126 126 126 124 124 126 125 125 125 126 129 129 129 128
134 151 151 152 166 202 218 217 218 218 219 219 218 218 219 219 218
219 219 219 220 219 221 220 220 220 220 221 221 221 221 221 221 222
222 222 222 221 222 222 221 222 221 222 221 221 221 220 220 220 219
219 219 219 219 219 219 218 218 219 219 219 219 220 219 220 220 219
219 219 219 219 219 218 219 218 218 218 217 216 216 216 217 216 215
215 216 216 215 216 215 216 216 215 216 216 216 216 216 216 216 218
217 217 217 217 218 218 219 218 207 145 145 144 144 144 144 144 143
143 143 143 143 142 143 212 212 212 213 212 212 212 212 212 212 213
212 212 213 212 212 211 211 211 212 212 212 212 213 212 213 212 212
213 213 212 212 212 212 212 212 212 212 212 212 212 212 212 212 212
212 212 212 212 212 212 212 211 212 212 212 212 212 212 212 212 212
212 213 212 212 212 212 213 213 212 212 213 213 216 216 214 216 216
214 217 216 220 220 220 219 223 223 220 220 214 212 212 213 211 211
211 210 211 211 211 211 212 211 210 210 213 212 210 209 210 211 210
210 209 210 211 210 210 209 210 209 210 210 209 210 209 210 210 209
209 210 210 209 209 210 209 209 209 210 209 210 212 210 210 209 210
210 209 210 209 209 209 209 210 209 210 210 210 209 209 210 210 210
209 209 210 209 210 208 210 210 216 219 215 209 209 209 210 209 209
209 210 209 209 210 209 210 209 209 210 210 210 211 210 210 211 211
210 210 210 210 213 216 217 218 215 214 212 212 213 214 213 210 212
216 221 223 220 215 211 211 211 211 210 210 210 210 211 210 210 210
210 211 210 211 210 211 211 211 211 212 212 212 212 212 212 212 212
212 213 214 214 214 213 213 212 212 213 213 213 214 214 214 214 214
214 214 190 135 120 119 119 119 118 119 121 120 129 129 133 135 138
124 133 132 124 128 121 120 120 120 120 121 122 130 134 142 124 126
121 121 122 121 122 122 121 122 122 122 123 124 122 123 124 125 124
124 123 123 124 124 123 124 124 124 127 131 131 128 137 148 148 149
148 147 143 134 126 125 126 125 124 124 124 125 125 126 125 125 127
128 126 128 128 128 132 135 145 147 157 151 174 220 220 221 220 221
220 220 221 220 220 220 220 220 219 221 221 221 221 221 222 222 222
222 222 224 224 223 224 223 223 223 224 224 224 223 222 222 223 222
221 222 221 221 220 220 221 221 222 221 221 222 222 222 222 221 222
222 222 221 221 222 221 221 220 220 219 219 220 218 219 219 218 218
218 217 217 218 217 217 218 217 218 218 218 218 218 219 218 218 218
218 218 219 219 219 219 219 219 219 219 200 155 144 143 143 143 143
143 143 143 143 143 143 142 142 142 142 215 215 215 214 213 214 214
215 214 214 214 214 214 214 214 214 214 214 214 214 214 213 213 213
214 213 213 213 212 212 212 212 212 212 212 212 212 212 212 213 212
212 212 212 212 212 212 212 212 212 212 212 212 212 212 212 212 212
212 212 212 212 213 213 212 213 212 213 212 213 213 212 213 212 212
212 212 214 212 212 213 213 213 214 214 213 213 212 213 213 212 212
212 212 212 212 212 212 213 212 212 212 212 212 212 212 212 212 212
212 212 212 212 212 212 212 212 211 212 212 212 212 211 212 211 212
212 212 211 211 211 211 211 210 211 211 212 213 213 211 211 216 219
213 213 215 216 214 212 211 212 212 211 211 211 211 211 211 211 211
211 211 210 211 211 211 211 211 212 212 212 214 225 227 226 222 216
212 212 212 212 212 212 212 212 212 212 212 212 212 212 212 212 212
212 212 212 212 212 212 212 213 212 213 213 212 212 212 212 212 212
212 212 213 212 213 213 213 214 214 213 213 213 213 213 213 213 213
213 213 213 213 214 213 213 214 214 214 213 214 213 214 214 213 213
215 217 213 213 213 213 214 213 213 214 215 215 215 215 214 214 214
214 214 214 201 138 122 120 119 119 120 119 127 132 124 134 130 123
128 126 125 125 121 124 121 119 120 120 120 119 120 121 120 121 120
133 128 120 121 121 121 121 121 121 121 122 121 122 122 122 124 123
122 123 124 124 123 123 123 123 123 122 122 124 123 123 122 123 122
123 126 125 134 142 126 124 126 123 125 128 124 124 124 124 124 124
126 126 124 125 125 123 130 131 125 135 129 138 152 152 152 151 155
210 222 221 221 222 222 222 221 223 223 223 224 224 223 223 224 224
224 224 223 224 224 225 225 224 224 225 224 224 224 224 223 224 223
224 222 222 222 222 222 222 221 221 222 223 223 223 222 222 222 222
222 222 222 222 222 222 222 221 221 221 220 220 220 219 219 219 220
219 220 219 219 220 218 218 218 218 218 218 218 218 218 218 219 219
219 219 218 219 220 220 220 221 220 220 220 220 180 144 144 144 144
143 143 143 143 142 142 142 142 142 141 142 142 142 142 216 216 215
215 215 215 216 215 215 215 215 215 215 215 215 215 215 215 216 215
215 215 215 215 215 215 215 215 214 215 215 215 215 215 215 215 216
215 216 216 216 216 216 216 216 216 216 216 216 216 216 216 216 216
216 216 216 216 216 216 216 216 216 215 216 216 214 215 215 216 215
214 215 214 215 214 215 215 215 215 214 214 215 214 215 214 214 214
214 215 214 214 214 214 214 213 213 214 213 213 212 213 213 213 213
213 213 213 213 213 213 213 213 213 212 213 212 213 212 213 214 212
212 213 214 213 212 213 213 212 213 212 212 213 214 215 216 219 221
221 224 225 223 222 224 225 226 226 219 215 213 213 213 212 213 212
212 212 212 212 212 212 214 214 214 214 214 213 213 213 216 223 226
228 227 224 223 218 216 213 213 214 213 213 213 213 214 214 214 213
213 214 214 215 214 214 214 214 214 214 214 214 214 214 214 214 214
214 214 214 214 214 214 214 214 214 214 214 214 214 214 214 214 215
215 215 216 215 216 215 216 216 215 216 216 216 215 215 215 216 215
215 215 216 217 217 216 217 217 217 217 217 217 217 217 217 217 217
217 218 217 217 216 186 133 122 122 120 119 119 119 119 120 120 132
122 128 122 125 129 133 123 125 124 127 123 119 119 120 120 122 122
120 121 120 120 122 125 122 122 121 122 124 122 122 121 121 122 123
123 122 123 123 123 123 123 123 123 123 122 123 122 122 122 123 122
122 122 122 122 123 128 126 148 141 125 123 123 123 123 123 124 124
124 126 125 133 125 125 125 125 124 125 126 126 131 134 132 139 140
141 150 151 155 147 152 201 224 224 224 223 224 224 224 225 225 225
226 226 225 225 225 225 225 225 225 225 226 225 225 225 225 225 225
224 224 224 224 224 223 223 223 223 223 223 223 223 223 223 224 224
224 224 224 224 223 224 224 223 223 223 223 222 222 221 222 222 220
220 220 220 220 220 220 220 220 220 219 220 220 220 220 220 220 220
221 221 221 221 221 222 220 222 222 222 222 221 222 222 196 152 144
143 143 143 143 143 142 142 142 141 142 142 141 142 142 141 141 141
141 217 217 217 216 217 216 216 216 216 217 216 216 216 216 216 216
216 216 216 216 216 216 216 216 216 216 216 216 216 216 216 216 216
216 216 217 217 217 216 217 217 216 217 216 217 217 216 216 216 216
217 217 216 216 217 216 217 217 216 216 216 217 216 216 216 217 216
216 217 216 216 216 217 216 216 216 216 216 216 216 216 216 216 216
216 216 216 216 216 216 216 216 216 216 216 216 216 216 216 216 216
216 216 216 216 216 216 215 216 215 215 215 215 215 215 215 215 215
215 216 216 215 216 216 215 216 215 215 215 215 215 216 215 216 216
216 216 217 222 224 224 224 224 224 226 226 228 227 225 219 218 216
215 215 215 215 215 216 216 216 216 216 216 216 216 215 216 216 216
216 216 216 216 216 216 216 216 217 216 216 216 216 216 217 216 216
216 216 216 216 216 217 217 216 217 217 217 217 217 217 217 217 217
217 217 217 217 217 217 217 217 217 217 217 217 217 217 217 217 217
217 217 217 217 217 217 217 217 216 217 217 218 218 218 218 218 218
218 218 218 218 218 218 218 218 218 218 218 218 218 219 219 219 219
218 219 218 218 218 219 217 186 122 119 119 119 119 119 118 119 118
118 119 119 125 124 129 133 127 132 124 123 122 127 143 123 120 120
120 120 121 121 120 120 121 124 120 121 121 121 122 122 122 122 124
121 122 122 122 122 122 123 123 124 128 123 122 122 123 123 122 123
123 122 122 125 123 122 123 124 122 124 129 133 128 124 123 122 124
124 123 122 123 124 124 126 132 125 124 126 125 124 124 125 126 124
140 138 138 139 136 136 144 149 150 150 147 150 196 224 225 226 225
226 225 226 226 226 226 226 227 227 226 227 227 227 227 227 227 226
226 227 227 225 225 225 224 224 224 224 225 224 224 224 225 225 225
225 226 226 226 225 224 225 225 224 224 224 224 223 224 224 223 222
222 221 221 221 221 221 222 221 222 221 220 221 221 221 221 221 221
221 221 221 222 222 221 222 222 222 222 223 228 226 225 222 216 195
152 143 143 143 143 142 143 142 142 142 142 141 142 142 141 141 142
141 141 141 141 141 217 217 217 217 217 217 217 218 217 217 218 217
218 217 216 216 217 216 217 217 217 217 217 216 216 216 216 217 218
218 217 218 217 217 218 218 218 217 218 218 218 218 218 218 217 218
218 218 218 218 218 218 218 218 218 218 218 218 218 218 218 218 218
218 218 218 218 218 218 218 218 218 218 218 218 218 218 218 218 218
218 218 218 218 218 218 218 218 218 218 218 217 218 216 217 217 218
217 216 216 217 217 217 216 216 216 216 217 216 217 216 216 217 216
217 216 217 217 217 216 216 217 216 216 217 216 217 216 217 217 216
217 216 217 216 216 217 218 218 217 218 217 217 218 218 218 218 218
217 218 218 217 217 217 216 217 218 218 217 218 217 217 217 218 218
218 217 218 217 218 218 217 218 217 218 217 218 217 217 218 217 218
217 218 218 218 218 218 218 217 218 219 219 219 218 219 218 218 219
219 218 218 218 219 218 219 218 219 218 218 219 218 219 218 218 218
218 219 219 219 219 219 218 219 220 219 219 221 220 219 220 220 220
220 220 220 220 220 220 220 220 220 220 220 220 220 219 220 220 220
220 220 221 220 220 220 219 220 220 175 128 120 119 118 118 118 119
119 119 119 118 120 125 122 121 123 130 131 133 132 129 123 121 124
132 140 124 120 123 120 121 121 121 121 121 122 121 122 122 121 121
121 121 121 121 121 122 121 122 122 122 124 125 130 131 127 123 122
122 122 123 122 122 125 122 126 125 123 123 122 124 122 131 124 123
122 123 123 123 123 123 123 124 125 124 124 125 125 124 124 124 124
124 124 125 125 128 146 137 129 144 136 135 142 148 149 155 151 153
178 228 227 227 227 227 227 226 227 227 227 228 228 228 228 228 228
227 227 227 227 226 226 226 226 225 225 225 225 225 225 225 226 226
226 226 226 226 226 226 226 226 225 226 226 225 225 224 224 224 223
223 223 223 223 223 222 222 222 222 222 222 222 222 222 222 222 222
222 222 223 223 223 223 223 223 223 223 224 223 225 226 227 232 234
226 161 144 143 143 142 143 142 142 142 142 142 141 141 141 141 141
141 141 141 141 141 141 141 141 141 219 219 219 219 218 219 219 219
218 218 219 219 219 218 218 218 218 217 218 218 217 217 216 217 218
218 218 218 218 218 219 219 219 219 219 219 219 219 219 219 218 219
219 219 219 219 219 219 219 219 219 219 219 219 219 219 219 219 219
219 219 219 219 219 219 219 219 218 218 218 219 217 218 218 218 219
218 219 218 219 218 218 219 218 219 217 218 218 218 218 217 218 218
217 218 218 217 218 218 218 218 217 218 218 217 218 218 218 218 218
218 218 218 218 218 218 218 218 218 217 218 218 218 218 218 218 218
218 218 219 219 218 219 218 219 219 218 219 218 219 218 218 219 218
218 217 218 218 218 218 218 218 219 219 219 218 219 218 219 219 219
219 219 219 218 219 219 219 219 219 219 219 218 219 219 219 219 218
218 218 219 218 218 219 220 220 219 220 219 219 220 219 220 220 220
220 220 220 220 220 220 220 220 220 220 219 220 220 219 219 219 220
220 220 220 219 220 219 219 220 220 219 220 220 221 220 220 221 221
224 224 225 226 226 223 222 221 221 221 221 222 222 222 222 222 222
222 222 222 222 222 223 223 223 222 221 212 162 120 120 120 118 118
119 119 119 119 119 120 119 119 120 127 129 138 120 127 130 135 139
123 124 120 124 131 133 144 129 122 121 122 123 120 120 121 121 122
122 120 121 121 122 121 122 121 121 121 122 122 122 123 123 126 121
125 127 124 122 123 123 122 121 122 122 122 124 122 126 122 129 126
121 123 123 124 124 123 125 123 124 125 123 124 125 124 124 124 124
124 125 127 127 124 124 124 124 125 128 139 143 133 134 141 149 153
148 155 156 151 147 177 227 228 228 228 229 229 229 229 229 229 229
229 229 229 228 228 228 227 227 227 227 227 226 226 226 226 226 227
227 227 227 227 227 227 227 227 226 226 226 226 226 226 226 226 225
225 225 224 224 224 224 223 223 223 223 223 224 223 223 223 223 223
223 223 224 224 224 224 225 224 224 225 225 225 225 225 225 225 225
226 226 227 184 144 143 142 142 142 142 142 142 142 142 141 142 142
142 141 141 142 141 140 142 140 140 140 140 140 140 220 219 219 219
219 220 219 220 219 219 220 219 220 219 219 219 219 220 220 219 219
219 220 219 220 220 220 220 219 220 219 220 219 219 220 219 220 219
220 220 220 219 220 220 220 220 220 220 220 220 220 220 220 220 220
220 220 220 220 220 220 220 220 220 220 220 220 220 220 220 220 220
220 220 220 220 220 220 220 220 219 220 220 220 220 220 220 220 220
220 220 220 220 219 220 220 220 220 220 220 220 220 220 220 220 220
220 220 220 220 220 219 220 220 220 220 220 219 219 219 220 219 218
219 220 220 220 220 221 220 221 220 221 221 221 221 221 221 220 221
219 219 219 219 219 220 220 220 220 220 221 221 221 221 221 221 221
221 221 220 221 221 221 220 220 221 221 221 221 221 221 221 220 221
221 222 221 222 222 222 222 222 222 222 222 222 222 222 222 222 222
222 222 222 222 222 222 222 222 223 222 222 222 222 222 221 222 221
221 222 222 222 222 222 222 222 222 222 222 223 222 222 222 223 222
222 223 223 224 224 226 228 229 229 227 226 224 225 226 226 226 226
223 223 223 224 223 224 223 223 224 222 222 222 215 140 120 121 120
119 119 118 117 119 118 118 118 119 118 119 119 122 119 121 123 136
133 133 136 139 135 120 124 122 123 123 144 128 123 120 121 121 122
121 121 121 121 121 121 121 121 121 122 122 122 121 121 121 122 121
121 125 126 122 122 122 121 122 122 121 122 123 122 123 121 122 123
129 123 125 125 122 123 123 123 123 123 126 122 123 129 126 124 125
124 125 125 124 125 125 125 126 125 124 124 125 126 128 134 126 129
131 136 148 147 151 143 148 151 149 155 145 159 156 217 230 230 230
230 230 230 230 230 230 229 229 229 229 228 228 228 228 228 228 228
228 228 228 229 229 229 229 229 229 228 228 229 228 228 228 228 227
227 227 226 226 226 225 225 225 225 225 225 225 225 225 225 225 225
225 225 225 225 225 225 225 225 225 226 226 226 226 226 226 226 227
227 226 226 226 226 219 149 142 142 143 142 142 141 141 141 141 141
142 142 142 141 140 141 141 141 141 140 138 139 140 140 140 141 141
219 219 219 219 219 219 219 219 219 219 219 219 219 219 219 220 220
219 220 220 220 220 220 220 220 220 220 220 220 220 220 220 221 221
220 220 220 220 220 220 220 220 220 220 220 220 220 220 220 220 220
220 220 220 220 220 220 220 221 220 220 220 220 220 220 220 220 220
220 220 220 220 220 220 220 220 220 221 220 221 220 220 221 221 221
220 220 221 220 220 220 220 220 220 221 220 220 220 220 220 218 220
220 220 220 220 221 220 220 220 220 220 220 220 220 221 220 221 221
220 220 220 221 221 221 221 220 221 221 221 221 221 221 221 221 221
220 220 220 221 220 220 221 220 221 222 221 221 222 221 221 221 221
221 221 221 222 221 221 221 221 222 221 222 222 221 221 222 222 222
222 222 223 222 222 222 222 222 223 222 223 222 223 223 222 223 222
222 222 222 222 222 222 222 222 222 222 222 222 222 222 223 223 222
223 222 222 222 222 223 223 223 223 223 223 223 223 223 223 224 223
224 223 224 224 224 224 224 224 224 226 228 228 229 229 228 230 230
232 233 232 229 226 225 224 224 225 225 225 224 225 223 218 187 120
121 120 119 119 119 118 118 118 118 118 119 118 119 121 118 124 134
120 119 126 136 140 135 137 134 129 123 123 129 123 122 125 124 120
121 122 122 121 122 121 122 122 121 121 121 121 122 122 121 121 122
121 122 121 122 123 125 122 121 122 121 122 122 122 121 122 123 122
123 122 122 129 125 123 122 123 123 123 122 122 122 125 123 123 126
126 123 124 123 123 124 124 124 123 124 124 126 123 124 124 124 125
131 141 142 134 133 132 142 145 141 146 141 143 143 137 130 129 129
131 132 131 159 206 225 230 231 230 230 230 229 229 229 229 229 229
228 229 229 229 229 230 229 229 229 229 229 229 229 229 229 229 229
229 228 227 227 227 227 226 226 226 226 226 226 225 225 226 226 225
225 225 225 226 225 226 226 226 227 226 226 226 226 227 228 227 227
227 227 228 227 228 228 224 196 143 143 142 142 142 141 142 141 141
141 142 142 141 141 140 140 138 138 137 138 138 137 136 136 136 139
140 141 144 142 220 220 220 220 220 220 220 220 220 220 221 220 220
220 220 220 220 220 220 221 221 221 221 221 221 222 220 220 221 221
221 221 221 221 221 221 221 221 221 221 221 221 221 221 221 221 221
221 222 221 221 221 221 221 221 221 221 221 221 221 221 221 221 221
221 221 222 221 221 221 221 221 221 221 221 221 221 221 221 221 221
221 221 221 221 221 221 221 221 221 221 221 221 220 220 221 220 220
221 221 221 221 221 221 221 221 221 221 221 221 221 221 222 221 222
222 221 221 221 222 221 221 221 221 221 222 222 222 222 222 222 222
222 222 222 221 222 221 222 221 222 222 222 222 222 222 222 222 224
222 222 222 222 222 222 222 222 222 222 222 222 222 222 222 222 222
222 223 223 223 223 223 223 223 223 223 223 223 223 223 223 223 223
223 223 223 223 223 223 223 223 223 224 223 223 223 223 223 223 223
223 223 223 224 224 224 224 224 224 224 224 224 224 224 224 224 224
224 224 224 224 225 225 225 225 225 225 225 225 225 225 225 225 226
226 227 228 231 232 231 232 231 231 229 226 227 227 226 224 224 202
155 121 120 120 120 118 119 119 118 118 118 118 118 119 119 119 118
119 118 122 132 129 123 131 138 147 145 137 133 135 123 121 119 120
121 122 120 121 121 121 121 121 122 121 121 121 120 122 122 122 120
121 121 121 127 122 121 121 121 124 123 121 123 123 122 122 121 122
125 122 123 122 124 122 122 123 122 123 124 123 123 122 123 124 125
126 124 123 124 123 124 125 123 124 125 127 124 123 122 124 124 124
125 125 125 126 125 125 125 130 138 138 130 134 137 144 150 149 151
150 147 133 128 131 132 132 131 136 147 154 184 230 230 230 230 230
230 230 230 230 230 230 230 230 231 231 230 230 230 230 230 230 230
229 229 228 228 228 227 227 227 227 227 227 226 226 226 226 226 226
226 226 226 226 226 226 227 227 226 227 227 227 227 227 227 227 227
228 228 228 228 228 228 228 228 228 200 143 142 142 141 141 141 141
141 141 141 141 141 141 141 140 138 137 137 137 136 136 136 136 135
135 135 136 136 136 136 135 136 220 220 220 220 221 220 220 220 220
220 220 220 221 221 220 221 221 221 221 221 221 221 221 221 221 221
221 221 221 221 221 221 221 221 221 221 221 221 221 221 221 221 221
221 221 221 221 221 221 221 221 221 221 221 221 221 221 221 221 221
221 221 221 221 221 221 221 221 221 221 221 221 221 221 221 221 221
221 221 221 221 221 221 221 221 221 221 221 221 221 221 221 221 221
221 221 221 221 221 221 221 221 221 221 221 221 221 221 221 221 221
221 221 222 222 222 222 222 222 222 222 222 222 222 222 222 222 222
222 222 222 222 222 221 221 222 222 222 222 222 222 222 223 222 222
223 223 223 223 223 223 223 223 223 223 223 223 223 223 223 223 222
223 224 224 223 223 224 224 224 224 224 224 224 224 224 224 224 224
224 224 224 224 224 224 224 224 224 224 224 225 224 224 224 224 224
224 224 225 225 224 225 225 225 225 225 225 225 225 225 225 225 225
225 225 225 225 225 225 225 225 225 225 225 225 225 226 226 226 226
227 227 227 227 227 227 228 228 229 229 230 230 230 230 229 228 226
212 167 120 120 120 120 119 118 118 118 118 117 117 118 117 120 118
118 119 119 119 118 118 119 118 132 123 126 129 140 141 134 141 131
124 121 121 122 121 120 120 121 121 121 121 121 122 122 120 122 120
120 122 122 121 122 120 120 120 121 122 122 121 122 121 121 123 122
121 121 122 123 122 122 123 123 122 122 122 124 124 122 122 122 123
123 123 122 123 124 124 122 123 122 123 123 124 124 124 123 125 124
123 124 124 126 126 127 127 124 125 126 127 125 128 127 125 126 129
138 142 139 145 151 153 156 147 141 130 128 135 141 141 142 145 140
142 208 232 231 230 230 231 230 231 231 231 231 232 231 231 231 231
231 230 230 230 230 229 229 228 228 228 227 227 227 227 227 227 227
227 227 227 227 227 227 227 227 227 227 227 227 227 227 222 214 196
190 194 208 207 207 222 222 222 222 226 228 228 187 143 142 142 142
141 141 141 142 140 140 141 140 139 138 137 136 137 136 136 137 135
136 136 136 135 135 136 136 135 135 135 135 136 220 220 220 220 221
221 221 221 221 221 221 216 193 167 156 154 164 165 160 161 160 174
202 202 215 221 221 221 221 221 221 221 221 221 221 221 221 221 222
221 222 222 222 222 222 221 222 222 222 222 222 222 222 222 222 222
222 222 222 222 222 222 222 222 222 222 222 222 222 222 222 222 222
222 222 222 222 222 222 222 222 222 222 222 222 222 222 222 222 222
222 222 222 222 222 222 222 222 222 222 222 222 222 222 222 222 222
222 222 222 222 222 222 223 223 223 223 223 223 223 223 223 223 223
223 223 223 223 223 223 223 223 223 223 223 223 223 223 223 222 223
223 223 224 224 224 224 224 224 224 224 224 224 224 224 224 224 224
224 224 224 224 224 224 225 225 225 225 225 225 225 225 225 225 225
225 225 225 225 225 225 226 225 225 225 225 225 225 225 225 225 225
225 225 225 225 225 225 226 226 226 226 226 226 226 226 226 226 226
226 226 226 226 226 226 226 226 227 227 227 227 227 227 227 227 227
227 227 227 227 227 227 227 227 227 227 227 227 226 226 228 229 228
228 227 221 140 122 121 119 119 119 118 118 120 120 117 118 118 118
118 117 118 119 119 118 117 118 117 117 119 117 120 119 120 119 123
139 136 132 128 122 122 122 121 120 120 120 121 121 120 121 120 121
120 120 122 121 123 120 120 122 121 121 120 121 121 121 121 122 121
121 122 122 122 122 124 123 128 122 122 131 127 122 122 123 122 125
123 122 124 123 122 122 124 122 125 122 125 123 123 122 122 123 122
123 123 124 124 123 123 124 124 124 125 127 126 125 124 127 127 125
124 125 124 124 125 130 126 134 142 137 136 138 149 140 132 130 134
135 149 151 146 147 140 148 183 226 231 231 231 231 231 231 232 232
232 231 232 232 231 231 231 229 229 228 228 228 228 228 228 228 228
227 227 227 227 227 227 227 227 228 228 228 228 228 228 229 198 155
144 134 133 133 133 133 132 133 135 136 134 139 151 150 160 171 146
136 135 136 137 136 137 138 140 138 137 136 136 136 136 136 136 135
136 136 136 136 136 135 135 134 134 134 134 134 134 134 135 135 220
220 220 220 213 209 198 191 151 137 138 138 138 136 140 128 142 142
139 145 141 140 138 134 136 140 144 146 144 144 145 148 162 188 203
215 221 221 221 221 221 221 221 221 221 221 221 221 221 221 221 221
221 221 222 222 222 222 222 222 222 222 222 222 222 222 222 222 222
222 222 222 222 222 222 222 222 222 222 222 222 222 222 222 222 222
222 222 222 222 222 222 222 222 222 222 222 222 222 222 222 222 222
222 222 222 222 222 223 223 223 223 223 223 223 223 223 223 223 223
223 224 223 223 224 223 223 223 223 223 223 223 223 223 223 223 223
223 223 223 223 223 224 224 224 224 224 224 224 224 224 224 224 224
224 224 224 224 224 224 224 224 224 225 225 225 225 225 225 225 225
225 225 225 225 225 225 225 225 225 225 225 225 225 225 225 225 225
225 225 225 225 225 225 225 226 226 226 226 226 226 226 226 226 226
226 226 226 226 226 226 226 226 226 226 226 227 226 227 227 227 227
227 227 227 227 227 227 227 227 227 227 227 227 227 227 227 226 226
225 225 224 224 218 175 125 120 121 120 119 118 118 119 120 119 118
117 117 118 118 118 117 118 118 117 117 118 119 117 118 118 120 119
120 118 120 119 119 134 142 124 121 121 122 122 120 122 120 120 121
120 121 120 120 120 120 120 120 120 120 121 121 122 121 120 121 121
121 121 121 122 122 123 122 127 122 122 125 122 128 129 131 126 125
123 123 123 122 124 122 121 120 122 122 123 124 125 129 123 122 123
123 123 122 122 122 123 123 124 123 123 123 124 124 124 125 124 124
124 124 124 124 124 124 126 127 125 125 124 126 136 132 143 142 147
148 153 145 147 142 134 137 143 154 153 135 141 145 177 225 232 232
231 231 231 231 231 231 230 230 230 230 229 230 228 228 228 228 228
228 228 228 228 227 227 227 227 227 228 228 228 228 228 225 221 193
134 132 132 132 132 134 136 136 137 135 133 132 132 134 134 134 132
134 138 140 143 141 149 142 135 140 137 135 136 139 136 136 136 136
136 136 136 136 136 136 136 135 136 136 135 135 134 135 136 136 135
136 136 136 217 199 150 133 127 138 143 138 132 131 128 132 135 134
139 143 141 145 145 136 128 132 137 140 144 150 150 150 142 134 137
146 151 151 151 149 149 161 191 216 220 221 221 221 221 221 220 220
220 221 221 221 221 221 221 221 221 221 221 222 221 221 221 221 221
221 221 221 221 221 221 221 221 221 221 221 221 221 221 221 221 221
221 221 221 221 221 221 221 221 221 221 221 221 221 221 221 221 221
222 222 222 222 222 222 222 222 222 222 222 222 222 222 222 222 222
222 222 222 222 222 222 222 222 222 222 222 223 223 223 223 223 223
223 223 223 223 223 223 223 223 223 223 223 223 223 223 224 224 224
224 224 224 224 224 224 224 224 224 224 225 225 225 225 225 225 225
225 225 225 225 225 225 225 225 225 225 225 225 225 225 225 225 225
225 225 225 225 225 225 225 225 225 226 225 225 226 226 226 226 226
226 226 226 226 226 226 226 226 226 226 226 226 226 226 226 226 225
226 227 227 227 227 227 227 227 227 227 227 227 227 227 227 226 226
226 225 225 224 224 224 223 193 129 121 120 122 120 119 119 120 119
119 119 118 118 118 118 118 117 118 117 118 119 118 119 119 124 134
119 119 124 119 119 119 120 120 119 119 127 122 124 121 126 124 120
120 120 120 120 121 121 121 120 121 122 122 121 121 122 120 121 121
121 122 121 123 122 125 122 128 121 127 130 126 129 128 121 122 122
131 128 122 122 126 123 121 122 126 121 121 121 123 125 121 126 124
125 122 122 123 122 122 123 122 123 123 123 124 124 123 123 124 124
124 124 124 124 124 124 124 124 124 125 125 125 124 125 124 125 125
128 133 132 141 142 138 145 149 141 142 145 141 141 144 142 144 150
147 152 226 231 231 231 231 230 230 229 229 229 228 228 228 228 227
227 227 227 227 227 227 227 227 227 227 227 227 227 227 228 228 228
175 140 132 132 132 133 132 133 133 138 134 132 132 133 134 136 133
133 134 134 133 133 132 133 136 136 137 138 141 141 137 139 136 138
136 135 135 135 135 135 135 136 135 135 135 134 135 134 135 135 135
134 135 135 135 135 135 134 127 128 127 127 130 134 130 129 127 125
126 132 132 133 142 147 142 141 141 134 127 133 139 145 144 141 145
143 136 132 137 137 151 157 157 143 144 146 151 154 153 176 206 215
220 220 220 221 220 220 220 220 220 220 220 220 220 220 220 220 216
208 202 191 183 183 184 185 184 183 184 185 186 204 211 216 220 221
221 220 221 221 221 221 221 221 221 221 221 221 221 221 221 221 221
221 221 221 221 221 222 222 222 222 222 222 222 222 222 222 222 222
222 222 222 222 222 222 222 222 222 222 222 222 222 223 223 223 223
223 223 223 223 223 223 223 223 223 223 223 223 223 223 223 223 223
223 224 224 224 224 224 224 224 224 224 224 224 224 224 224 224 224
224 224 225 225 225 224 224 224 224 224 224 224 225 225 224 225 225
225 225 225 225 225 225 225 225 225 225 225 225 225 226 225 225 225
225 225 225 225 225 225 226 226 226 226 226 226 226 226 226 226 226
226 226 226 226 227 227 227 227 227 227 227 227 227 227 227 227 226
226 226 225 224 224 224 223 224 223 218 154 122 119 120 120 119 119
119 119 119 120 119 118 118 118 119 118 119 120 120 118 118 118 118
119 121 122 120 126 119 120 120 120 122 120 123 118 120 120 122 121
121 122 127 123 123 122 120 121 120 120 120 122 120 121 124 121 122
122 120 122 121 121 121 121 122 124 124 130 128 129 133 128 127 129
126 122 122 122 131 122 122 122 122 121 121 123 123 120 127 121 122
123 124 124 122 122 122 122 122 122 122 123 123 122 123 124 123 123
123 123 123 123 124 125 124 124 124 126 126 124 124 124 124 124 129
132 133 140 139 137 135 136 135 136 130 131 133 133 139 147 142 139
139 140 138 144 149 145 157 225 229 229 229 229 228 228 228 227 227
227 227 227 226 226 226 226 226 226 226 226 226 226 227 227 227 227
227 211 156 135 133 132 132 132 132 132 132 132 132 134 133 132 132
133 133 134 139 132 132 134 134 135 133 132 138 137 136 135 135 132
133 132 137 141 138 134 134 134 136 135 135 134 135 135 135 135 134
135 134 134 134 133 135 134 134 134 133 134 131 130 128 128 130 127
128 124 124 129 144 126 124 125 141 141 135 128 131 137 136 148 134
143 148 142 139 142 143 149 143 143 148 149 146 145 152 158 153 154
149 154 153 157 152 166 200 214 220 220 220 220 220 220 220 220 206
173 154 145 145 142 134 139 148 147 145 142 138 144 144 145 148 150
145 148 150 164 174 201 217 220 220 220 220 220 220 220 220 220 221
221 221 221 221 221 221 221 221 221 221 221 221 221 221 221 221 221
221 221 221 221 221 221 221 221 221 222 221 222 222 222 222 222 222
222 222 222 222 222 222 222 222 222 222 222 222 222 222 222 222 222
223 223 223 223 223 223 223 223 223 223 223 223 223 223 223 223 223
223 224 223 223 223 223 223 223 224 224 224 224 224 224 224 224 224
224 224 224 224 224 224 224 224 224 224 224 224 224 224 224 224 224
221 220 220 221 221 221 220 220 221 220 220 221 222 221 221 221 221
221 221 221 221 221 222 222 222 221 222 222 222 221 221 222 222 221
221 221 220 219 219 219 218 218 219 218 218 218 189 129 121 122 121
120 119 119 120 119 119 118 119 119 118 118 118 120 121 121 118 120
118 119 118 118 119 126 123 139 147 132 121 119 120 121 122 121 121
120 120 122 121 121 121 122 123 125 122 121 121 120 120 120 120 120
121 122 121 121 121 122 121 122 121 123 121 122 121 126 130 129 131
132 128 126 124 124 122 122 121 121 121 121 123 121 121 123 124 122
122 123 121 122 121 122 122 123 123 123 123 123 123 123 123 123 124
124 126 122 123 124 123 124 124 123 123 123 123 124 124 124 125 125
124 124 124 125 125 125 124 123 123 123 123 123 123 124 124 125 127
129 128 139 148 144 138 150 141 149 147 148 148 204 227 227 226 226
226 226 226 226 225 226 225 225 225 225 225 226 225 225 226 226 226
226 217 173 152 132 132 131 132 132 132 132 132 131 130 132 132 132
132 132 132 136 144 146 139 133 133 133 136 133 135 133 133 134 133
134 133 132 135 134 133 134 134 134 134 135 137 138 136 136 135 135
135 135 135 133 135 134 134 134 136 133 133 133 133 135 137 163 148
146 145 144 147 147 151 149 147 144 142 141 142 139 140 145 148 149
148 150 148 145 147 147 145 152 154 159 154 151 156 158 158 158 158
173 175 175 173 172 189 189 189 189 187 194 194 194 207 207 205 205
204 204 206 206 205 203 204 205 205 204 204 205 205 205 205 204 204
205 205 206 206 206 206 205 206 206 206 206 205 205 204 205 205 205
204 204 205 204 204 204 204 205 203 204 204 204 204 204 204 204 204
204 204 204 204 204 204 206 205 204 206 205 205 205 206 206 205 206
206 205 205 205 205 204 206 206 206 206 206 207 206 206 205 206 204
205 206 206 207 206 207 207 206 206 206 206 205 205 206 207 204 204
206 206 206 206 207 207 207 207 207 207 207 208 207 208 206 206 207
208 208 207 207 208 207 208 206 206 206 206 208 209 206 206 206 208
207 207 206 209 209 209 210 210 208 208 209 208 210 211 208 207 207
207 207 208 208 209 210 208 207 206 208 208 210 209 210 209 208 208
209 209 209 209 210 209 209 209 210 210 209 207 208 210 210 209 207
207 207 202 184 158 158 155 148 148 141 118 117 118 117 117 117 120
119 118 119 116 116 117 118 117 118 119 120 120 130 119 119 123 124
118 120 121 121 121 121 121 121 120 122 121 121 122 120 121 121 121
120 120 119 120 120 120 120 120 121 121 120 120 120 121 121 121 122
122 125 124 128 128 127 124 124 122 121 122 122 122 122 122 122 121
125 126 123 122 122 121 121 121 122 122 122 122 122 122 122 122 123
122 122 122 123 122 122 122 123 124 123 124 124 123 123 123 123 123
123 123 129 142 141 148 135 133 134 130 133 128 126 127 126 126 126
126 126 126 126 137 138 137 140 147 150 148 151 160 163 162 175 164
195 198 199 214 215 215 214 214 215 215 215 213 213 214 213 213 212
215 189 153 153 152 150 151 150 149 148 147 146 143 140 140 140 140
141 138 131 130 132 132 132 138 139 138 143 140 132 132 134 137 134
132 133 132 133 133 135 135 136 135 134 135 138 136 134 134 136 138
136 135 134 135 134 134 134 134 132 133 133 132 132 132 133 133 132
132 133 200 200 200 201 200 199 199 200 199 199 199 199 200 200 199
201 201 202 201 201 201 201 202 200 201 201 202 202 202 202 202 202
202 201 201 201 201 201 201 201 200 201 200 201 200 199 200 200 201
201 200 200 200 200 201 202 201 200 202 201 201 201 201 203 202 203
202 201 200 201 201 201 202 203 203 203 203 203 204 203 201 200 200
198 198 198 198 198 198 199 200 202 204 203 204 204 202 202 203 204
204 204 204 204 201 200 199 200 202 202 203 202 202 204 200 200 199
199 200 199 200 200 203 203 203 203 202 204 205 201 201 202 201 202
203 203 202 202 200 202 201 201 202 203 203 202 203 203 204 202 203
203 203 203 202 202 201 202 202 201 202 201 201 201 202 202 202 202
202 204 204 203 204 202 203 202 203 203 204 203 204 203 204 204 204
204 204 204 205 203 204 204 204 205 202 202 203 202 202 202 202 202
202 203 204 205 205 205 205 205 205 205 205 204 203 204 205 206 204
205 206 206 205 205 205 205 206 205 206 204 205 205 205 206 207 207
207 208 207 206 208 208 208 208 208 208 209 207 207 206 204 203 200
192 183 183 158 136 134 125 117 116 116 116 116 116 117 117 119 121
120 120 120 123 126 134 134 134 134 134 129 128 125 125 124 124 124
122 122 122 122 122 119 119 119 120 120 120 119 120 119 119 120 119
119 120 121 121 122 122 122 122 122 122 120 120 120 120 121 120 120
121 120 121 120 120 120 120 120 120 120 120 121 122 123 122 122 123
123 123 123 123 124 123 122 122 122 121 122 122 122 122 122 123 123
127 127 127 127 127 127 127 127 130 133 133 135 136 136 138 138 138
148 149 135 143 173 173 173 173 200 206 208 208 207 208 208 209 210
214 212 213 212 213 214 212 215 215 215 214 212 213 213 213 213 211
211 212 212 210 210 210 210 211 210 210 212 212 212 211 211 210 210
208 207 207 207 207 205 203 201 197 196 191 186 186 186 187 194 196
196 197 198 192 191 194 195 195 195 197 197 197 195 190 190 167 165
159 159 158 158 158 138 138 137 136 136 137 137 136 137 134 134 134
132 133 132 132 133 132 197 196 196 196 196 196 202 196 195 194 193
195 198 201 202 201 200 199 199 196 196 196 195 197 197 197 195 200
201 201 200 196 196 195 193 199 200 197 197 198 197 197 197 200 199
198 199 199 199 199 199 198 198 199 198 198 197 199 198 199 199 200
200 200 199 200 200 199 199 202 202 201 199 198 198 198 202 201 201
198 198 200 200 198 197 199 197 197 198 198 198 199 198 197 197 197
198 198 196 195 199 200 200 201 204 203 202 202 201 197 195 197 200
200 199 200 199 198 197 197 197 198 200 201 202 202 201 200 198 197
198 196 195 197 196 195 198 197 196 197 197 200 202 199 198 197 198
198 201 199 198 199 198 198 199 198 198 200 199 199 198 199 198 198
199 199 200 195 197 196 203 203 203 202 200 200 199 200 200 202 203
203 202 203 201 197 196 198 197 197 198 198 204 204 204 201 195 194
199 200 200 199 198 198 199 200 206 209 209 206 202 202 201 201 202
201 200 200 200 201 202 203 205 204 202 200 200 200 200 199 204 205
200 200 199 200 200 201 196 197 197 197 200 202 201 201 202 202 202
202 201 202 202 201 202 194 189 186 186 186 186 158 138 131 137 139
140 124 116 116 117 117 118 120 127 127 130 132 132 126 126 125 125
126 126 126 126 121 118 118 117 118 117 117 117 117 118 118 118 119
119 119 119 119 119 119 119 120 119 119 120 120 120 121 121 120 120
122 121 119 119 119 119 119 120 120 120 119 119 120 120 120 121 121
120 120 120 121 121 120 120 121 121 121 121 121 121 121 124 122 123
123 122 124 126 127 127 127 129 132 133 134 134 136 148 155 162 162
166 176 182 203 207 206 205 204 210 210 207 210 209 210 209 209 211
208 208 210 211 212 211 211 211 211 212 210 212 214 213 213 213 214
213 214 214 212 212 211 211 208 209 208 208 209 209 210 210 209 209
209 211 210 210 211 210 209 208 208 207 206 205 205 205 205 205 206
204 205 204 205 205 206 205 204 204 204 203 203 204 203 204 204 201
196 195 190 188 195 179 175 176 158 154 154 154 154 157 153 143 138
141 146 146 146 141 138 139 139 137 135 197 196 196 196 195 194 195
194 190 190 190 190 191 191 192 194 194 193 193 194 194 194 196 195
196 195 196 197 195 194 193 194 192 192 192 193 194 195 194 194 193
193 194 196 194 194 195 195 201 200 200 198 195 193 189 189 192 195
194 192 192 192 192 193 193 195 194 193 194 195 190 186 188 196 199
199 199 194 193 192 193 196 197 198 200 200 199 200 198 193 192 192
194 192 192 195 196 196 196 196 194 194 197 198 198 199 196 194 193
193 193 194 196 197 197 200 199 198 199 192 189 189 189 191 191 195
196 195 196 199 198 195 193 190 192 194 196 195 195 201 200 200 197
198 198 197 196 196 197 194 191 193 192 192 196 196 196 196 194 194
197 198 200 200 201 202 202 196 200 198 198 198 198 197 197 198 200
194 194 193 192 198 198 198 196 195 195 196 189 189 189 191 193 198
202 202 201 199 200 199 199 195 195 196 195 196 200 200 200 200 200
197 196 193 200 204 205 205 206 205 201 199 200 199 198 197 197 201
203 204 204 202 200 200 197 194 194 196 200 199 200 200 196 195 195
197 200 201 200 197 194 192 196 200 199 198 198 192 189 186 182 178
158 156 166 160 140 119 120 116 121 122 121 124 126 127 127 126 125
124 125 131 133 126 126 130 129 120 119 118 118 118 118 118 116 116
117 118 118 118 118 118 117 118 118 118 119 119 120 120 118 119 119
119 119 119 120 121 120 118 119 119 118 118 119 118 118 118 118 118
120 121 120 121 121 121 121 121 121 120 120 120 120 120 124 132 133
133 123 122 122 122 122 123 124 150 151 155 156 146 153 152 152 165
173 191 196 197 200 202 202 201 202 204 206 206 208 207 207 208 205
203 202 210 209 208 208 210 208 210 207 205 210 210 211 211 211 209
208 210 211 211 210 209 209 212 212 208 206 211 212 214 213 211 206
205 205 209 211 210 210 208 207 207 206 207 205 206 206 206 206 205
206 205 205 204 202 203 206 205 205 204 203 203 203 203 203 203 202
200 199 200 200 198 197 195 196 196 195 199 196 194 194 193 189 172
172 174 177 171 171 172 164 160 159 159 144 144 137 140 193 192 194
195 195 191 191 192 191 186 185 190 192 186 183 185 187 183 191 196
201 200 202 198 198 198 196 193 193 190 196 193 193 194 196 195 195
194 194 195 194 194 194 190 190 196 202 204 205 202 191 189 191 192
194 194 195 195 196 195 193 192 195 202 198 196 196 194 194 191 191
190 190 190 191 191 191 193 192 194 194 194 195 195 194 200 193 189
188 187 186 198 197 197 196 192 193 192 196 199 200 198 195 194 192
195 195 195 190 191 193 193 194 194 194 194 196 195 195 199 195 197
197 194 188 191 195 194 193 195 197 197 195 191 191 191 192 192 191
183 184 184 186 190 191 195 198 198 196 193 194 194 193 192 195 194
192 194 193 195 199 196 195 196 195 194 194 193 192 192 194 195 195
199 204 204 204 198 200 201 202 202 200 199 198 195 190 188 185 183
186 186 186 193 194 196 193 197 198 196 194 193 192 191 188 187 190
190 194 192 194 194 191 190 189 193 193 193 192 192 192 193 200 200
196 197 194 195 193 196 200 199 196 196 192 188 192 195 198 196 199
202 199 202 202 200 197 202 199 191 190 186 178 184 194 192 181 179
183 191 181 181 179 181 179 175 176 159 142 133 129 126 125 126 126
138 137 118 121 123 123 126 127 129 132 136 133 128 126 120 119 118
117 120 118 119 119 118 117 123 126 137 135 135 120 120 121 120 120
120 119 119 124 123 124 123 121 118 118 118 118 118 120 118 119 128
129 123 127 140 142 142 123 123 124 125 121 120 120 120 121 135 138
138 138 120 120 119 119 119 127 129 132 134 143 149 148 146 152 167
169 169 174 179 186 190 186 178 193 194 197 197 198 204 204 204 202
203 206 208 212 211 209 206 205 204 205 208 210 208 206 208 208 209
208 208 209 209 210 208 206 204 212 213 214 209 206 205 208 211 214
210 205 204 204 203 204 204 204 204 206 206 207 207 205 206 204 202
204 205 204 205 204 204 205 203 202 205 206 206 204 200 199 202 202
202 202 202 200 199 198 197 198 199 196 196 198 196 197 196 194 191
187 182 176 176 176 176 175 172 174 178 184 179 166 156 157 156 155
155 193 194 194 194 194 188 185 185 183 183 195 195 196 196 192 190
188 188 188 188 186 186 186 186 187 186 186 192 192 192 191 190 194
198 198 195 193 191 193 193 194 196 196 194 188 192 192 192 190 188
192 199 200 198 194 193 192 196 201 199 196 194 194 194 196 196 191
189 194 196 194 194 196 198 198 196 189 189 188 190 188 188 190 195
194 195 197 200 192 192 191 189 189 189 191 189 187 188 185 187 190
190 190 192 191 193 198 197 198 198 196 195 195 194 192 192 188 188
190 192 194 191 191 191 192 195 191 189 188 186 186 187 184 183 182
183 186 192 192 192 192 192 192 192 192 191 195 197 190 185 186 185
189 194 192 192 192 192 198 200 200 200 200 190 184 187 187 186 190
193 197 197 196 199 194 191 191 191 190 187 183 183 183 183 190 199
200 200 200 198 186 185 186 187 188 190 189 192 194 193 194 191 190
188 190 190 193 195 186 185 186 193 192 203 207 209 204 202 196 186
184 188 191 192 191 189 188 186 185 192 197 196 196 198 198 194 194
190 194 195 196 200 198 196 196 197 192 200 196 192 189 186 182 183
187 190 194 192 191 186 182 185 182 187 177 172 165 158 169 157 152
154 136 127 142 151 149 154 152 142 132 132 142 150 142 126 128 120
117 118 128 129 130 123 130 133 124 121 121 120 121 128 134 134 134
137 137 132 132 131 130 144 148 148 148 146 132 129 130 130 126 123
129 131 130 130 133 134 133 132 133 127 135 156 156 156 153 130 120
120 120 122 120 132 142 143 145 131 141 131 132 131 136 136 153 164
165 175 181 180 176 173 173 175 181 182 185 188 185 185 189 190 193
193 196 198 198 200 200 197 204 206 206 206 206 200 198 197 197 197
200 204 203 205 207 205 204 204 206 205 204 204 204 204 203 204 205
205 205 204 204 204 204 204 203 205 204 202 204 205 208 208 207 208
204 202 201 199 199 200 206 203 203 204 205 200 202 200 200 199 198
197 196 196 196 196 199 200 200 200 197 196 196 196 193 193 187 188
185 189 188 186 182 187 185 186 187 187 185 173 169 169 169 169 174
170 172 172 172 161 187 192 192 192 192 191 191 191 188 179 181 181
181 191 192 192 192 192 190 187 188 189 191 190 195 191 192 191 190
192 190 190 190 194 194 192 190 194 194 193 191 189 190 188 186 185
188 184 185 184 185 189 195 194 191 189 189 188 186 186 187 188 188
187 188 189 191 188 188 187 187 184 186 191 189 190 188 187 185 174
175 177 177 179 180 184 185 186 186 194 194 194 194 195 196 191 189
185 184 183 184 186 181 186 186 187 193 195 185 182 182 182 190 189
186 190 188 188 188 185 189 193 194 194 190 187 186 186 191 193 186
191 190 189 190 188 184 178 178 179 178 179 181 185 185 187 185 186
196 186 184 185 188 187 187 191 192 194 194 190 183 185 185 190 190
191 195 191 192 192 185 181 178 191 198 200 188 187 184 180 180 181
188 191 193 196 195 194 193 193 195 196 195 192 190 184 186 186 186
188 185 188 193 196 197 196 194 186 184 186 184 186 187 192 186 187
179 186 186 188 188 190 190 190 191 190 196 194 185 181 187 191 191
192 195 196 194 188 188 187 188 188 184 188 187 186 186 187 188 194
200 204 203 196 192 187 180 179 179 175 164 162 171 174 170 157 168
169 157 150 147 150 152 152 166 166 164 163 166 154 156 152 151 151
151 155 158 151 154 160 157 141 130 128 129 130 128 125 138 139 138
135 135 134 119 120 123 130 133 136 144 141 137 133 131 127 122 118
119 124 122 120 121 120 141 164 148 144 137 138 133 148 146 146 147
143 142 136 144 145 142 140 132 132 137 140 148 154 154 156 154 155
156 166 147 148 160 158 159 177 185 185 171 178 178 183 181 180 202
202 204 195 190 192 194 194 199 201 200 200 200 200 203 202 204 206
204 203 203 200 196 197 198 198 203 199 196 199 198 201 200 206 208
210 208 203 205 207 206 204 205 203 203 200 199 199 196 198 206 202
201 204 205 205 206 206 204 204 202 203 202 201 201 202 203 202 201
198 189 187 196 200 202 201 197 194 193 193 193 198 197 196 197 194
197 194 187 186 180 169 167 173 187 187 187 187 190 185 177 176 177
177 176 169 174 172 176 175 174 176 193 196 196 189 186 185 186 188
193 193 184 185 187 186 189 192 192 196 191 191 192 202 202 201 201
196 191 187 174 185 184 186 184 182 185 186 196 195 195 194 192 188
179 176 182 191 194 194 190 179 184 186 178 177 188 194 193 191 191
190 188 183 181 187 192 193 192 184 182 184 185 185 183 183 185 185
185 183 184 193 200 198 183 186 188 192 191 185 180 177 177 186 188
188 187 190 187 186 182 186 185 188 186 182 182 185 188 189 190 192
196 195 196 183 179 180 179 183 185 180 179 177 176 181 184 182 188
182 183 183 183 189 192 189 173 173 173 181 180 178 184 188 188 183
190 190 191 191 190 189 180 173 174 177 198 187 187 182 176 176 176
177 178 178 181 184 186 189 193 181 181 188 181 182 183 187 188 187
187 182 181 184 191 191 188 188 186 186 189 193 193 191 199 198 198
196 195 183 182 190 192 193 192 192 197 199 181 174 200 201 185 184
181 183 183 185 185 187 181 180 184 188 185 183 185 197 192 184 185
184 188 188 188 184 185 184 183 186 188 192 194 200 188 181 186 192
186 186 198 194 186 188 188 192 187 186 186 188 181 178 165 168 166
168 170 173 173 185 175 163 156 156 154 160 156 161 160 156 159 159
157 146 139 138 133 131 128 141 141 142 142 121 121 118 141 136 128
132 125 125 124 121 131 132 135 142 141 140 139 137 138 151 140 116
120 140 148 148 139 138 135 142 160 148 148 124 125 123 123 124 128
131 156 158 156 151 144 142 136 128 128 129 130 132 141 148 143 136
143 147 161 159 158 162 166 169 172 169 166 168 171 170 167 167 172
175 176 172 180 179 188 183 182 183 186 182 182 193 191 196 199 194
187 187 194 192 205 206 196 192 195 196 193 199 201 197 194 205 209
203 200 200 200 200 201 202 201 200 199 200 200 201 200 201 202 201
203 196 194 200 203 203 203 202 199 198 200 202 201 203 202 199 194
193 194 199 201 203 203 202 200 195 194 193 194 196 195 189 187 192
199 204 193 190 192 186 185 188 189 194 194 190 186 180 191 191 172
170 173 172 173 175 178 181 179 167 162 160 160 177 177 178 185 188
194 193 191 191 181 178 180 183 188 189 184 182 176 178 178 174 187
186 185 175 175 180 186 187 190 180 183 194 192 192 193 183 186 186
193 195 186 183 175 172 189 187 191 190 186 182 170 182 184 177 184
188 188 187 185 181 189 193 191 188 193 191 195 187 192 188 186 184
182 180 179 180 183 187 186 180 179 178 174 184 184 185 184 185 188
185 178 176 191 194 192 197 199 193 184 183 187 194 196 196 196 188
188 189 190 189 186 186 179 182 183 187 186 194 195 182 176 182 184
185 190 189 186 180 191 192 182 180 188 188 187 187 178 181 186 187
176 179 186 184 182 180 182 184 185 184 183 178 181 176 178 178 177
183 187 184 185 192 182 183 183 181 176 179 184 177 176 181 200 196
191 183 180 195 194 186 180 184 184 185 189 177 177 192 185 192 192
185 183 182 181 185 179 172 176 180 181 183 184 185 186 185 185 189
189 190 190 188 186 182 185 188 186 180 182 178 184 185 178 188 200
206 194 195 191 183 183 185 186 189 199 200 203 206 197 196 195 191
187 186 186 184 184 188 177 172 172 177 169 184 173 180 182 179 185
172 173 168 170 170 174 169 160 162 183 161 148 145 160 145 146 150
162 141 151 151 148 154 149 150 147 148 144 151 147 137 120 120 120
122 122 122 152 150 148 155 153 148 151 147 140 145 143 136 145 151
152 146 133 128 128 129 135 132 130 129 135 134 134 136 138 138 151
136 140 144 145 137 139 137 128 127 120 123 133 138 139 146 145 139
149 151 152 153 153 154 155 157 151 150 150 148 158 162 161 174 182
188 189 189 190 188 188 190 191 190 188 190 189 188 189 187 192 192
191 189 197 199 206 197 196 195 196 193 193 192 203 213 210 207 186
187 186 197 206 210 212 206 200 199 195 189 200 205 205 203 194 197
201 201 200 202 201 199 196 196 198 204 199 198 198 196 198 197 197
197 193 193 193 193 186 183 190 194 193 198 199 200 190 186 188 196
195 195 195 205 201 190 191 198 194 195 195 186 187 188 186 186 185
185 184 191 183 172 172 170 174 183 173 175 176 177 173 172 172 166
184 182 183 179 184 183 181 183 185 192 188 184 183 172 182 185 185
180 173 168 168 168 170 167 174 184 177 172 187 188 190 190 185 191
190 181 176 187 188 187 184 172 176 186 189 187 185 184 187 189 190
184 186 182 180 185 185 172 176 177 178 192 193 190 185 188 188 188
185 187 184 187 185 190 187 185 178 180 184 188 185 180 190 187 185
185 194 199 197 177 173 182 187 182 181 178 179 180 185 189 189 191
189 194 198 189 176 177 187 198 200 200 190 181 186 184 177 175 176
171 172 176 182 187 187 186 189 180 180 183 179 178 184 200 193 181
164 171 183 197 193 192 188 175 174 182 181 181 186 182 180 171 184
186 186 185 188 190 200 201 196 175 177 184 191 178 177 182 192 176
169 170 175 181 184 186 188 183 176 177 176 178 182 182 183 182 180
184 185 184 182 180 181 185 187 182 189 189 191 178 189 193 194 182
168 166 163 166 180 180 177 173 182 186 185 178 172 184 185 184 180
181 182 181 178 176 166 167 170 177 185 190 188 186 187 190 193 198
198 187 185 189 188 184 177 166 165 166 187 184 188 187 182 182 182
179 172 175 179 181 173 174 177 182 179 180 177 168 172 173 175 170
171 174 172 165 149 148 147 144 142 138 135 135 153 140 158 157 151
130 134 139 142 138 129 130 139 156 164 160 159 158 152 149 149 133
128 136 137 135 138 128 122 123 136 148 145 144 140 149 146 146 146
146 147 150 142 136 153 152 149 156 156 165 164 158 159 160 166 165
158 144 137 144 140 134 129 138 152 149 162 173 158 173 169 175 174
182 183 184 181 182 180 182 186 187 188 188 182 181 190 196 195 194
189 192 198 201 201 202 201 190 186 187 194 184 186 193 198 201 199
196 193 187 190 197 200 195 207 202 197 194 191 196 194 194 202 208
213 209 206 201 202 202 204 210 206 206 206 195 198 198 199 190 196
195 194 190 194 192 193 197 199 197 197 197 192 185 181 181 198 193
192 191 190 192 193 196 192 191 193 193 192 189 190 188 188 182 191
197 197 196 190 187 186 186 185 183 181 178 178 180 182 182 183 180
170 171 171 170 198 199 194 190 184 173 173 174 174 172 168 168 170
174 185 186 194 196 189 184 181 181 187 186 185 185 182 179 189 185
186 188 180 180 178 178 178 179 180 184 177 179 178 174 176 175 164
168 176 185 183 191 190 186 181 169 171 170 174 173 172 172 180 185
194 190 186 178 177 179 178 175 169 164 176 180 183 184 185 188 189
189 186 177 181 193 186 163 165 172 178 188 185 181 176 178 182 181
181 184 175 184 188 182 193 182 176 191 198 184 179 181 182 178 174
188 181 180 190 186 185 185 185 187 183 183 180 182 188 185 179 177
184 181 181 184 181 175 174 174 177 184 184 182 177 180 190 190 196
180 186 186 188 189 187 181 178 164 193 180 178 182 185 180 168 166
176 188 190 190 183 182 183 179 174 183 195 191 184 172 176 183 184
179 167 169 174 195 188 185 182 183 183 182 177 178 190 191 165 164
183 185 185 169 173 177 176 177 174 175 172 173 171 180 185 186 178
167 181 181 180 176 188 187 183 181 178 181 182 184 183 179 175 175
177 176 178 178 178 178 185 185 185 184 184 190 200 201 177 175 186
188 191 190 190 181 182 169 171 170 165 167 170 167 165 165 171 176
164 148 148 149 141 142 142 137 144 147 148 146 145 138 134 134 133
144 157 155 154 149 147 140 148 142 136 140 128 145 142 158 148 144
144 139 140 155 156 158 145 141 132 136 145 154 152 148 146 146 151
159 162 158 146 134 128 126 131 150 150 152 145 146 159 160 159 160
159 160 161 159 160 162 158 154 150 153 166 165 160 159 150 138 136
155 159 168 167 165 164 154 163 164 171 174 170 167 166 163 170 185
187 188 183 177 181 191 191 193 183 197 195 196 201 196 199 200 196
190 192 197 196 202 194 193 190 189 200 207 202 196 196 185 187 192
194 195 196 198 199 194 195 195 192 188 190 194 197 202 202 199 198
182 181 195 198 187 181 192 191 201 194 192 191 188 194 195 202 204
194 189 185 182 192 200 197 194 199 197 199 200 200 199 193 193 193
191 192 192 191 186 184 184 183 183 182 182 169 166 182 181 178 175
176 176 175 182 172 169 165 167 184 184 177 180 180 174 173 183 189
170 194 195 183 177 188 175 167 179 179 176 182 190 192 192 189 183
176 180 181 178 173 180 180 180 180 176 172 176 182 186 185 174 177
176 173 159 173 182 188 186 188 186 178 179 186 186 177 167 164 165
163 177 172 172 169 168 169 168 167 167 174 180 174 174 172 174 180
168 173 169 170 176 177 175 179 183 184 187 182 179 181 176 163 163
171 174 175 179 180 180 179 181 173 169 168 172 173 168 177 178 170
164 169 177 177 170 168 170 178 183 180 171 171 162 160 169 179 181
171 170 168 159 163 172 165 196 190 180 191 188 188 184 179 180 181
180 176 175 176 174 173 173 169 164 160 160 169 165 169 173 184 176
169 166 174 180 182 180 171 173 173 186 188 175 178 180 175 167 178
164 161 160 169 174 188 178 182 189 181 177 179 178 175 166 172 180
182 186 188 198 191 172 184 194 193 200 181 170 172 176 179 177 178
173 162 174 174 175 178 180 180 175 168 159 168 172 174 176 173 176
178 178 180 189 188 190 197 188 185 167 171 186 187 188 170 171 179
186 183 181 177 179 185 163 167 169 166 182 172 170 171 170 166 169
170 164 161 155 158 160 164 170 155 158 164 164 152 139 153 158 158
152 141 141 156 158 170 168 171 176 170 149 141 140 138 140 155 142
142 143 135 130 155 157 158 156 154 138 137 140 153 151 154 154 160
159 147 149 151 146 145 155 158 153 152 150 144 153 163 148 146 141
147 148 129 147 146 142 143 154 155 157 160 158 165 169 166 166 165
158 162 161 156 152 158 148 141 146 162 161 176 176 171 169 173 183
194 193 190 189 176 188 187 183 186 179 182 185 185 191 189 188 197
192 192 190 188 185 196 193 191 193 195 188 191 187 184 183 188 186
184 194 190 191 193 192 190 193 186 192 193 191 195 185 187 193 190
192 198 193 190 194 196 196 197 196 196 197 196 193 194 187 179 184
192 197 195 196 195 198 179 187 189 167 185 195 195 195 185 184 179
178 194 194 194 184 182 174 174 178 186 187 168 161 173 183 186 179
179 177 171 168 167 170 171 170 166 166 165 169 176 177 176 170 176
179 174 178 173 172 165 176 174 170 170 177 188 189 175 179 178 174
186 188 178 172 173 179 177 182 162 161 170 180 179 180 182 186 161
164 162 158 171 162 160 165 170 170 170 156 170 173 176 176 186 187
184 185 181 173 174 171 173 172 172 176 176 177 191 193 185 167 167
172 180 177 174 184 180 177 177 182 186 173 176 176 160 159 156 158
161 172 174 174 165 161 160 159 162 161 158 154 165 169 169 173 175
170 169 172 173 181 182 175 167 164 175 173 168 165 163 163 161 162
164 171 170 177 181 175 176 178 177 182 174 174 191 182 170 168 166
175 182 186 189 180 177 180 170 168 180 184 177 168 178 184 186 188
192 180 180 167 165 166 171 164 172 182 179 170 170 176 179 179 182
180 183 189 188 181 172 174 174 178 178 177 171 167 160 160 170 180
181 174 174 175 185 176 171 165 160 178 183 178 175 177 179 179 171
174 176 177 177 179 186 187 187 184 182 178 174 176 177 171 177 186
188 190 177 176 180 195 198 188 179 183 188 188 188 170 166 169 170
163 159 160 166 168 166 164 161 171 173 172 173 176 163 173 175 172
165 170 172 165 163 167 168 156 156 157 159 127 139 165 173 175 170
167 165 155 154 151 138 130 144 144 142 159 164 160 159 158 160 166
165 154 152 141 136 147 144 144 162 161 158 152 143 140 145 135 125
146 146 139 151 144 132 139 148 153 146 146 155 159 159 163 156 153
145 144 149 162 148 139 137 152 164 161 157 144 147 153 149 152 169
171 166 158 154 153 146 148 156 159 162 168 170 158 155 151 149 156
161 179 178 180 178 178 181 183 186 184 183 182 181 180 182 184 182
184 185 187 188 194 180 180 187 192 193 190 187 184 181 181 181 190
193 194 181 184 187 190 188 188 194 191 205 206 204 198 176 176 186
194 192 197 199 192 184 189 192 196 196 185 189 192 193 191 188 183
181 184 185 186 191 193 197 195 191 194 188 184 185 190 196 180 190
193 188 184 184 184 180 178 180 183 189 188 182 180 181 182 182 179
179 181 187 181 182 185 186 185 181 183 173 159 163 165 168 169 178
180 176 168 168 173 174 184 180 177 164 168 179 180 179 172 182 180
179 167 164 164 170 170 172 167 168 168 168 164 164 166 170 169 161
161 167 174 179 176 165 162 162 175 177 174 173 175 177 180 175 171
171 174 169 169 172 167 168 170 166 164 168 175 172 174 175 175 168
169 164 170 174 174 176 178 175 171 170 166 171 174 170 164 166 168
170 171 168 175 175 178 179 178 179 182 183 176 177 177 177 176 174
176 175 177 166 179 187 180 173 187 167 163 169 174 179 176 176 173
170 166 174 184 186 184 183 184 177 176 175 170 168 164 178 174 178
169 172 174 173 169 166 168 170 168 168 174 174 174 189 195 190 174
189 188 186 180 179 187 190 183 177 170 166 163 161 171 166 159 172
170 172 175 165 168 188 183 164 162 163 175 169 166 157 151 165 190
196 194 195 196 188 172 188 185 172 179 171 159 159 168 175 183 175
161 159 175 181 177 185 186 186 185 173 178 176 181 178 185 167 172
170 167 173 175 171 171 167 158 170 176 166 160 160 168 174 177 183
180 180 182 175 172 171 173 168 166 162 162 160 175 171 167 168 178
184 174 171 172 163 166 165 161 172 172 170 161 160 160 170 170 176
174 162 152 155 161 158 147 140 139 142 138 145 152 157 135 130 153
128 122 140 155 163 162 146 142 134 142 140 138 134 141 144 142 140
143 158 159 160 151 153 156 162 152 152 151 156 158 158 152 142 144
148 148 148 153 156 156 153 162 157 159 151 156 158 154 144 141 142
143 145 149 165 166 175 169 169 162 166 169 171 173 171 162 161 162
170 172 171 168 172 171 176 174 176 183 168 171 171 175 178 171 174
172 177 176 174 189 185 183 194 194 193 189 191 188 166 169 177 190
189 180 170 171 178 185 189 186 188 198 193 192 187 180 182 184 181
178 185 195 199 188 188 190 196 203 205 202 202 200 193 192 191 184
180 174 188 194 186 179 179 184 184 183 188 188 185 187 191 191 192
195 191 181 188 189 179 185 189 191 181 181 192 190 183 180 182 184
184 177 190 192 189 184 184 183 179 179 180 182 182 182 178 177 177
174 172 175 172 176 179 177 179 180 192 192 193 174 169 169 176 170
171 168 170 170 176 172 175 177 164 166 169 185 183 183 180 180 177
166 167 169 167 166 171 190 188 184 176 168 172 155 157 161 164 174
175 173 162 160 164 166 164 160 165 162 167 179 177 174 164 168 168
170 169 168 177 182 178 185 181 180 166 159 162 163 163 160 179 169
172 158 173 182 184 179 176 183 183 185 193 193 194 192 187 188 181
179 182 182 184 175 175 172 183 186 192 190 187 180 170 167 166 167
167 165 161 167 169 160 152 165 170 173 173 172 171 173 175 183 168
181 185 167 176 182 181 178 190 181 178 168 175 187 177 172 170 171
168 166 161 160 160 175 178 177 160 160 170 169 160 160 162 167 162
164 163 160 169 173 165 166 168 185 185 191 184 180 181 192 195 189
187 185 191 175 160 160 161 163 160 173 170 167 184 177 172 153 162
163 162 159 160 166 164 164 167 155 153 151 158 158 152 159 161 162
172 174 174 180 187 187 195 195 195 188 182 182 180 175 176 174 167
167 167 173 172 173 163 158 157 172 173 170 154 155 155 171 178 178
157 156 156 165 166 163 165 172 170 167 156 157 159 162 163 164 161
160 157 162 165 166 168 159 156 133 132 130 133 133 134 135 134 135
135 131 133 138 147 145 150 138 139 136 135 137 150 142 141 140 148
152 155 158 159 151 152 146 145 146 150 147 139 135 134 133 127 128
143 158 158 146 141 138 149 154 154 144 149 154 151 146 154 160 162
158 154 160 160 161 158 151 151 138 138 149 166 157 154 151 151 152
152 157 163 157 155 163 165 171 166 165 163 167 174 182 182 184 186
187 186 190 189 183 186 190 181 175 175 177 182 188 192 191 187 183
186 191 191 183 184 177 178 182 179 175 173 180 190 196 199 195 193
199 204 198 200 205 208 206 198 195 199 202 199 195 189 189 192 182
176 176 180 182 181 184 183 184 184 182 184 185 186 183 194 195 194
194 194 196 184 190 190 189 189 192 196 188 188 186 192 192 192 190
187 186 186 187 190 177 174 175 178 178 180 182 182 182 177 176 177
171 161 162 165 165 165 159 182 158 160 171 174 176 174 170 178 178
175 165 162 170 177 174 172 176 176 175 181 175 169 168 175 175 177
183 173 172 177 176 176 158 153 159 157 157 153 154 160 167 171 172
172 188 186 181 178 180 170 162 154 157 158 154 162 163 166 165 172
175 161 164 163 166 161 152 174 180 181 181 184 178 171 155 166 171
165 154 160 167 164 161 165 170 175 181 178 187 181 178 181 170 174
178 179 176 178 177 168 159 156 155 171 172 170 171 160 160 171 157
155 157 162 166 162 167 182 182 175 177 182 180 168 169 165 163 162
157 156 173 180 172 169 168 173 171 162 164 163 172 159 160 156 156
158 161 157 168 174 175 167 161 159 156 156 159 159 166 167 169 174
172 154 164 170 165 166 176 177 173 154 153 157 163 161 165 172 168
175 160 154 153 154 151 156 161 164 150 150 168 173 171 168 171 168
168 175 168 170 174 168 169 174 170 171 177 163 154 155 167 178 183
174 173 180 178 184 162 160 151 156 155 153 145 154 156 154 155 153
155 159 160 161 155 159 158 157 167 169 180 167 164 161 177 181 182
169 172 172 167 162 162 162 165 166 160 143 156 156 168 172 167 156
146 170 166 154 164 164 152 143 138 147 146 140 142 148 161 162 171
174 171 174 172 164 163 159 155 153 154 158 160 159 154 154 154 152
150 151 143 147 147 146 144 144 148 165 169 165 160 161 160 149 141
148 149 155 164 160 151 144 141 148 145 144 150 162 168 165 158 156
156 156 153 153 157 153 160 165 158 158 159 160 160 157 155 155 155
156 165 164 171 169 170 172 170 165 162 162 165 162 161 158 158 165
174 184 182 179 178 178 184 166 163 167 183 186 187 168 179 178 179
196 203 199 190 181 182 185 180 180 193 190 176 173 172 178 186 193
193 178 178 177 175 175 176 179 176 179 176 176 174 178 178 181 185
180 184 187 186 187 188 184 184 188 190 182 181 194 194 193 185 183
188 179 169 155 170 181 183 184 184 184 182 189 186 184 188 170 168
171 175 173 168 175 177 183 184 180 175 177 176 178 176 172 181 178
176 178 176 176 173 162 160 155 156 160 163 175 176 177 169 159 157
156 171 176 171 170 159 161 170 185 185 163 163 174 175 179 179 168
166 169 175 176 179 166 163 162 171 189 187 180 172 162 161 159 167
168 168 178 185 185 173 176 170 172 176 176 178 162 166 166 173 184
154 150 167 168 168 171 171 168 173 155 183 182 178 181 183 178 172
172 168 182 179 176 174 175 168 171 163 155 162 161 163 162 171 179
186 187 172 169 162 163 161 163 165 167 154 171 166 159 160 163 174
168 164 162 168 167 161 170 169 160 170 183 178 175 180 181 184 182
170 166 166 170 165 169 170 155 151 162 169 182 184 182 170 169 169
166 172 174 176 173 155 156 162 161 155 154 151 161 164 170 166 167
166 162 158 160 158 155 163 164 165 164 168 182 170 165 163 161 173
181 181 163 176 177 176 186 191 201 177 172 166 153 151 154 156 187
160 158 157 162 157 160 168 163 159 189 188 179 172 169 168 163 175
178 157 170 173 176 176 148 144 146 165 169 168 171 164 168 178 182
173 190 191 187 184 173 169 175 178 176 170 156 156 152 152 160 172
178 178 169 167 172 174 180 171 172 167 160 151 150 171 166 168 153
160 165 161 155 153 143 134 143 135 136 146 138 139 159 163 162 157
159 155 154 155 147 140 148 151 155 150 146 154 152 157 154 157 157
157 163 161 156 158 158 156 146 153 155 154 151 153 154 152 155 155
155 156 156 156 153 149 145 144 147 153 164 153 148 144 143 159 158
158 154 150 147 147 154 153 157 155 159 156 152 140 139 137 143 146
158 154 158 156 161 158 158 161 165 160 159 157 160 168 171 171 164
165 168 176 177 174 178 182 180 183 178 175 165 173 187 175 171 174
176 187 182 171 174 182 184 181 184 176 169 178 176 178 180 184 190
196 190 182 181 184 175 170 174 174 172 179 178 180 183 195 198 193
186 176 183 187 171 169 177 186 180 182 179 180 183 182 187 181 180
183 187 190 189 190 188 186 183 185 184 186 185 182 181 180 177 177
190 195 194 193 181 180 181 176 177 188 186 185 181 181 178 178 182
181 177 176 175 177 175 177 178 170 172 176 178 176 171 171 176 182
180 179 162 163 165 162 169 172 168 171 176 176 170 165 162 162 164
176 176 171 157 164 162 162 157 153 157 157 163 168 171 170 158 161
164 172 160 158 156 162 162 161 164 165 174 178 175 169 166 168 160
180 186 184 165 149 150 161 162 144 141 145 157 153 154 166 173 173
170 160 162 168 170 171 167 169 173 166 167 171 192 176 173 164 158
158 160 169 173 174 173 173 158 169 167 158 159 161 159 160 161 159
141 131 134 147 172 180 178 177 181 189 181 181 186 184 180 163 165
174 173 179 190 187 180 173 174 175 183 179 172 175 169 165 163 166
170 156 153 155 164 160 161 166 164 156 156 162 158 159 164 153 155
157 157 150 143 147 154 165 167 163 173 171 181 167 157 156 159 164
161 160 160 156 167 169 172 173 166 170 170 159 156 156 157 156 164
171 176 161 158 161 159 159 161 172 165 163 165 159 157 162 156 154
155 155 150 150 148 144 147 148 166 168 174 166 183 189 182 173 185
184 179 175 174 187 184 184 166 156 162 160 163 165 171 164 168 161
161 168 173 173 174 174 171 169 167 164 165 162 163 154 146 148 145
138 142 143 154 160 157 165 151 144 139 147 158 161 163 157 151 151
148 146 143 145 156 157 158 144 144 152 149 153 147 148 146 145 139
148 152 145 144 144 138 141 149 148 152 152 159 161 168 153 149 148
146 139 137 134 142 153 155 153 151 152 154 152 154 145 150 160 146
145 151 157 162 162 155 156 155 161 156 152 147 156 150 145 146 147
154 156 150 144 141 144 144 146 152 149 148 136 131 130 136 154 163
163 162 176 177 171 166 165 166 172 162 158 160 166 170 168 173 176
174 172 164 176 186 183 186 175 172 171 181 174 172 176 190 184 184
179 172 176 180 179 166 165 162 168 165 164 171 180 192 191 183 182
176 179 160 182 186 188 182 187 189 193 194 184 182 176 169 171 172
170 176 171 171 172 188 187 185 190 187 188 185 186 188 188 182 190
191 191 184 180 184 180 182 182 183 180 172 179 180 182 184 185 184
178 170 167 166 176 181 173 175 160 167 172 174 169 163 162 163 160
151 153 183 182 176 171 174 177 168 155 163 163 164 158 174 169 179
168 168 163 160 171 177 179 184 176 166 164 160 160 159 152 178 172
158 160 153 155 152 154 153 159 162 159 154 147 150 148 155 152 158
168 171 163 164 164 165 166 167 167 178 172 175 176 170 168 164 165
165 174 177 177 169 168 170 167 158 167 180 181 182 174 171 166 164
165 163 168 158 155 156 150 152 156 161 160 142 149 154 173 152 153
154 166 163 165 171 178 176 175 175 177 165 166 172 161 150 144 161
160 154 158 156 149 140 151 146 150 151 176 175 172 168 169 170 169
160 150 152 158 163 164 163 159 153 163 166 150 147 164 160 149 152
154 151 145 147 166 169 167 160 163 152 144 141 142 147 146 158 168
161 159 169 178 170 172 175 169 168 166 146 142 159 160 177 183 173
177 152 148 153 151 157 171 159 167 183 191 180 172 162 158 152 167
175 181 184 168 169 180 182 177 168 170 172 157 180 165 161 154 152
157 163 155 156 150 154 156 157 156 153 154 148 149 143 156 158 152
158 163 164 170 174 179 176 163 160 147 149 154 163 164 163 162 168
165 166 162 170 164 162 156 158 153 159 153 151 156 152 146 143 141
149 154 154 157 152 154 153 151 156 153 152 144 137 133 142 145 142
142 141 138 138 137 136 138 149 151 153 149 142 145 144 146 144 143
142 147 154 154 155 144 140 140 140 145 150 151 150 145 148 150 151
146 144 142 145 145 150 150 146 147 147 149 149 142 142 145 145 149
150 154 142 141 149 154 135 131 134 136 140 158 167 169 172 168 166
166 170 164 164 162 161 173 170 158 140 153 150 156 165 178 172 168
159 142 164 183 186 176 166 166 168 166 165 162 170 167 174 185 187
187 178 174 175 176 187 183 180 178 185 187 194 184 183 192 195 186
177 177 181 181 184 183 179 178 177 188 174 175 174 169 173 178 167
161 158 162 181 190 190 195 190 196 196 194 186 185 186 188 189 188
181 178 183 181 183 174 177 178 174 175 179 180 173 165 171 176 181
180 181 179 172 173 175 178 170 165 160 157 168 171 171 172 181 180
176 174 179 181 184 185 168 174 171 173 153 158 166 167 165 167 165
172 173 170 169 156 152 156 153 150 150 170 174 175 183 172 161 155
158 156 160 164 173 181 179 179 178 172 173 172 172 182 184 184 184
188 186 173 176 164 173 177 189 186 185 190 176 179 166 174 174 170
175 172 169 164 160 160 157 155 154 149 147 147 166 150 150 146 157
156 155 158 178 172 170 165 163 150 149 146 149 135 134 130 138 152
155 159 146 151 155 156 164 167 155 148 151 150 169 172 175 176 184
193 185 178 179 179 190 193 188 192 183 179 177 179 172 161 184 190
172 174 165 167 156 160 142 135 142 148 155 152 136 145 146 141 128
139 142 138 133 142 153 161 160 165 166 168 167 166 171 172 182 186
173 150 152 152 156 161 158 153 157 167 177 172 173 155 163 166 171
170 172 170 164 146 143 146 150 166 159 158 160 164 169 163 168 152
160 156 154 143 142 149 151 154 166 162 162 167 169 176 183 164 159
154 154 141 142 152 139 135 139 141 146 149 163 160 160 148 165 145
167 150 143 146 151 154 164 169 175 176 173 168 153 148 146 154 157
152 147 143 152 156 153 154 150 154 164 154 152 155 161 169 150 151
153 159 169 164 149 144 147 152 156 157 156 152 151 152 146 154 147
152 150 138 146 146 137 132 124 131 138 140 146 154 135 126 126 141
132 136 146 165 161 154 151 128 137 143 143 139 143 146 144 147 147
148 147 147 143 152 154 152 144 155 158 158 154 152 153 156 149 145
145 148 152 156 160 161 158 146 138 142 143 145 151 152 154 154 157
153 153 156 158 155 153 154 160 158 145 146 145 154 164 170 186 182
173 161 160 162 165 175 184 180 177 186 178 193 181 167 169 184 176
166 167 182 181 183 188 206 190 174 172 180 180 170 165 172 176 178
184 190 168 173 185 188 188 186 189 192 197 195 191 189 184 184 198
193 184 188 187 190 185 190 190 186 171 173 182 174 178 179 175 172
174 174 180 179 173 167 166 164 176 180 180 165 163 166 171 178 178
187 188 178 176 164 158 169 164 166 160 169 171 172 167 174 177 175
179 174 166 166 175 180 173 174 174 176 171 166 175 177 164 155 155
151 151 151 146 145 147 150 150 160 158 165 166 162 164 161 156 156
155 155 162 166 163 165 161 160 158 154 157 162 161 149 158 158 158
153 165 163 158 158 142 141 144 142 141 158 164 159 161 170 174 161
152 153 152 156 156 154 148 148 146 148 146 163 168 166 168 171 173
173 170 149 151 170 163 165 158 170 164 176 171 170 176 186 168 158
164 164 166 163 160 161 168 167 163 165 158 152 149 150 151 147 140
136 148 155 140 150 159 160 159 169 176 174 168 170 169 167 166 144
148 151 154 176 182 184 183 160 160 162 158 160 154 154 158 155 150
158 165 178 175 174 171 171 170 179 165 160 159 159 154 153 147 144
158 164 170 180 157 170 144 156 146 168 157 168 158 150 152 143 147
149 142 149 146 143 149 155 155 159 161 168 175 171 162 164 160 160
154 163 182 178 156 151 166 173 163 159 165 162 155 150 148 171 171
154 142 157 164 165 166 163 160 157 154 160 163 162 162 157 164 162
162 164 155 151 170 183 175 155 164 156 156 145 144 161 161 167 170
170 170 168 160 159 158 165 178 178 166 164 159 158 160 158 157 155
162 168 164 152 157 171 172 133 133 141 141 150 148 152 153 150 148
139 151 152 149 153 151 150 145 136 143 140 146 148 151 144 139 133
134 135 136 146 145 141 128 152 154 148 146 150 150 153 149 155 154
165 155 155 156 152 147 133 142 150 152 152 150 148 146 144 140 143
145 150 157 154 148 140 143 141 141 144 150 148 138 148 140 152 141
145 150 150 150 147 142 150 162 160 165 166 166 152 173 171 169 171
172 175 174 177 180 184 184 181 173 170 170 171 169 162 163 163 167
172 162 162 158 161 169 160 161 169 171 172 172 175 178 179 192 178
187 186 186 183 181 182 172 170 166 174 173 171 177 170 172 171 168
171 187 178 163 190 188 184 185 181 175 175 170 171 181 180 178 179
187 194 182 182 182 176 173 168 166 168 166 165 163 170 178 181 183
173 181 183 182 185 192 191 186 184 175 174 170 170 169 167 174 177
178 167 164 158 158 173 175 176 176 171 160 163 169 166 156 159 159
160 173 175 173 169 170 175 173 152 153 145 134 133 141 144 143 139
142 148 150 138 136 134 139 154 162 153 162 172 183 182 182 163 147
151 144 142 143 133 140 140 148 149 150 148 150 159 161 158 159 152
154 153 152 152 145 139 145 145 154 152 144 143 145 147 150 150 157
168 156 156 153 158 160 145 144 149 145 142 143 153 158 142 147 142
139 146 145 148 146 145 150 151 157 172 161 150 154 154 158 157 160
150 138 139 146 154 153 148 144 150 144 163 159 153 148 148 162 161
172 178 167 165 165 152 136 143 138 132 143 141 141 137 128 118 137
137 140 141 138 145 145 150 143 159 159 168 161 153 154 156 161 163
161 159 153 157 161 155 140 163 153 145 132 145 152 149 142 140 136
128 133 146 148 145 154 158 148 149 138 139 147 153 150 138 137 144
148 144 137 138 143 145 144 137 139 144 146 147 148 170 171 166 164
152 145 160 160 159 141 146 131 126 127 142 142 137 136 133 132 122
118 127 134 140 147 147 143 141 138 138 155 168 165 149 159 162 162
157 156 150 144 152 148 148 141 139 141 141 153 161 158 149 148 173
172 164 154 145 142 140 142 141 148 148 150 150 150 143 148 163 163
162 162 146 137 141 142 136 132 135 152 153 143 126 132 146 144 146
149 144 140 153 150 148 148 147 141 138 136 134 143 151 153 153 151
145 146 132 138 152 147 146 156 153 154 148 152 147 143 147 143 142
137 142 150 134 137 147 127 138 145 143 141 134 127 146 147 146 152
142 153 150 147 149 149 145 144 146 156 159 159 159 158 170 158 153
146 153 153 163 158 138 164 162 160 162 152 173 175 150 154 157 164
162 161 179 180 182 200 192 192 190 192 195 184 181 180 172 161 159
148 155 139 158 168 166 164 167 181 178 177 159 157 154 157 152 157
161 192 184 179 187 183 186 184 177 177 168 158 156 158 171 161 162
175 182 179 179 182 177 181 178 176 177 173 180 184 185 176 181 191
198 194 193 184 186 186 182 177 176 177 177 174 161 161 161 161 172
180 182 177 181 176 178 167 169 181 174 174 175 172 174 173 171 170
174 153 142 142 140 146 159 153 164 174 165 158 164 152 162 161 171
164 153 158 183 170 161 166 166 168 164 174 173 148 150 157 148 148
160 158 177 179 185 181 181 170 170 167 168 172 180 177 171 169 166
171 174 162 159 163 144 166 163 164 169 162 178 161 159 162 150 158
160 163 169 150 143 147 146 148 148 139 147 149 152 160 165 165 169
169 160 159 161 155 168 173 162 171 173 160 161 160 173 153 147 141
143 147 145 151 151 150 146 153 164 160 178 154 158 159 157 168 156
156 147 134 138 151 147 147 146 152 152 154 170 170 167 159 170 177
168 150 152 157 162 154 158 159 158 162 175 176 163 162 166 146 148
140 150 174 180 167 162 162 151 159 150 140 146 149 157 147 147 143
142 149 172 172 164 156 154 156 152 161 151 136 134 133 142 146 146
149 155 137 129 130 136 148 162 154 144 147 153 156 156 141 137 153
144 145 145 143 157 150 147 146 148 166 170 176 177 183 182 184 175
175 175 172 179 175 179 192 192 170 172 157 151 150 167 172 151 155
153 150 149 138 135 145 151 156 147 145 156 154 152 143 144 142 142
137 144 130 134 143 162 165 162 164 160 153 158 154 153 143 154 150
167 146 148 158 164 166 165 165 162 160 151 150 148 146 151 153 152
145 143 134 144 136 133 134 126 119 124 128 130 134 136 146 143 132
138 148 158 156 152 139 144 144 148 150 148 146 141 133 136 140 119
116 128 124 127 147 151 160 140 147 153 149 147 147 123 125 123 140
149 144 151 152 142 142 144 142 147 141 150 154 152 145 140 146 142
145 147 148 157 164 163 165 163 157 156 156 146 151 158 162 159 165
163 159 166 169 166 174 176 177 183 183 170 172 164 164 171 155 154
162 187 189 188 188 187 193 192 187 179 178 185 189 188 184 175 185
181 182 193 197 194 194 196 179 177 170 150 149 173 178 187 186 183
179 178 185 188 191 190 183 182 176 169 169 166 163 176 178 177 175
174 174 179 184 179 179 186 182 175 171 165 170 172 166 169 176 179
177 176 176 171 171 159 153 161 166 158 159 161 168 171 174 166 166
169 169 171 168 168 159 155 159 170 159 164 163 163 173 169 170 181
178 173 158 166 168 170 146 166 151 155 163 170 165 174 169 172 176
169 162 162 157 169 160 161 159 159 164 158 152 145 151 165 149 140
138 135 126 126 136 142 154 147 154 154 154 152 144 153 153 155 154
151 160 148 136 136 144 145 145 153 167 170 172 172 175 180 181 166
176 167 170 170 161 162 167 166 161 164 167 165 160 155 151 152 145
153 157 169 174 152 133 138 135 131 124 128 139 137 134 140 141 139
132 131 131 131 134 127 130 138 137 132 138 137 131 130 139 159 149
157 159 148 148 144 146 152 157 161 155 156 158 141 141 138 142 146
152 162 157 154 150 147 151 166 173 166 156 163 162 157 154 158 163
148 147 154 159 160 153 152 147 143 141 142 176 179 171 173 169 170
158 164 173 176 176 166 171 175 164 156 140 147 141 147 150 151 164
171 160 151 138 150 154 161 169 171 171 168 186 169 162 149 156 155
152 152 151 150 158 157 163 162 155 151 152 152 151 154 155 156 157
146 148 148 143 149 149 141 152 159 150 143 142 148 154 166 166 167
172 173 160 160 160 152 145 154 135 139 145 149 145 145 137 144 149
149 146 149 141 157 154 151 160 150 148 134 137 140 139 142 142 142
133 144 141 135 132 136 142 150 141 142 143 148 153 150 140 142 135
139 130 140 141 132 129 129 133 133 120 121 127 125 128 151 152 147
148 148 145 145 149 151 149 142 137 135 134 131 130 140 145 146 146
141 138 128 133 141 124 140 146 150 126 117 127 123 125 144 143 158
160 154 144 142 169 173 165 157 155 146 140 144 154 154 151 146 157
162 158 173 178 171 160 160 154 154 162 166 164 165 162 162 163 154
154 168 166 157 171 173 166 171 176 176 171 162 158 163 158 152 154
163 153 149 160 165 165 162 159 168 176 174 168 180 190 171 172 170
160 158 158 159 151 152 155 155 153 158 167 166 176 177 177 175 164
165 181 180 174 157 167 168 167 170 179 171 156 159 173 167 165 162
162 176 173 172 169 169 170 171 167 163 163 170 174 171 172 169 171
168 166 165 166 167 168 172 173 175 163 163 166 164 156 152 156 154
143 144 154 153 146 136 141 148 150 148 123 126 132 134 134 129 133
144 147 147 154 155 156 154 151 156 156 144 137 136 139 147 141 156
158 160 168 167 181 181 182 157 170 163 158 175 180 175 170 165 157
146 149 143 136 140 136 133 143 138 142 153 158 156 123 130 137 133
140 139 141 147 149 163 161 156 149 151 139 140 142 149 154 155 150
150 151 134 136 141 141 147 150 147 138 144 149 149 152 150 149 152
152 153 138 138 148 160 156 143 146 161 163 159 151 146 178 168 164
160 148 140 136 135 133 142 146 144 142 138 143 144 141 146 158 152
149 150 148 150 146 140 136 141 137 132 132 139 138 133 130 125 127
124 129 145 148 161 158 160 158 146 151 152 150 130 125 146 155 154
170 156 156 142 132 134 134 134 118 120 131 127 134 129 131 139 137
136 120 129 130 128 132 136 137 137 144 145 134 130 146 138 148 150
156 151 139 151 141 131 133 127 128 129 128 132 133 142 140 136 131
121 133 139 137 156 152 153 159 150 143 144 140 143 146 159 165 162
153 162 157 151 143 150 130 138 140 129 123 134 135 150 165 159 164
164 152 157 154 150 134 122 124 135 138 135 142 141 135 126 136 152
160 151 138 150 145 148 152 142 138 142 145 146 136 122 136 154 147
144 150 147 149 148 152 154 150 145 146 137 146 149 146 147 133 126
127 130 137 131 124 126 112 116 129 137 133 126 127 127 127 127 127
134 135 128 136 131 135 146 142 142 142 142 140 135 135 144 142 139
138 143 140 137 150 127 128 144 128 137 148 148 149 148 140 139 141
142 143 146 150 150 158 158 166 178 175 158 161 175 178 177 168 166
165 155 157 168 168 154 157 170 173 173 167 172 172 165 158 153 147
156 170 170 174 182 174 176 181 182 182 169 164 165 166 167 159 157
155 152 154 159 189 186 177 183 175 185 186 185 191 189 188 176 179
183 176 173 170 166 162 156 159 168 172 167 165 165 160 158 156 155
154 165 175 173 174 180 176 171 175 166 159 167 166 164 168 172 172
180 163 173 168 162 169 174 171 170 157 156 152 146 152 150 148 144
141 141 148 144 145 144 150 143 143 151 154 162 170 172 172 168 162
157 164 150 157 156 138 158 164 166 166 164 181 167 148 167 162 165
169 146 170 159 158 156 156 156 147 145 141 141 138 142 136 131 132
134 148 161 166 150 153 156 153 157 156 156 159 156 165 168 161 153
163 162 147 149 136 127 129 130 141 135 128 135 136 137 143 141 135
137 135 130 132 133 141 154 165 149 156 157 134 151 160 149 174 180
186 182 168 178 179 166 166 162 171 187 151 164 156 151 166 153 148
142 128 129 131 132 133 133 142 162 166 166 143 143 168 157 170 158
135 141 122 132 136 132 132 130 132 142 182 174 170 159 151 147 146
150 146 151 154 150 154 142 150 162 160 154 148 141 137 136 139 138
141 134 132 120 127 124 124 137 131 120 123 125 142 134 140 146 157
157 163 174 172 169 174 167 171 153 146 137 137 138 142 140 143 135
125 135 134 125 120 118 118 119 123 158 142 137 132 137 135 130 136
137 141 140 142 142 141 144 141 138 137 136 141 145 148 151 144 128
135 137 125 121 122 130 129 124 127 135 142 142 141 139 134 134 142
132 127 126 120 119 121 131 144 138 128 132 134 133 138 147 136 140
144 138 132 145 151 141 138 129 128 135 128 126 134 147 140 137 138
142 139 146 141 140 140 135 142 155 149 147 142 138 129 136 138 147
154 163 156 146 153 138 138 135 124 148 147 148 148 140 150 148 133
138 142 143 142 137 143 141 139 133 131 126 149 162 150 147 154 151
144 146 161 154 148 150 151 151 150 139 136 153 161 157 150 150 153
156 160 159 160 165 165 165 159 153 153 163 163 168 167 168 162 163
161 153 151 149 156 157 149 151 153 150 149 150 173 168 156 150 149
142 146 148 150 159 186 187 179 172 169 185 192 178 170 174 168 161
164 164 165 166 160 159 149 157 161 177 162 168 162 160 163 154 159
161 154 162 163 162 160 172 174 161 160 170 175 173 188 189 186 172
179 178 169 172 177 174 174 170 172 170 175 180 177 175 176 167 168
168 165 163 161 164 168 172 171 171 161 164 168 172 180 178 175 172
165 157 156 160 151 153 153 149 154 156 150 159 161 159 154 156 158
146 142 149 143 139 131 132 134 137 142 147 137 139 142 146 143 146
148 148 150 150 152 158 152 155 150 162 146 155 155 153 158 165 164
158 163 150 145 151 142 139 142 149 155 153 147 148 157 158 161 156
152 154 157 154 154 155 148 150 153 150 149 145 151 160 161 157 157
154 161 166 167 143 138 142 149 139 122 126 129 128 129 124 119 119
123 127 121 132 130 128 133 130 129 132 134 137 133 130 147 155 156
144 149 136 140 143 134 135 137 140 144 137 135 137 134 136 137 138
138 129 141 145 143 139 140 147 150 149 135 133 135 133 138 144 139
138 134 124 133 120 122 129 119 130 133 127 134 128 134 128 117 119
119 116 112 117 121 130 144 147 146 142 139 144 150 148 138 143 158
157 147 144 140 138 136 140 125 123 116 119 122 127 129 128 129 131
128 139 131 134 143 139 132 129 127 134 133 141 151 149 148 146 148
149 147 158 140 142 147 139 132 132 154 151 152 147 139 130 129 119
142 145 151 150 146 150 153 158 149 152 153 152 156 148 138 152 145
142 158 157 153 150 141 139 141 143 143 147 147 147 151 148 134 129
115 123 134 133 133 135 136 132 135 138 142 134 152 158 155 141 140
146 136 121 121 127 116 118 130 137 138 126 130 138 149 147 144 151
142 139 141 138 131 129 135 131 137 131 135 143 147 142 139 148 148
145 144 148 152 155 147 145 143 146 137 132 144 142 142 134 143 150
151 150 138 144 146 145 157 151 143 135 146 146 147 148 147 150 157
159 145 143 138 139 145 159 157 149 151 148 138 136 137 139 139 142
143 143 154 159 159 151 148 154 172 172 167 168 165 171 174 177 185
185 171 162 159 157 151 151 148 145 156 148 146 149 154 154 172 169
172 179 177 179 184 182 166 170 168 177 176 171 178 180 175 166 165
160 161 164 178 177 182 163 162 160 163 160 147 150 152 156 157 160
161 161 165 162 164 158 155 153 141 140 153 149 150 151 156 155 165
171 170 172 176 180 170 168 168 165 167 160 165 163 167 160 159 165
165 165 164 165 149 146 148 147 143 149 134 136 142 143 148 142 142
141 143 144 145 146 150 150 149 150 150 154 155 157 160 157 156 160
161 158 163 164 166 162 163 152 153 154 156 156 153 148 153 152 146
148 143 137 136 141 149 149 152 146 141 150 153 151 158 157 157 150
143 145 138 132 140 154 155 156 164 162 169 175 174 168 179 178 171
173 171 172 173 168 163 164 157 162 161 150 142 139 153 148 145 139
140 142 151 160 164 179 176 180 184 184 177 185 188 178 158 161 143
136 127 139 137 145 153 150 147 140 139 139 152 149 152 150 146 143
136 133 136 149 151 154 151 151 139 136 131 140 147 160 158 155 148
163 172 165 166 162 162 161 153 146 144 139 139 143 141 138 136 133
135 138 144 138 144 151 157 172 179 186 177 181 188 178 180 183 168
169 161 142 139 130 136 135 138 125 134 144 148 154 150 147 127 122
124 127 128 140 157 139 141 154 147 143 149 169 152 154 160 164 150
138 163 150 148 176 166 168 146 148 137 129 120 121 128 129 128 131
135 125 136 147 148 150 148 138 136 133 130 121 128 130 127 133 132
132 123 123 132 143 146 135 139 158 169 166 159 165 167 166 163 163
151 151 142 138 132 124 136 137 137 136 132 124 126 135 139 138 140
147 155 146 141 138 146 140 138 136 138 131 131 140 138 131 128 129
136 147 147 140 128 127 120 120 119 137 144 149 150 147 146 134 137
148 157 160 150 153 152 147 155 161 165 167 163 149 154 157 153 148
142 127 137 149 144 141 133 134 133 132 136 133 144 141 145 142 136
132 134 136 132 131 132 131 134 132 133 135 140 144 142 157 168 177
176 147 152 155 159 154 141 143 142 146 149 139 134 138 147 151 151
146 142 141 145 145 154 161 171 167 161 150 155 156 151 166 164 166
168 163 174 178 182 178 174 167 177 177 182 172 171 161 167 168 162
158 158 158 174 179 182 187 185 179 175 162 174 174 177 178 178 174
180 180 183 178 179 181 186 182 181 183 186 182 181 175 181 181 176
182 182 180 184 183 178 173 171 158 157 158 156 156 156 163 167 158
164 164 153 156 156 168 160 161 138 143 147 142 142 142 140 149 145
143 150 148 152 148 147 154 151 144 154 160 153 139 142 147 139 140
138 128 124 121 114 122 119 120 129 123 127 131 130 134 144 143 147
161 146 142 150 152 152 153 148 144 146 137 127 126 134 132 132 122
133 138 134 136 137 129 136 134 133 149 148 136 132 134 143 145 143
136 130 136 129 122 135 145 129 124 131 141 147 143 151 150 154 164
161 175 178 174 169 166 174 158 151 151 139 133 121 125 126 120 127
127 129 137 133 138 142 137 138 129 128 143 138 139 140 122 118 122
126 126 136 148 145 143 147 171 179 165 161 170 177 155 148 147 144
144 138 136 129 142 153 130 139 140 142 147 152 145 148 153 161 161
160 166 166 176 162 162 160 160 131 138 140 139 149 149 146 142 139
128 127 126 127 130 138 127 127 130 134 138 135 135 128 124 120 122
130 148 152 152 142 141 140 146 153 170 170 161 140 133 128 123 127
129 134 130 129 127 135 132 130 133 146 155 155 164 169 171 170 162
155 139 136 134 132 126 137 140 126 138 141 133 145 154 147 131 124
125 135 141 141 144 142 142 150 143 132 132 128 126 138 131 123 137
131 130 138 134 134 144 144 155 166 130 129 142 125 132 131 143 126
125 136 134 128 133 140 137 131 126 127 130 120 125 133 123 131 133
134 134 133 130 122 119 114 135 146 138 137 137 138 138 138 150 152
154 144 136 130 157 138 139 148 151 154 145 136 127 136 146 143 144
137 137 139 131 127 115 116 129 140 138 128 136 137 138 139 127 127
133 132 146 147 150 145 153 163 156 155 157 156 153 153 147 147 151
152 154 142 136 137 128 135 136 143 141 147 150 150 152 148 146 146
160 161 160 168 170 157 133 132 133 147 147 145 138 136 139 153 155
157 151 153 150 152 151 138 139 137 142 160 163 158 152 147 141 138
132 132 133 129 132 133 137 150 148 148 146 146 150 160 160 161 159
159 149 149 146 161 171 172 162 166 166 153 158 155 153 156 156 150
148 144 146 154 155 158 162 165 164 165 168 174 174 171 172 172 164
166 169 162 164 164 154 155 155 148 144 140 132 156 154 154 147 143
143 142 138 148 157 164 164 153 152 142 138 132 132 130 125 124 129
136 134 132 126 128 134 144 145 151 163 153 147 140 140 145 164 164
164 154 154 156 150 147 147 138 139 133 137 139 142 156 156 155 154
154 155 154 148 148 142 146 145 144 146 145 142 144 146 140 145 144
144 147 149 153 157 157 158 141 156 148 141 142 137 144 144 148 137
133 132 122 123 127 126 125 124 125 125 122 126 133 138 134 141 140
147 148 159 163 156 150 129 123 127 130 135 139 132 127 126 129 124
141 146 133 139 147 152 143 151 146 155 156 152 144 120 115 118 122
116 123 133 119 113 114 116 124 124 122 128 126 117 117 130 135 126
132 133 145 132 126 131 143 145 146 132 125 123 129 129 130 131 126
124 126 136 135 136 135 141 119 121 120 125 130 127 121 131 136 140
131 120 125 131 126 126 136 132 142 125 119 118 132 135 134 117 115
123 126 128 127 138 144 132 137 140 123 122 125 129 130 132 121 119
126 125 125 131 136 134 132 131 130 127 128 134 154 127 129 137 138
134 122 131 138 128 124 122 135 124 128 141 148 150 152 143 137 137
146 142 136 136 129 124 126 129 140 140 141 152 143 142 132 139 144
145 144 144 145 139 136 128 124 120 124 126 127 115 114 116 120 117
120 120 122 122 121 120 124 128 127 129 134 136 138 134 129 124 130
124 117 123 124 119 132 128 128 126 129 129 128 121 120 121 125 126
128 130 130 142 128 133 137 136 140 142 140 137 136 134 131 134 126
129 132 131 134 132 132 147 142 153 150 138 143 147 154 150 149 147
148 145 142 142 146 144 155 155 152 173 167 168 171 164 160 152 150
161 151 154 158 147 148 162 162 163 165 172 178 191 183 175 183 179
174 172 172 176 174 170 174 163 157 162 166 160 160 160 161 166 166
169 178 180 179 180 177 179 181 179 187 175 186 170 160 160 168 163
163 155 146 146 145 147 149 145 153 153 172 158 169 182 183 183 180
177 176 175 171 171 173 167 167 169 162 162 164 158 157 159 167 167
164 160 160 162 150 148 151 155 158 169 167 168 168 161 164 164 136
128 128 134 137 137 131 132 143 148 152 148 154 165 165 161 143 150
158 158 148 148 168 164 164 166 166 166 182 179 178 169 151 153 152
161 161 160 163 146 139 132 133 138 134 138 138 148 148 150 151 144
142 138 134 134 132 132 133 131 125 130 133 130 131 132 135 140 138
136 138 139 136 125 123 125 125 123 122 123 120 120 122 122 122 116
116 119 128 130 134 122 132 136 142 146 151 160 154 154 154 150 139
141 145 141 141 140 132 135 133 132 130 142 149 149 132 129 140 153
131 149 152 147 149 153 149 139 141 149 147 118 110 110 128 130 131
139 147 158 163 157 146 148 136 137 140 159 154 138 141 134 125 139
119 128 132 130 130 127 131 132 135 136 140 151 138 132 138 150 148
145 129 140 137 142 133 133 138 143 141 140 140 144 168 166 148 150
156 156 137 133 142 144 134 139 129 131 124 124 136 137 126 130 130
125 136 132 126 128 131 149 139 129 125 136 152 126 130 138 142 139
136 132 130 128 126 128 134 129 126 123 133 153 146 133 146 144 142
128 124 130 125 127 130 131 139 149 151 146 148 136 122 119 123 125
122 130 132 127 125 129 136 147 160 154 154 148 140 133 128 120 116
118 125 128 136 132 126 127 132 132 125 119 124 120 125 120 122 126
141 147 145 145 146 141 137 130 133 135 138 137 136 139 141 140 137
136 136 136 134 137 141 133 134 134 137 135 135 123 116 129 140 141
144 149 150 149 145 130 136 133 152 138 135 141 147 142 140 136 137
136 141 143 139 140 146 149 139 134 144 152 156 147 142 152 145 136
138 134 154 154 150 160 144 148 143 137 128 130 143 132 142 151 139
138 144 140 158 159 152 168 167 162 159 160 159 162 158 163 152 163
161 152 150 140 140 150 153 143 180 168 142 154 157 152 149 135 150
150 155 175 169 163 164 167 156 152 166 170 181 180 175 170 172 167
162 164 176 176 178 182 185 188 174 172 166 174 174 149 153 155 152
140 139 141 138 142 146 147 148 147 148 154 156 148 146 159 157 160
160 160 158 156 154 147 148 146 139 135 141 144 147 154 159 164 167
168 164 164 141 153 156 160 169 154 154 153 154 150 150 150 150 145
139 142 144 138 143 148 141 147 148 151 152 145 139 136 134 130 135
145 143 141 152 153 127 141 141 148 151 148 143 142 142 140 150 140
144 150 151 146 145 136 135 132 131 130 128 141 144 145 136 131 134
154 147 136 133 127 126 112 112 121 115 119 126 135 140 156 163 158
128 124 134 124 123 127 124 124 132 128 124 122 135 136 138 135 134
135 144 151 153 155 146 137 131 124 130 127 126 125 127 130 137 146
150 133 123 122 123 124 126 125 128 133 135 140 139 137 140 147 149
149 139 135 134 141 144 141 134 128 127 121 128 126 125 126 132 134
126 129 129 134 129 129 142 128 123 123 130 130 129 116 121 118 116
113 111 118 118 123 130 132 134 130 132 133 127 119 116 114 125 126
132 127 99 103 110 102 100 100 101 102 108 111 116 117 116 119 114
119 124 111 128 125 129 131 122 122 130 126 138 128 130 132 130 133
131 128 143 125 126 131 137 148 152 150 152 142 142 148 150 139 141
136 128 126 127 133 135 138 143 144 130 128 122 120 120 132 136 133
144 140 152 141 128 127 126 142 135 131 120 117 115 118 119 126 126
124 127 125 137 137 138 123 119 114 119 123 126 123 109 129 135 131
132 130 130 132 109 128 126 119 118 107 121 128 125 126 130 127 121
126 133 136 137 136 130 126 127 136 133 133 129 130 131 128 129 117
124 129 138 146 138 136 133 141 137 142 138 132 129 130 122 123 126
126 128 129 130 138 143 128 132 123 137 150 148 143 146 148 145 148
143 139 133 126 128 121 120 118 122 126 131 137 146 150 149 150 153
152 156 159 151 159 150 139 142 137 135 136 132 134 132 128 132 130
130 131 132 135 133 135 138 139 145 141 137 142 146 155 158 144 140
136 133 138 140 136 136 142 146 144 145 150 164 164 166 150 152 148
160 162 152 159 156 164 160 166 169 175 169 172 164 154 156 168 163
164 167 160 162 169 166 163 162 165 168 168 169 175 174 172 174 169
171 152 153 153 171 165 164 158 161 163 168 178 178 178 181 182 178
174 168 168 168 165 164 164 143 144 149 149 132 132 122 132 135 142
132 133 136 146 146 148 150 138 134 135 139 140 138 139 149 155 151
134 130 127 127 128 131 132 138 122 130 134 133 133 146 150 149 150
156 154 147 124 124 109 117 119 117 125 132 130 130 127 124 128 129
129 130 125 131 133 130 122 122 132 144 161 168 162 167 149 149 151
148 148 139 153 152 165 177 174 169 169 174 171 170 157 128 133 114
123 131 164 164 156 151 138 126 111 118 131 134 134 133 135 151 130
136 130 131 127 125 128 120 123 133 124 125 138 135 128 130 133 135
138 130 126 128 124 122 120 109 110 100 103 123 144 150 123 129 125
129 142 138 129 130 136 140 137 143 136 134 136 140 129 123 126 126
124 124 124 120 125 117 119 101 109 105 122 121 115 111 117 119 133
150 165 144 133 151 149 146 136 134 142 144 150 143 139 145 150 151
130 122 129 156 179 179 171 151 148 164 159 134 152 139 120 116 110
102 111 113 110 113 116 116 113 111 121 121 118 112 110 116 119 110
111 120 125 123 122 124 128 139 142 126 123 131 141 134 139 140 146
157 153 138 134 125 130 142 140 122 128 126 133 132 134 133 144 137
124 125 125 130 130 128 115 111 118 112 119 116 132 142 146 146 135
136 126 124 127 134 127 126 126 121 124 125 136 139 142 148 138 133
125 128 125 112 119 131 141 144 144 129 117 123 118 124 117 124 121
122 122 126 123 122 123 127 117 119 116 118 122 125 125 120 119 124
128 128 118 127 124 123 134 145 133 128 146 148 124 132 126 116 120
138 143 148 147 150 156 158 156 148 155 151 139 136 140 138 134 131
129 110 123 123 135 136 139 138 140 139 156 161 161 164 169 178 179
170 154 155 157 158 164 167 162 156 169 172 175 172 175 168 169 164
157 155 155 151 157 160 163 160 152 153 146 142 137 137 137 136 128
126 129 154 157 162 153 155 156 147 141 136 136 137 138 137 140 141
141 152 151 150 152 159 159 164 171 167 170 156 144 145 147 157 146
158 152 158 153 160 154 157 157 163 165 156 141 140 142 148 156 154
155 160 163 158 156 155 155 152 152 151 155 159 171 153 154 157 162
148 171 159 156 158 162 160 167 153 155 152 144 147 137 132 144 144
140 140 138 146 140 148 149 148 156 157 166 163 167 169 168 147 134
136 115 120 117 121 122 122 122 127 129 128 133 138 138 137 138 133
152 144 136 137 134 132 128 128 127 121 125 125 128 142 153 162 174
166 165 154 153 150 143 151 147 148 140 136 132 124 131 127 128 125
130 138 133 130 122 119 124 123 140 143 137 141 136 150 154 140 145
142 140 138 125 120 126 131 168 155 141 142 145 145 140 142 148 133
123 118 128 133 136 140 144 144 131 128 123 118 118 121 124 128 123
118 104 109 125 125 141 142 148 141 128 113 115 118 119 117 122 124
127 148 148 148 137 128 145 143 142 147 149 142 135 114 117 116 121
118 126 123 110 101 95 113 120 120 116 122 137 136 133 129 126 135
131 134 124 132 123 118 116 121 122 118 116 112 114 135 142 136 140
137 133 118 128 130 129 123 115 120 125 118 112 114 117 121 125 123
115 116 125 124 120 121 129 130 127 125 134 134 129 126 122 117 113
109 109 111 110 112 109 110 109 116 122 117 108 110 128 135 138 132
127 127 130 130 132 127 136 143 148 140 142 149 137 138 131 134 130
125 124 117 121 123 118 114 117 122 116 121 130 138 136 131 132 132
126 134 115 124 112 114 118 123 119 109 107 117 116 117 128 132 147
142 129 134 138 136 124 122 124 122 130 127 123 138 144 130 132 119
128 125 138 141 125 130 129 131 133 122 118 114 114 119 122 116 125
116 123 127 127 126 134 140 142 139 135 139 147 150 144 151 151 170
166 156 153 146 150 156 158 157 156 151 154 133 128 132 135 134 145
147 144 141 130 132 130 128 133 136 148 140 126 127 143 152 149 157
156 155 134 133 139 138 150 153 152 146 144 157 170 167 168 182 165
143 142 136 128 131 137 144 144 149 150 152 146 150 152 164 160 153
145 142 144 134 140 150 148 152 160 170 182 169 165 160 146 148 153
134 156 159 156 154 147 148 148 148 140 145 152 154 160 161 173 171
174 172 160 159 162 161 160 156 152 151 150 143 146 147 150 122 112
124 124 120 119 117 128 128 124 116 115 115 123 120 118 123 127 130
127 125 138 131 136 161 169 172 165 150 163 147 136 124 111 109 117
117 126 127 115 124 119 118 126 126 132 135 135 138 137 152 152 151
144 154 157 170 176 176 158 132 130 139 134 128 125 123 110 109 103
109 111 122 124 126 128 120 126 121 118 114 116 116 121 123 116 116
117 115 143 148 149 149 148 142 141 142 140 129 129 125 134 140 135
130 119 109 103 108 118 122 122 121 121 112 111 118 121 141 135 127
130 127 124 122 106 111 114 124 137 140 140 115 120 127 131 131 131
130 138 124 129 127 124 127 134 132 125 115 117 119 130 130 150 159
159 139 137 123 119 116 109 143 122 141 118 135 141 130 148 124 144
128 131 134 145 148 126 118 123 127 132 128 133 138 142 140 135 148
146 146 140 141 138 129 126 130 128 129 130 128 116 115 114 110 108
104 102 112 113 113 117 117 124 120 120 135 135 139 137 143 152 145
138 125 118 113 121 136 150 134 123 116 113 111 116 105 111 112 110
112 114 119 115 120 116 113 114 126 130 134 126 112 124 127 113 108
107 106 107 108 109 110 109 115 116 116 105 105 110 115 116 113 111
112 127 134 121 132 124 114 121 134 133 128 124 118 116 118 123 117
110 105 111 113 128 131 135 132 127 122 134 136 138 146 147 145 128
125 117 117 120 129 122 128 126 129 130 134 138 141 136 137 139 138
131 135 143 139 136 125 130 134 135 134 133 133 116 116 118 119 120
120 128 117 115 115 122 129 138 139 136 135 123 121 118 117 116 122
131 141 159 146 136 133 136 136 133 138 146 148 146 148 152 144 147
145 138 129 126 131 126 119 107 119 138 132 134 128 126 127 126 122
124 138 121 115 116 123 129 123 129 133 137 133 141 151 148 149 150
151 145 147 157 158 163 165 167 158 151 150 143 132 136 140 142 143
141 142 145 150 153 152 146 143 150 150 127 131 134 144 158 154 144
141 134 133 155 169 159 163 162 156 163 166 152 150 154 148 147 130
131 138 146 142 143 142 154 155 149 153 155 153 147 157 158 150 156
144 149 150 142 138 144 134 132 134 138 136 129 124 130 131 141 138
130 136 143 148 166 154 145 129 117 115 108 114 112 118 118 123 120
126 136 133 123 126 120 126 123 124 122 122 130 130 131 137 163 147
148 149 150 154 161 150 145 136 114 114 120 117 115 118 118 120 124
146 138 155 154 156 140 134 148 148 124 112 122 121 126 128 132 132
136 135 135 123 125 140 150 151 146 142 139 126 135 134 136 136 136
129 129 128 118 119 116 108 100 100 114 118 111 118 118 119 108 114
106 119 119 113 102 108 108 111 113 114 118 113 118 119 118 119 122
135 152 151 144 138 130 148 145 134 135 130 132 135 131 133 132 127
128 122 109 107 102 98 104 101 104 110 116 107 102 102 110 113 105
110 114 122 124 113 112 112 144 151 144 130 132 133 131 131 123 124
121 128 127 117 115 121 124 138 138 140 136 136 137 146 153 152 125
125 126 131 134 127 119 126 127 149 127 125 113 106 121 126 116 116
120 121 120 120 115 99 93 98 119 126 125 122 121 125 114 111 118
123 124 122 100 103 114 112 123 118 125 120 117 125 128 122 132 130
133 123 120 132 113 111 120 134 136 133 109 114 115 108 102 100 98
102 108 106 103 123 108 107 104 117 120 123 128 129 138 152 148 139
134 144 148 138 134 138 132 123 114 116 109 104 106 124 124 121 127
130 134 135 144 141 138 136 145 125 124 130 134 134 133 125 106 107
112 116 115 120 131 130 124 119 118 120 132 135 135 138 143 152 149
148 149 147 148 150 149 151 152 146 149 141 138 128 126 142 139 130
122 125 118 116 112 111 116 121 135 141 144 141 142 149 146 136 134
138 146 141 140 144 146 139 168 172 169 166 166 164 168 167 159 158
144 162 144 154 154 161 158 150 142 142 145 144 142 134 146 146 139
142 149 153 168 160 155 161 162 151 148 151 149 160 164 162 168 173
171 169 152 147 152 153 152 154 152 150 150 141 148 146 155 160 158
147 163 148 150 155 156 163 151 149 147 149 144 138 140 140 142 155
149 164 160 159 163 168 170 168 159 152 157 152 159 160 149 154 161
158 159 163 158 148 150 132 121 132 128 153 130 141 146 153 164 180
175 171 168 159 149 124 110 103 100 102 117 128 125 124 124 123 123
126 125 126 127 125 126 129 132 138 161 161 155 156 155 156 161 161
147 149 126 114 100 101 95 116 117 121 111 119 117 117 118 126 125
133 133 131 129 127 140 140 145 139 143 132 126 115 118 127 123 130
130 129 128 125 136 142 140 134 133 135 140 150 152 152 151 144 144
140 115 114 109 110 101 103 110 115 125 118 112 116 121 121 122 131
128 118 118 103 106 113 110 118 115 116 115 118 122 121 116 116 119
119 137 137 140 134 121 124 129 135 139 150 142 136 139 138 122 110
106 106 101 104 91 90 94 98 98 107 114 125 132 140 148 153 156
149 148 132 136 134 106 103 93 98 96 95 94 93 92 91 95 99
99 94 95 100 106 110 108 111 109 106 124 117 114 105 106 110 113
113 109 120 119 121 138 160 148 146 150 144 134 123 108 103 115 114
113 114 116 115 114 117 121 123 117 117 121 143 158 151 143 135 136
137 132 132 135 133 114 107 114 118 137 140 157 151 134 119 110 125
140 134 117 108 102 110 114 108 107 129 124 119 123 145 131 128 128
137 122 122 128 126 116 123 127 111 103 108 119 123 127 124 120 132
134 130 128 130 123 118 128 116 116 118 118 118 114 106 98 98 96
102 103 99 97 110 101 113 112 117 126 133 141 137 136 135 132 133
136 134 136 132 127 123 114 108 116 131 130 134 143 129 134 130 127
122 118 117 118 125 130 130 138 142 151 151 150 150 151 146 155 152
149 141 142 129 141 140 151 156 153 147 137 128 133 127 120 122 142
127 127 132 136 122 118 123 130 134 139 143 144 150 150 144 144 139
139 134 130 136 141 143 142 155 151 136 150 145 166 172 160 170 149
152 172 171 154 151 153 150 143 140 148 144 153 155 160 141 131 128
125 119 110 129 130 154 155 167 163 167 158 146 152 155 147 152 163
181 155 154 159 157 158 153 156 159 142 144 139 138 137 141 140 150
165 169 160 163 161 151 144 140 148 144 144 148 146 146 149 148 143
150 148 143 140 135 144 151 152 153 146 154 153 157 151 148 146 145
142 122 122 119 117 118 127 135 142 139 140 141 130 130 120 126 128
130 138 134 148 146 141 142 155 161 145 149 146 145 147 138 119 113
112 113 114 121 135 130 144 140 150 154 151 146 144 130 124 131 140
136 136 140 142 144 148 145 146 141 129 125 128 126 128 124 120 133
138 144 140 143 146 166 169 158 152 150 144 147 145 137 132 121 119
105 100 103 102 102 96 113 115 114 112 107 105 116 117 116 114 106
112 125 127 131 131 126 127 127 128 142 138 135 133 150 129 120 120
119 141 141 148 149 145 145 138 123 107 108 105 98 93 96 100 106
94 111 118 116 114 121 122 120 114 110 109 103 103 102 109 104 104
106 102 101 105 97 111 103 116 123 116 102 105 111 114 101 104 113
120 127 129 127 124 116 117 120 113 116 114 115 118 139 131 113 118
107 118 112 118 122 130 131 129 112 108 109 111 106 105 97 103 120
116 117 120 114 110 115 124 126 123 128 131 118 114 102 110 116 118
127 132 124 112 118 107 109 102 95 94 92 99 106 118 112 104 102
113 121 116 118 117 121 122 148 129 126 126 125 130 115 118 121 112
119 122 116 119 138 142 146 149 148 140 142 141 137 131 127 126 136
138 134 132 115 104 109 105 115 133 126 135 138 132 127 120 114 139
133 139 136 128 131 136 131 132 130 127 115 114 101 100 107 108 105
108 114 116 126 123 120 130 134 129 122 124 122 121 118 114 112 105
110 108 108 105 109 115 108 121 126 117 116 107 105 104 114 117 132
131 131 125 118 133 147 151 145 148 148 157 143 142 145 143 148 145
138 140 140 139 158 158 161 159 159 144 139 126 120 123 120 126 130
131 133 125 113 110 112 119 118 125 135 140 138 137 130 133 139 148
157 155 154 161 159 161 150 145 146 141 138 137 129 129 144 143 143
143 141 145 137 139 148 148 179 162 140 131 120 119 109 115 127 128
131 124 126 122 118 127 121 146 144 155 167 159 159 163 163 166 160
171 164 155 154 148 149 132 134 140 145 144 157 179 172 170 164 160
152 163 170 172 168 166 153 149 144 138 140 125 130 135 140 138 131
125 118 124 120 134 128 133 137 137 140 138 138 133 128 135 139 139
136 138 136 142 148 136 143 149 160 159 163 142 113 111 107 110 110
114 118 119 124 130 134 136 135 137 133 128 125 130 108 110 112 118
122 122 127 145 166 157 157 137 115 117 126 126 140 136 149 149 152
165 156 144 139 131 132 128 140 119 120 118 112 109 96 88 93 93
98 92 99 98 98 102 101 99 102 100 111 112 122 124 127 125 125
119 120 118 126 126 123 124 122 120 133 137 140 141 147 148 120 123
117 119 122 119 106 106 99 101 106 109 116 112 110 115 120 117 107
108 105 115 132 134 142 115 116 123 125 136 131 168 144 179 166 159
139 131 152 143 148 159 150 141 132 134 150 145 134 124 138 147 119
112 107 108 108 108 94 95 106 110 106 115 119 119 123 124 129 142
163 164 154 136 130 119 113 107 111 111 113 109 109 111 112 114 125
118 116 115 130 155 131 128 120 125 126 118 123 127 125 126 128 120
129 127 108 99 96 102 98 102 109 111 113 109 113 113 109 119 128
135 119 113 115 120 118 114 106 109 106 101 106 100 113 124 140 131
131 130 121 126 128 121 129 132 122 121 120 126 134 146 150 153 126
126 128 124 118 131 118 122 111 110 106 103 103 109 110 114 105 108
112 126 124 129 119 121 125 127 122 136 138 130 133 136 137 129 137
139 137 141 135 125 124 127 135 136 137 130 124 125 128 135 138 138
137 136 132 130 120 122 118 117 114 117 114 112 106 114 122 113 109
106 106 98 103 100 101 104 111 110 107 105 117 109 111 107 116 113
108 106 103 103 112 131 132 122 118 119 132 113 110 108 109 113 127
141 128 137 143 142 142 137 132 128 126 126 118 115 118 129 131 130
124 122 120 118 120 121 125 126 120 112 118 120 116 113 122 123 131
146 148 145 140 134 153 160 171 168 169 173 157 152 143 148 149 154
160 160 152 157 152 144 155 164 162 158 148 139 134 134 126 126 125
128 129 137 150 162 160 165 175 181 175 170 170 168 159 159 154 153
149 147 153 152 155 159 151 153 149 150 160 156 154 150 162 161 163
159 125 126 130 133 134 145 149 162 145 144 144 142 155 139 154 166
172 175 180 160 167 161 136 128 127 126 114 107 96 101 98 98 116
117 128 141 137 150 152 157 150 130 123 113 111 113 112 123 127 135
136 140 142 130 128 122 122 134 129 115 117 130 132 134 132 133 131
130 129 129 122 115 114 111 112 106 109 102 114 120 118 96 96 94
95 107 115 108 115 107 104 106 113 115 112 115 116 119 134 139 138
143 150 159 151 142 154 137 139 136 135 142 145 160 140 131 133 103
92 100 101 106 109 103 102 113 122 124 117 112 115 118 121 125 127
121 123 127 118 120 119 113 104 116 121 128 126 128 130 125 126 143
152 148 152 158 174 160 168 162 156 147 142 130 125 126 124 106 109
104 104 121 128 131 125 113 113 127 134 138 129 115 127 128 124 131
132 131 125 124 125 118 123 124 125 115 113 113 110 103 105 108 106
110 101 98 97 94 101 101 98 99 101 102 102 103 95 99 98 98
96 100 109 109 108 109 111 116 127 120 147 132 143 128 127 122 125
129 128 122 110 96 92 95 95 93 93 88 93 95 99 111 121 125
107 102 104 106 116 114 114 120 128 117 112 113 111 109 114 98 108
114 106 107 114 115 111 119 121 116 114 113 107 100 107 104 101 99
98 102 105 104 95 90 84 83 95 97 98 100 103 113 114 105 109
105 106 108 116 128 133 113 113 110 108 115 114 111 112 118 124 116
112 109 107 112 119 118 128 125 115 120 119 119 108 107 116 117 122
124 114 126 124 139 148 148 138 127 129 131 129 135 136 135 129 128
127 127 126 128 116 116 116 119 133 134 145 141 130 128 131 129 130
138 133 125 133 141 128 120 119 125 131 136 129 125 130 132 138 129
115 112 108 117 127 121 117 116 116 113 110 113 115 126 135 153 155
155 155 144 147 139 140 162 156 140 136 142 148 148 150 153 154 179
182 171 170 161 161 152 154 167 174 158 161 149 148 156 160 162 162
158 158 142 136 136 126 127 134 130 128 128 122 128 129 131 136 138
156 155 153 150 145 162 174 164 146 156 167 167 155 154 164 162 157
156 158 158 153 154 129 130 139 136 133 128 132 136 125 128 116 118
112 108 110 108 109 109 105 100 103 89 90 95 98 101 101 122 124
131 134 125 123 122 127 118 111 106 126 126 124 121 133 129 150 148
140 121 116 117 134 133 132 115 130 130 120 119 117 120 119 111 118
114 119 109 107 102 106 110 113 108 111 116 106 95 86 89 104 117
133 128 144 139 139 131 134 143 137 154 158 158 160 161 160 169 166
150 151 158 156 155 155 172 175 166 154 149 146 126 120 117 112 108
112 108 107 107 125 124 122 121 135 139 146 151 140 133 144 151 164
155 145 148 148 148 128 144 159 160 162 154 132 132 143 146 144 145
143 139 125 105 102 106 118 122 126 130 133 120 129 124 132 126 120
136 133 136 138 142 138 133 126 123 123 108 114 128 139 133 127 142
138 137 140 139 150 145 126 124 110 115 129 122 125 102 96 97 101
104 100 92 100 105 103 99 104 104 106 112 106 107 113 120 120 112
110 110 124 137 144 135 131 122 115 123 118 131 124 120 135 148 135
118 119 113 108 109 104 113 113 106 114 121 118 114 115 126 127 128
105 109 116 125 126 122 118 121 98 103 103 102 117 110 112 102 108
116 117 111 113 110 101 100 108 103 97 103 117 110 119 118 117 126
129 129 132 130 129 130 128 128 120 125 131 120 119 119 119 126 127
109 105 108 112 123 127 134 132 123 116 113 108 102 98 98 112 113
123 133 135 134 132 127 129 127 125 115 116 117 117 120 121 121 131
140 127 122 131 140 136 127 138 144 141 146 144 151 150 126 145 133
129 135 137 128 130 123 125 120 116 111 124 140 160 150 151 145 145
134 133 138 138 142 139 150 149 132 136 140 147 147 153 140 137 143
139 140 139 122 115 118 120 116 117 132 138 144 132 137 133 139 148
162 158 145 138 127 122 116 122 125 120 134 133 133 140 142 142 148
150 150 161 154 159 150 148 145 148 146 148 149 139 132 132 137 142
134 133 143 141 141 152 148 152 149 145 138 136 132 134 126 122 117
138 138 137 125 121 118 123 134 136 140 141 146 148 162 163 150 143
156 164 159 149 150 154 157 158 158 106 111 100 95 99 109 110 112
119 119 116 107 99 92 98 101 102 104 108 106 112 127 136 132 124
126 130 132 140 138 135 131 119 117 124 123 124 123 113 109 108 114
102 99 105 105 109 111 116 128 127 141 138 141 139 134 132 118 106
104 114 116 97 97 86 85 86 89 93 93 104 104 111 117 123 122
126 115 120 120 124 114 117 117 119 122 134 129 138 132 128 124 138
138 132 135 129 128 128 126 137 122 114 114 113 116 115 117 112 119
117 118 117 109 111 112 107 112 115 131 134 127 132 132 134 133 136
135 134 137 143 117 112 104 104 106 96 98 90 86 108 108 106 101
98 92 103 98 97 92 93 99 100 107 102 106 105 107 107 104 96
95 99 101 107 111 106 104 109 115 114 125 132 135 144 156 156 139
127 110 109 114 113 112 110 92 90 83 77 76 76 87 88 87 84
95 118 120 127 127 119 119 112 113 115 107 102 102 104 99 96 95
83 91 98 96 92 92 110 106 109 107 103 89 86 98 95 115 107
109 114 110 108 113 101 92 97 108 116 116 140 162 136 121 125 126
127 138 124 126 132 130 113 112 107 113 112 99 105 107 109 108 113
108 110 127 121 129 122 131 128 114 111 109 108 115 117 116 114 117
110 105 105 102 103 102 108 104 113 127 128 141 137 136 128 128 134
125 118 122 123 124 115 115 115 126 120 121 109 101 108 102 99 106
98 107 98 103 108 102 94 99 107 109 116 121 133 119 130 144 141
137 139 146 148 142 143 145 149 134 121 133 143 141 132 124 122 129
127 125 121 120 124 129 130 127 138 143 139 133 131 130 127 121 122
118 118 132 133 126 120 108 109 126 139 139 136 142 133 126 123 124
130 131 139 136 136 132 130 141 138 131 128 131 137 134 131 118 118
120 118 128 132 124 117 129 125 131 134 115 109 106 108 106 116 113
131 133 131 132 131 135 135 132 128 142 136 133 140 144 133 138 140
136 135 135 131 129 130 136 132 135 146 143 134 134 135 137 144 144
164 163 156 152 138 127 128 128 123 120 120 125 124 123 122 121 118
128 132 134 136 133 134 137 142 141 144 146 139 139 152 156 134 122
121 110 113 120 118 114 115 120 122 112 122 129 146 147 146 147 152
150 138 142 146 156 146 146 128 116 111 108 117 113 114 118 124 140
147 134 133 143 153 162 168 176 171 178 170 172 144 123 91 91 95
101 104 98 90 89 93 102 104 109 110 122 120 127 127 126 127 125
127 129 142 148 146 146 164 162 150 149 148 143 140 150 148 169 170
156 151 117 118 110 112 114 111 104 92 90 88 94 101 104 112 115
113 123 122 121 116 112 110 131 146 134 134 121 118 119 127 122 120
120 114 110 101 105 98 98 97 102 101 109 109 109 104 95 98 96
101 102 106 110 114 111 108 103 101 102 99 96 87 93 108 106 101
98 96 105 108 104 107 112 115 117 116 117 116 112 114 118 118 112
97 88 83 85 88 94 94 92 88 94 94 105 106 98 91 95 97
87 91 79 100 92 92 86 90 86 93 91 88 92 98 98 100 99
96 100 92 92 96 95 88 86 88 86 80 87 92 77 92 99 104
94 93 95 93 93 104 104 108 133 125 124 133 135 129 122 109 112
122 110 113 115 122 104 111 106 102 95 90 93 95 102 114 112 105
108 108 108 106 96 101 114 113 106 112 129 137 125 109 106 105 111
109 114 120 119 128 130 129 130 127 134 137 139 137 134 129 129 128
130 125 126 130 148 137 124 128 129 133 138 124 127 127 116 111 116
132 127 119 116 119 130 126 118 119 103 105 108 117 119 123 114 116
113 109 118 112 114 126 123 129 126 122 132 136 144 132 132 137 137
133 126 119 131 134 134 137 135 134 142 142 134 130 126 122 129 131
132 126 122 131 128 129 131 135 133 138 145 136 132 128 126 135 136
134 136 148 152 134 117 114 119 126 131 131 148 155 164 161 163 170
168 170 167 153 158 172 168 163 167 152 151 147 145 149 160 158 158
148 153 147 136 130 122 124 122 127 140 136 136 134 129 120 118 123
120 113 110 145 152 167 170 164 153 156 160 158 145 146 131 128 150
150 160 165 167 163 163 163 164 162 163 158 158 154 154 159 144 145
142 146 145 146 144 140 136 136 134 134 138 141 146 152 154 146 145
140 142 147 150 146 154 152 156 158 168 163 170 171 177 173 171 176
173 155 140 125 115 118 112 110 112 122 131 135 134 131 152 159 151
150 162 160 157 162 160 165 162 152 164 122 98 86 84 83 93 96
102 98 96 93 98 104 107 116 116 126 126 140 152 144 134 131 128
132 158 159 156 133 114 111 110 109 104 102 102 91 90 92 93 94
95 98 98 101 96 97 95 97 97 96 94 94 93 103 108 108 107
111 116 112 106 105 114 118 114 111 110 116 111 104 114 113 114 111
108 112 108 104 96 94 86 86 86 84 85 95 97 102 100 105 107
122 129 127 118 110 108 110 103 100 96 93 104 113 112 108 113 116
109 98 97 104 109 111 103 100 104 104 105 107 112 117 123 124 125
115 104 102 102 110 117 106 103 108 106 108 110 106 103 103 97 98
106 120 118 115 111 114 122 122 116 108 110 109 108 113 108 107 104
98 76 119 96 110 106 111 114 118 120 112 121 108 102 99 99 98
101 110 104 96 106 110 108 106 101 101 104 104 102 107 119 129 125
120 123 130 130 125 126 113 114 129 108 104 109 102 101 108 116 113
121 119 123 122 112 106 102 96 99 96 94 88 88 90 91 109 130
132 135 128 132 135 129 133 133 124 122 123 114 111 105 106 114 116
120 113 116 127 121 123 128 115 110 132 149 143 128 131 133 130 121
124 126 127 124 115 129 129 134 134 134 128 120 107 103 92 95 99
102 101 110 125 129 132 137 129 127 123 128 116 109 112 122 106 112
114 114 122 108 133 136 122 118 122 109 117 120 125 121 129 110 119
126 113 106 109 111 134 134 133 133 136 134 134 139 138 135 132 134
131 135 132 130 135 132 128 135 150 153 159 154 145 143 138 130 130
146 146 154 148 142 141 130 132 135 144 144 148 148 144 138 150 153
133 130 130 138 138 136 132 125 124 114 116 117 117 115 112 111 120
121 129 138 150 144 140 140 140 129 130 121 121 128 136 128 145 146
160 160 178 176 171 165 156 158 158 146 146 143 142 133 132 132 137
140 157 157 159 156 157 158 158 157 154 146 146 150 148 144 145 145
142 144 150 150 122 118 128 129 125 136 128 141 119 127 120 121 119
114 112 111 118 126 123 124 123 122 129 137 140 140 142 147 148 152
150 148 140 135 123 119 104 108 99 102 97 98 99 96 97 105 111
118 129 128 120 118 141 143 145 152 157 165 167 142 141 161 160 149
140 138 137 130 115 110 117 107 109 110 104 103 106 109 113 121 131
125 112 108 119 109 95 90 90 98 99 98 97 106 111 110 106 109
122 123 124 119 110 100 100 96 96 94 96 92 96 107 113 114 116
114 114 114 95 102 104 116 118 115 114 129 133 129 143 145 138 130
146 143 141 138 138 125 113 96 101 99 104 104 106 114 126 130 139
141 136 132 117 121 117 110 107 90 102 110 126 129 112 118 136 143
132 127 124 122 121 115 119 128 130 122 121 121 122 124 125 132 133
132 129 126 124 125 127 133 131 149 158 130 140 134 136 138 131 128
124 125 121 121 122 121 119 118 126 124 117 124 119 118 126 133 127
121 128 143 137 137 128 109 109 111 113 108 105 114 110 100 97 110
114 103 102 108 107 94 101 125 101 99 100 107 106 118 122 117 102
97 105 119 114 102 100 112 118 118 109 118 102 96 104 106 98 108
100 93 92 91 91 89 90 102 95 116 122 116 136 135 129 128 132
122 129 128 124 126 122 113 113 128 129 133 118 112 110 105 106 102
108 108 101 101 103 97 99 94 96 104 111 115 120 129 126 115 126
119 124 117 119 129 128 116 123 114 108 119 118 124 124 131 135 138
142 140 134 129 135 137 128 120 113 113 110 116 117 114 114 119 115
127 132 122 134 131 122 124 122 116 110 106 116 130 128 118 107 120
120 122 122 120 121 126 126 123 129 130 123 120 126 134 137 143 149
149 152 160 164 147 140 138 148 152 146 145 159 165 171 181 167 172
177 168 166 158 152 164 178 180 164 158 164 182 174 177 158 145 136
129 126 136 137 127 122 124 130 134 137 137 146 153 156 154 149 158
145 146 146 145 145 155 160 144 153 153 148 151 143 141 141 143 152
150 156 159 162 161 166 162 156 144 143 138 151 146 145 140 147 157
160 155 155 138 138 143 148 142 122 119 134 136 137 123 122 114 114
120 133 130 130 131 134 135 133 138 139 136 138 138 135 131 123 123
113 113 108 108 104 101 101 102 101 95 95 90 93 98 108 106 107
120 118 119 108 126 139 125 136 133 129 134 142 138 133 138 136 140
131 123 125 119 112 107 106 102 112 105 98 99 98 107 113 116 120
114 102 99 102 102 97 93 104 108 106 116 110 112 109 120 120 110
125 133 146 132 116 105 100 97 98 96 98 105 121 109 112 128 127
113 106 105 104 104 121 121 122 123 115 129 136 126 121 118 109 91
94 95 99 89 91 101 96 96 92 99 105 107 116 120 122 107 110
114 112 113 116 106 103 100 102 103 101 97 101 101 109 112 114 110
106 101 92 94 92 92 95 97 97 94 102 99 106 102 106 98 102
106 107 110 129 134 126 113 140 145 119 114 114 120 113 105 143 117
127 121 114 118 117 135 114 114 112 106 110 117 108 110 112 116 116
114 114 125 126 152 134 121 126 122 123 135 138 127 102 98 99 110
95 106 96 85 88 80 77 80 85 94 96 103 107 105 99 109 103
91 90 94 95 90 91 99 96 88 97 98 96 90 94 101 100 104
107 106 118 113 104 96 92 91 96 93 88 104 113 104 100 95 92
93 104 111 105 104 107 112 110 113 103 97 96 98 98 101 104 108
108 107 116 129 130 127 133 124 118 122 126 116 123 127 122 114 99
96 102 124 127 122 122 113 114 113 119 131 133 131 122 123 120 117
124 125 128 125 126 127 119 104 104 107 105 103 105 112 119 121 136
135 131 125 124 119 113 105 103 103 103 122 131 140 133 115 104 101
103 106 106 113 110 111 116 122 120 110 114 110 111 106 108 110 123
126 119 121 123 124 132 127 128 119 129 128 131 134 127 136 135 136
136 126 133 133 135 140 110 122 127 124 136 130 128 133 131 125 126
126 138 143 148 148 153 155 155 145 131 128 127 131 130 138 141 150
151 148 151 146 134 137 125 121 123 116 119 120 118 121 124 122 132
132 132 133 134 132 136 143 141 160 154 150 152 148 152 154 145 151
164 166 166 157 157 145 144 150 147 145 145 143 129 125 120 122 131
134 138 153 150 147 151 126 143 121 131 133 127 140 149 134 127 118
110 104 105 103 109 111 105 106 110 121 125 122 118 136 151 152 122
120 116 118 125 129 139 148 156 146 146 152 159 157 152 144 119 119
112 108 108 110 112 103 101 104 103 102 96 98 98 121 120 133 133
130 106 106 98 97 96 106 107 111 123 133 130 116 113 111 110 110
122 124 128 126 124 114 110 105 108 112 121 119 133 130 135 129 128
102 101 106 105 105 115 117 119 112 101 91 86 83 88 80 85 82
88 84 83 90 95 98 104 113 113 114 115 113 115 107 103 102 93
86 95 108 108 112 113 126 112 117 121 106 115 113 106 126 134 141
122 114 106 95 98 95 94 97 93 102 101 84 80 84 87 86 93
89 80 93 101 99 98 108 112 113 112 108 105 97 93 98 98 102
107 111 111 106 102 100 97 94 87 81 91 98 108 112 107 100 104
98 95 100 102 105 116 110 123 127 130 123 119 112 103 103 104 95
92 97 100 98 97 97 98 103 104 102 101 93 86 86 86 91 96
97 114 114 114 118 122 127 139 137 129 132 128 127 137 136 133 132
132 119 107 96 105 111 114 117 101 119 107 95 90 90 90 88 94
88 84 81 83 80 84 87 94 97 91 98 98 91 93 94 94 101
98 92 95 98 92 98 99 89 90 88 82 97 88 96 107 104 107
111 113 104 98 102 106 103 114 124 113 113 108 92 91 87 101 103
102 110 120 118 108 95 96 93 90 90 95 93 92 94 90 88 92
95 103 96 94 104 108 103 100 105 115 119 116 115 117 113 113 113
111 113 126 132 142 142 132 121 113 107 106 102 104 110 114 115 112
112 109 109 95 101 99 98 99 104 108 110 100 100 96 95 98 108
117 121 107 98 98 103 105 110 114 118 109 119 120 130 124 127 132
129 130 133 133 141 138 142 130 121 118 115 114 121 117 126 134 135
133 135 123 130 119 130 134 141 147 149 147 156 148 147 144 125 120
113 112 125 121 126 122 124 115 114 111 116 119 117 116 107 114 113
113 113 112 127 120 119 110 108 122 137 144 140 145 137 122 119 155
165 160 172 159 138 119 121 123 118 118 104 107 111 100 97 99 105
106 110 109 102 114 117 125 119 120 114 114 125 127 131 125 132 133
139 139 142 130 133 127 116 113 110 119 116 126 118 127 104 100 91
88 93 103 112 110 112 110 111 116 116 117 116 117 115 107 104 106
100 97 102 109 104 108 106 110 112 113 114 122 127 130 135 143 130
133 135 125 130 137 139 103 102 106 105 109 108 107 104 96 96 95
92 92 90 93 104 104 100 98 97 93 94 99 102 100 107 104 82
88 98 100 102 101 118 117 119 120 125 122 111 109 113 98 99 99
103 115 126 125 133 121 114 112 118 113 116 136 132 118 108 108 109
99 84 77 80 88 94 98 97 97 110 100 97 94 87 79 79 74
75 88 89 90 87 92 90 81 83 86 88 92 93 87 86 90 97
102 101 124 117 112 111 98 91 94 92 98 105 106 104 104 110 115
118 120 113 110 111 127 130 118 115 119 122 123 124 130 117 110 98
94 101 107 107 104 104 105 96 95 97 103 103 108 113 124 121 116
121 121 112 111 104 104 104 124 132 122 113 118 133 135 123 120 130
122 125 123 120 112 111 102 99 98 98 98 103 107 101 105 116 107
102 100 106 95 103 99 94 92 98 88 85 87 94 99 89 92 88
92 93 101 92 94 85 86 90 92 86 91 91 90 85 96 91 93
103 99 90 97 104 105 99 99 94 108 132 120 110 115 117 108 111
115 98 104 99 96 96 100 101 127 116 96 97 115 124 110 123 113
112 108 106 103 102 101 93 97 96 94 88 82 83 86 84 88 85
87 88 84 85 82 84 86 88 99 102 122 119 110 107 111 110 105
101 100 101 109 110 102 97 96 91 90 99 98 95 95 99 117 112
106 101 89 91 94 110 120 123 130 128 116 114 115 120 120 113 108
104 103 102 105 122 132 129 117 131 132 132 135 138 130 120 118 112
119 122 128 124 109 102 99 94 93 88 98 96 95 102 113 140 138
137 145 136 144 143 143 138 136 134 122 122 124 137 135 130 128 123
115 116 123 123 127 128 124 115 111 108 107 99 105 102 107 106 109
115 134 141 112 114 108 103 105 115 111 108 109 114 118 123 124 135
138 146 136 124 117 111 126 113 112 121 129 127 130 116 117 112 129
118 107 101 99 101 111 112 122 126 129 124 119 129 118 115 102 105
108 118 125 127 118 122 134 140 142 123 126 96 94 94 90 97 99
97 110 109 120 112 118 121 127 134 150 152 158 159 139 128 142 137
121 120 116 115 105 98 99 95 101 103 102 100 98 102 105 105 120
106 124 127 124 128 123 125 108 109 96 88 88 87 88 89 98 107
112 123 128 131 133 131 130 126 118 106 104 102 96 101 110 109 109
118 119 116 112 112 111 119 118 105 116 121 120 123 127 123 121 115
106 102 102 100 102 99 101 100 99 95 94 113 108 98 108 98 97
100 110 117 116 112 120 121 121 118 118 109 110 116 117 110 111 116
120 122 121 122 132 136 126 119 122 123 127 120 121 119 122 121 114
106 99 102 104 97 96 105 108 97 95 97 100 101 107 113 108 102
90 86 89 103 100 98 107 103 98 107 117 120 123 119 126 116 105
113 120 107 104 110 115 122 109 101 102 103 104 98 103 103 98 98
103 89 98 86 79 90 77 75 86 93 92 87 95 86 87 91 92
99 116 112 102 100 100 84 91 109 113 110 107 107 111 115 108 105
108 106 98 91 107 105 112 98 86 84 88 90 89 95 102 99 94
95 94 90 97 93 96 98 107 97 100 94 101 101 113 128 125 120
128 126 122 120 132 138 129 120 120 120 116 114 122 123 124 120 127
127 127 125 124 122 127 120 111 112 114 118 120 118 116 113 115 118
114 110 113 112 108 105 103 102 100 100 97 97 93 92 83 86 94
101 109 107 101 111 93 94 106 110 107 120 120 124 128 121 122 111
88 97 100 109 112 117 112 112 110 110 98 103 102 104 106 101 103
106 114 119 128 137 139 123 126 142 139 134 134 136 152 151 154 170
166 152 152 159 163 150 149 144 130 138 137 139 142 133 125 127 117
116 110 108 113 122 128 144 152 155 146 143 160 164 163 166 162 150
146 146 153 152 151 150 142 138 132 129 119 122 122 127 132 137 134
132 130 123 126 119 123 122 106 110 107 106 108 110 108 102 102 96
98 96 100 101 100 102 103 102 97 97 96 95 96 94 96 98 96
96 94 91 88 90 87 94 91 97 99 99 105 104 99 105 102 97
99 98 98 98 95 96 97 98 98 105 103 106 102 102 116 114 117
140 145 141 134 141 145 148 129 123 126 122 120 106 109 108 104 101
103 100 100 97 96 91 91 96 104 101 96 83 83 81 89 92 89
92 93 92 95 92 92 106 116 106 110 105 96 95 94 106 118 132
148 155 129 108 113 106 88 85 89 101 117 119 120 116 117 126 117
108 103 103 98 100 108 106 104 121 119 126 126 118 113 116 107 97
95 89 80 85 87 90 105 103 99 96 89 95 93 95 100 97 102
102 93 94 87 95 97 102 96 103 105 103 102 107 107 97 93 97
85 79 72 69 64 67 75 80 82 83 93 94 91 94 89 89 98
104 102 106 103 101 105 98 103 97 95 105 114 115 111 102 95 92
100 98 92 93 96 95 94 96 94 90 97 96 90 87 93 89 82
94 106 126 115 110 114 111 112 108 107 108 106 105 106 104 103 103
101 92 94 86 83 79 79 79 85 90 96 93 91 85 82 86 92
92 101 101 98 95 93 102 106 108 111 116 108 99 98 94 91 93
96 99 99 96 90 84 84 86 86 87 90 89 84 80 80 91 92
96 96 96 94 89 92 97 94 102 108 102 100 109 118 100 100 99
94 108 120 121 116 119 122 97 96 96 104 106 99 96 94 98 102
107 111 112 108 106 96 107 110 118 118 114 103 104 102 99 96 98
96 86 86 97 102 109 113 111 117 116 116 114 106 92 92 97 101
99 93 93 91 95 91 88 100 106 105 105 103 106 105 108 107 108
113 113 122 120 117 113 107 110 110 110 116 117 110 101 104 112 112
116 114 95 108 109 110 114 99 111 118 135 135 149 132 132 134 134
133 137 148 144 131 132 135 131 145 168 164 165 166 170 152 157 146
140 138 125 130 121 111 116 129 133 125 126 116 119 111 123 133 141
144 142 141 157 171 174 174 169 158 149 162 168 170 168 165 163 161
154 140 146 138 135 131 127 124 120 114 113 111 105 95 92 96 108
113 122 121 125 121 121 123 114 109 101 94 90 93 98 96 100 98
94 95 95 96 96 97 95 103 104 104 104 111 104 107 109 106 110
112 102 102 100 102 105 104 101 102 100 97 98 96 99 103 110 106
106 107 108 110 114 113 111 106 104 103 110 111 106 98 96 101 101
104 97 98 101 100 97 99 103 104 106 103 86 86 96 98 100 107
110 119 122 116 127 130 125 118 116 121 115 110 91 100 108 104 109
113 109 104 104 102 105 111 112 107 108 108 104 103 108 116 109 104
96 88 92 96 98 109 107 100 89 82 92 98 98 96 88 87 89
94 91 88 85 82 80 84 90 93 87 77 88 98 101 101 104 101
101 108 108 89 81 93 104 104 100 102 103 112 108 106 108 102 94
94 86 76 75 80 83 86 88 90 93 91 84 87 95 85 92 100
107 100 102 120 101 109 115 112 114 110 117 111 104 105 99 94 94
90 88 87 83 78 82 78 77 80 79 76 76 76 78 81 77 79
83 83 78 76 74 74 75 82 84 90 102 110 116 110 101 106 102
97 95 93 108 121 109 104 104 101 100 89 89 83 74 71 87 94
95 90 95 93 90 90 90 85 93 96 102 99 103 105 109 103 90
100 110 108 111 109 115 107 100 102 106 103 100 102 95 94 85 84
80 87 91 87 88 90 88 85 93 105 117 118 118 111 113 102 98
105 94 101 97 98 101 93 97 101 108 106 100 109 110 105 101 112
101 101 109 108 109 99 113 112 122 121 111 102 98 109 116 110 113
113 115 123 117 109 111 107 106 102 94 91 98 103 120 126 125 120
116 112 109 110 115 118 120 120 122 119 120 127 114 109 120 124 131
112 113 109 117 125 125 120 121 120 123 137 131 129 127 122 124 130
137 142 125 126 129 129 130 126 132 124 124 128 138 125 112 116 116
117 108 105 107 101 99 99 102 102 112 117 116 115 121 116 121 124
136 138 141 135 130 126 137 144 146 136 136 141 121 119 123 128 128
126 131 130 126 145 142 146 148 157 158 148 142 146 149 137 138 148
158 168 163 162 160 165 165 160 160 166 177 162 155 148 155 129 125
138 148 150 128 116 121 107 107 117 102 95 93 92 96 105 106 115
111 118 103 100 111 107 107 108 107 111 108 101 103 95 101 103 107
104 108 110 108 114 103 109 118 115 98 98 99 98 105 111 98 90
82 82 83 87 88 92 92 94 87 87 92 94 97 104 108 107 103
99 100 96 89 96 103 106 114 105 92 84 80 82 89 86 87 89
92 88 89 88 84 84 86 87 85 83 82 91 95 92 96 100 90
91 94 93 94 94 94 99 100 102 100 91 92 90 89 92 90 89
86 87 93 96 105 95 94 94 96 92 96 96 94 98 102 112 113
106 95 96 92 84 79 83 85 82 93 95 96 100 99 100 88 89
91 95 94 97 96 93 89 94 89 92 90 90 89 83 92 91 87
88 94 95 102 82 78 77 78 86 84 83 87 84 78 72 80 89
81 82 78 78 88 94 87 88 85 89 88 97 97 100 102 93 90
93 96 94 91 84 78 76 76 80 79 81 82 84 85 88 94 93
94 93 83 75 79 91 90 82 76 78 79 79 92 86 85 82 80
84 78 78 86 92 92 87 86 98 105 104 89 86 89 93 85 82
82 89 94 90 85 83 86 76 68 81 78 79 79 78 80 74 77
90 95 92 86 99 115 122 121 116 124 118 113 116 111 104 94 102
110 106 111 110 101 102 103 96 91 93 79 80 84 80 82 83 80
76 80 80 83 81 85 86 89 99 97 94 92 98 89 96 105 104
90 88 91 92 95 100 94 89 86 86 90 93 99 111 113 112 128
127 112 114 117 123 123 128 131 130 144 136 120 111 110 110 108 102
100 100 112 110 115 110 111 112 106 108 110 106 105 104 98 101 107
111 107 100 100 97 101 96 102 106 112 109 107 109 112 121 120 121
129 129 130 136 135 125 126 131 114 111 125 111 114 120 117 115 114
114 106 102 102 104 102 106 105 101 99 110 114 107 105 107 106 104
104 106 104 112 124 127 125 114 124 133 142 141 138 127 114 122 119
123 113 125 130 129 115 109 109 115 113 106 110 111 114 123 125 119
132 136 134 127 129 139 133 141 149 149 152 155 157 159 149 146 155
158 163 99 98 92 101 100 103 102 97 88 86 82 97 99 100 100
96 97 96 88 91 88 92 94 92 87 88 92 94 96 91 95 98
100 101 103 104 100 96 104 105 108 102 92 90 94 99 96 89 86
91 92 90 94 96 92 97 106 108 102 99 109 122 114 115 109 107
113 110 105 97 92 91 103 95 89 81 83 81 78 78 82 86 85
81 95 97 96 99 101 98 98 98 96 105 108 116 113 112 107 102
106 100 109 136 123 117 117 121 117 109 106 103 101 105 105 108 116
118 120 128 124 120 120 82 86 88 91 95 93 97 108 112 115 111
123 120 110 88 80 86 86 87 101 95 91 94 89 95 91 84 89
93 87 89 110 105 100 99 96 98 96 90 92 86 86 90 90 94
90 88 84 88 87 81 78 87 83 83 86 87 92 100 111 111 112
116 116 103 106 107 104 110 109 99 100 93 93 93 88 92 93 100
103 98 97 88 84 90 90 83 86 97 105 106 92 93 99 93 95
92 84 84 84 95 97 93 96 96 109 109 93 103 105 107 100 94
93 89 92 92 96 98 90 86 81 82 84 87 91 91 91 95 100
104 107 104 104 107 111 106 91 83 84 86 87 84 84 84 80 76
77 72 75 75 73 76 85 87 89 89 92 89 96 100 107 107 97
100 109 110 106 106 105 107 106 107 113 114 130 121 121 121 117 120
129 123 125 134 127 118 118 111 105 100 96 100 99 102 101 104 105
114 135 123 111 114 113 106 109 101 95 93 97 100 94 90 91 91
84 84 92 100 97 104 114 115 110 106 111 117 117 120 125 129 126
139 131 130 134 117 112 113 112 113 115 112 109 112 115 111 112 114
109 104 104 108 122 113 105 106 114 119 120 124 129 132 123 111 110
110 101 110 106 106 111 107 108 113 110 108 102 97 95 95 88 87
89 105 105 108 131 146 151 131 123 126 127 117 113 115 130 131 127
119 106 109 110 110 109 103 106 106 97 90 89 87 84 104 106 108
108 109 104 106 102 89 97 99 90 90 95 104 111 105 98 102 95
91 95 88 96 101 110 118 105 106 106 123 113 122 127 121 110 107
105 122 132 141 149 144 98 98 97 87 88 83 88 90 82 80 87
87 86 90 88 89 92 92 96 99 100 100 102 108 113 106 108 102
97 99 97 96 95 98 96 96 97 98 94 91 91 90 89 88 95
98 99 89 86 90 89 91 107 110 113 110 105 100 107 111 115 111
115 126 116 100 87 82 80 85 86 84 77 74 69 76 82 89 114
101 102 101 92 93 94 101 97 86 79 81 78 81 86 81 90 90
100 99 94 91 101 99 102 110 107 105 103 108 109 102 105 115 115
99 90 84 89 82 68 74 85 89 100 96 100 106 108 123 120 118
116 102 99 97 83 84 89 93 90 84 86 87 87 90 86 81 84
86 87 89 87 90 98 93 95 109 86 82 96 101 103 101 98 93
87 87 86 80 85 86 91 86 82 82 84 81 88 94 96 104 114
116 118 119 118 110 106 106 104 104 92 98 99 107 108 108 107 94
91 89 86 90 93 95 93 95 97 93 84 86 88 89 89 91 86
86 87 103 109 114 110 108 110 122 117 103 103 119 116 112 100 94
97 101 97 101 98 97 90 102 103 93 86 84 82 92 98 96 89
85 81 94 101 101 109 97 92 90 85 83 84 78 75 84 81 82
89 88 88 88 84 81 81 79 75 77 74 78 86 93 96 96 98
102 118 126 126 126 127 111 106 112 112 118 115 120 125 116 116 109
105 110 107 111 125 127 142 141 125 125 130 127 124 110 125 122 108
100 92 94 99 109 108 115 111 97 96 106 107 123 118 109 112 112
110 117 106 110 122 119 113 113 98 85 89 99 117 111 105 104 105
114 133 139 143 139 126 120 111 106 110 108 108 116 114 116 111 106
111 107 102 118 121 139 134 129 122 127 128 131 130 131 132 127 125
128 126 125 115 108 118 114 115 109 112 121 125 126 118 112 106 124
124 122 123 123 119 114 105 97 99 103 111 125 137 137 153 138 137
137 130 134 131 138 144 134 130 136 113 117 124 145 145 123 118 119
120 121 117 110 108 106 110 108 112 111 113 113 108 110 120 124 111
112 99 96 94 89 94 91 90 92 98 96 96 103 97 95 99 104
94 99 106 112 128 116 119 122 124 115 93 92 92 89 91 94 101
103 97 88 92 95 98 106 106 110 108 106 108 122 132 119 110 108
109 102 99 96 101 107 96 99 100 98 94 91 96 96 94 90 94
97 94 98 101 103 105 102 98 104 115 110 102 106 108 125 136 137
110 116 112 103 88 89 94 81 87 91 79 91 100 106 111 116 111
99 91 97 112 107 105 111 106 97 104 105 100 104 108 112 114 116
114 112 112 105 94 84 105 109 104 104 107 108 118 119 114 126 95
100 96 82 83 91 98 93 94 99 101 106 107 106 117 117 110 130
116 116 100 109 110 99 92 80 76 76 76 75 77 78 78 81 81
85 89 90 95 102 94 91 86 81 84 85 85 90 96 102 97 92
90 86 82 83 88 94 95 96 100 103 100 102 116 122 124 125 127
126 129 121 112 107 97 98 94 100 103 98 97 94 95 94 101 102
98 84 79 81 81 86 86 87 80 86 89 76 86 86 92 101 95
91 92 88 94 99 102 94 91 90 92 85 84 84 87 70 68 78
77 74 70 71 72 72 73 80 71 65 63 68 70 74 67 73 86
90 85 75 80 91 98 91 87 91 89 87 88 89 90 96 88 87
88 81 81 81 80 86 99 94 94 86 80 74 84 80 86 91 82
79 74 82 88 108 98 108 116 120 130 142 137 132 123 115 107 111
109 106 110 128 135 129 119 129 121 100 100 100 89 104 122 121 122
113 118 115 97 99 94 80 87 86 89 95 97 103 105 109 104 103
108 101 110 109 101 105 113 123 107 95 90 105 109 106 109 106 96
93 103 100 103 108 99 94 98 96 97 103 87 90 99 113 128 121
114 121 126 138 137 129 127 119 116 104 107 111 114 122 119 119 120
118 104 123 127 122 120 113 119 111 113 104 103 98 98 101 104 117
117 119 118 114 120 122 115 107 105 106 106 110 109 98 105 105 102
103 106 113 130 132 136 136 127 124 128 136 144 157 138 128 124 122
122 129 137 140 136 135 119 115 111 121 122 136 143 139 137 136 132
132 129 126 114 120 119 127 133 133 130 126 109 106 100 99 100 97
98 97 96 98 102 107 110 109 96 86 100 119 126 131 91 92 96
108 108 115 123 112 116 121 127 117 113 115 114 109 97 111 114 116
109 105 104 114 110 110 110 103 103 103 100 100 100 117 108 109 113
136 140 142 151 128 119 113 114 121 130 134 135 139 150 152 154 151
152 138 134 107 96 88 90 93 86 83 86 93 97 101 105 90 87
92 90 91 85 86 86 84 84 88 96 102 100 108 97 101 105 103
110 133 138 136 134 127 128 126 140 152 146 141 159 154 145 114 93
98 94 88 85 87 82 84 86 87 90 91 91 90 92 90 89 88
87 84 84 83 89 91 93 96 92 97 96 98 101 108 104 115 113
104 118 118 118 110 106 112 108 105 104 100 93 92 90 92 96 103
104 98 91 88 88 94 97 105 112 110 105 97 100 99 100 105 98
94 92 88 91 92 91 94 95 99 96 95 108 104 98 106 106 101
106 89 88 86 87 86 86 86 82 80 77 76 72 71 74 77 85
87 88 89 95 94 84 88 91 85 83 90 89 92 88 89 85 81
79 78 80 80 86 86 90 87 82 71 70 74 78 93 96 98 103
98 82 87 94 89 90 94 91 89 90 89 89 92 88 90 100 114
110 100 101 102 102 105 106 109 104 86 79 100 117 126 127 116 106
96 89 86 83 83 76 71 64 62 59 56 57 79 84 91 101 110
107 101 106 99 94 105 110 102 100 104 104 104 98 93 95 100 97
91 86 82 82 78 81 76 74 78 76 76 87 85 83 88 90 97
99 90 101 106 104 106 108 106 116 119 118 109 97 102 101 99 100
104 100 104 103 110 106 98 102 95 96 94 91 99 107 113 112 123
120 110 111 110 118 124 122 118 127 130 128 118 120 120 118 111 112
114 140 125 123 139 127 131 140 134 133 137 138 129 123 122 114 122
126 130 115 108 111 112 108 108 106 112 119 117 116 110 108 88 96
98 84 90 89 84 87 89 86 91 97 113 134 145 146 133 127 120
116 120 124 134 146 146 143 143 130 144 157 146 138 133 132 132 133
119 131 136 134 145 142 132 149 148 150 151 142 142 134 138 134 131
127 128 129 129 122 126 128 125 125 113 106 107 108 113 116 114 115
119 127 131 136 136 141 144 111 120 106 105 106 109 113 120 117 118
114 103 89 96 100 97 97 103 104 115 123 124 116 123 125 127 114
111 124 131 124 119 117 112 112 120 129 137 142 148 135 142 147 146
143 133 132 94 79 82 81 85 84 84 84 97 95 91 95 93 74
70 73 82 75 83 103 110 108 103 104 107 117 122 118 105 108 127
134 138 125 125 122 120 126 128 112 129 122 124 118 120 119 106 104
94 90 84 82 81 84 85 84 82 78 81 90 95 95 98 94 86
84 83 82 84 84 79 77 85 94 105 106 88 85 85 103 99 100
107 110 114 102 130 109 99 112 116 114 108 98 96 96 106 117 108
111 100 87 81 80 81 88 95 98 100 95 96 92 88 92 95 93
96 92 90 86 88 90 90 87 89 90 91 85 76 76 77 82 84
84 84 92 88 81 82 76 74 67 70 75 76 77 82 81 79 83
84 94 99 93 88 82 83 85 86 94 93 92 95 89 90 80 73
67 68 69 72 80 75 77 81 84 78 81 88 86 85 89 79 91
81 81 82 84 88 88 92 98 94 87 78 80 84 83 87 79 90
85 80 91 86 94 86 106 91 105 125 112 98 98 100 83 98 110
108 111 109 100 81 76 72 73 64 62 62 61 63 70 69 68 71
65 64 66 68 66 71 74 80 89 93 91 81 78 79 86 90 98
100 102 100 102 115 96 93 90 92 90 84 75 78 80 87 91 91
90 88 82 78 76 77 74 79 80 88 88 93 94 98 104 106 99
101 112 113 117 118 109 110 114 104 96 96 96 94 90 94 93 93
97 99 98 92 94 91 91 90 86 92 110 105 107 129 125 127 113
112 117 122 127 122 112 105 114 116 107 108 117 104 94 98 103 113
113 128 128 121 119 121 108 120 127 129 114 111 110 103 98 96 100
92 87 85 90 89 86 85 84 87 80 80 82 86 89 92 96 102
114 128 134 145 143 142 132 127 122 113 126 135 150 151 142 126 124
133 140 150 141 131 121 113 108 115 134 150 158 163 150 149 146 136
147 155 167 149 151 160 160 151 147 161 156 152 149 142 146 146 151
146 148 135 131 128 105 102 109 100 108 115 110 114 110 106 100 101
97 102 104 110 113 115 115 128 135 131 135 134 116 111 108 119 125
134 137 140 133 130 131 123 115 116 130 138 150 138 127 126 123 123
112 112 96 90 81 76 72 73 72 73 90 92 95 80 74 71 74
75 75 77 82 82 89 89 91 89 90 90 90 96 100 99 92 81
80 88 108 100 96 100 99 101 99 93 88 78 86 95 100 96 91
93 91 89 85 86 87 90 91 92 94 122 122 111 106 106 100 79
77 81 78 78 75 80 85 90 92 94 94 94 94 96 90 89 91
104 109 105 103 94 91 88 83 84 86 84 83 78 77 78 87 99
111 105 100 97 91 86 90 90 93 96 97 102 99 90 94 104 114
111 96 92 95 93 79 77 78 78 80 82 78 78 84 88 90 93
93 90 87 77 72 70 70 72 74 71 71 76 80 82 95 83 77
80 79 79 80 78 75 83 92 87 76 75 76 79 77 70 64 63
59 60 69 76 80 93 93 87 79 73 78 81 80 78 74 76 82
77 78 80 79 79 78 70 74 76 72 67 66 67 75 82 86 88
87 86 84 79 77 82 92 91 89 86 86 74 82 88 88 78 78
72 70 65 65 66 70 71 78 73 68 67 81 79 87 89 88 88
81 75 70 69 66 68 68 69 76 76 73 72 72 71 76 82 82
88 90 91 92 95 96 97 93 106 96 98 104 96 102 98 88 91
86 75 72 70 75 70 77 74 76 79 87 89 92 82 81 80 79
79 78 76 78 77 84 90 84 76 76 79 80 83 92 88 88 92
97 98 93 93 92 86 85 94 107 104 105 102 101 97 94 85 80
90 88 90 95 104 101 101 95 95 115 116 108 106 107 108 109 112
116 128 137 124 136 145 125 125 115 115 121 115 100 97 94 110 113
114 113 101 98 104 116 116 112 106 98 95 93 94 97 90 98 97
92 91 87 88 91 95 100 101 101 103 110 114 116 130 127 126 133
142 147 145 141 140 142 140 139 143 138 130 112 113 112 110 111 112
115 110 122 124 132 136 140 144 137 134 136 132 129 128 137 136 137
126 127 124 123 134 129 126 126 116 100 101 100 109 108 109 115 116
116 110 110 111 136 138 138 118 116 114 112 111 110 122 124 126 142
141 140 134 127 120 98 102 108 112 108 114 102 99 96 97 96 97
98 90 80 71 70 69 79 75 75 79 82 81 75 71 69 72 74
76 76 87 93 95 81 84 90 94 101 102 104 94 85 88 81 87
91 87 87 90 85 86 81 78 87 92 96 104 106 100 99 96 97
91 90 101 95 92 87 82 82 96 86 83 80 79 74 76 73 72
69 68 76 81 85 94 80 82 85 97 106 105 102 107 113 95 93
84 75 73 74 74 74 76 76 77 77 83 87 88 83 81 83 93
86 86 82 84 77 76 79 84 79 76 82 79 80 82 87 93 90
86 84 86 85 81 82 87 85 85 87 85 89 87 89 82 79 74
76 83 77 79 84 79 77 85 77 81 79 84 75 72 70 67 68
69 70 70 66 69 68 69 72 66 76 58 56 56 56 56 58 57
57 63 68 68 71 70 72 76 78 78 77 73 71 74 74 79 83
84 85 88 91 83 83 86 93 90 68 67 78 86 88 97 91 98
96 87 88 85 88 78 80 80 77 74 79 89 91 81 84 80 70
76 70 75 76 71 69 64 65 70 72 73 70 69 69 69 69 69
77 79 77 76 77 75 74 81 80 70 68 69 70 71 73 75 70
68 66 67 64 67 69 62 57 57 73 84 102 114 101 103 105 106
112 102 92 83 79 84 87 81 80 78 74 74 75 76 69 74 75
70 73 83 84 83 76 74 75 80 87 84 75 80 77 77 75 77
83 84 88 94 88 89 91 89 89 90 94 88 89 86 82 80 85
83 88 98 97 98 94 96 99 106 104 98 88 102 114 124 120 103
96 100 103 113 109 118 129 117 109 115 108 111 114 99 98 99 122
128 134 108 100 91 107 112 114 109 120 125 124 121 123 123 128 136
122 114 107 96 94 90 92 96 91 88 89 84 87 90 94 98 100
96 97 99 96 87 93 116 128 131 130 130 122 139 132 142 150 152
148 123 116 132 118 119 118 129 135 133 133 134 146 144 139 139 139
142 141 137 130 138 141 140 152 146 140 126 124 116 120 113 119 121
116 115 120 124 121 122 114 120 124 138 139 138 146 148 142 138 146
141 135 133 125 115 106 103 100 96 101 108 109 106 99 87 82 81
82 86 84 82 75 72 62 64 67 70 71 69 70 70 68 69 71
72 81 83 83 81 81 83 89 103 122 113 110 106 108 108 110 113
118 132 119 109 96 94 96 104 109 112 116 120 121 118 112 103 100
96 91 100 95 91 90 95 96 94 96 93 88 82 81 84 82 80
80 83 91 92 93 85 86 85 98 98 97 95 95 105 94 98 94
90 89 91 91 81 90 104 117 121 107 104 103 102 106 91 80 78
91 90 86 90 93 95 90 96 101 98 105 109 104 105 102 88 87
85 88 94 92 95 97 99 101 100 93 87 84 75 82 80 78 75
72 71 72 76 69 70 70 69 73 73 76 71 73 74 63 63 70
77 79 77 80 78 86 84 83 91 87 90 91 82 81 72 80 93
94 93 94 94 93 88 82 85 92 88 80 77 74 80 86 92 93
92 90 96 94 83 85 92 104 98 91 94 100 110 106 110 103 96
95 90 86 90 92 89 86 84 87 89 80 74 65 80 87 82 73
79 73 76 74 77 77 83 83 84 82 78 70 63 65 70 67 72
81 79 79 82 79 81 84 90 90 84 90 89 83 82 83 87 92
91 82 77 73 63 65 64 64 64 68 74 86 72 62 62 66 69
79 92 102 92 104 101 100 113 115 113 109 106 108 105 97 104 100
84 88 82 77 82 79 75 82 87 89 93 94 100 100 95 96 106
102 96 83 88 84 94 82 79 86 87 96 100 102 105 112 125 123
127 115 101 93 99 92 90 97 95 104 110 111 112 107 113 108 97
95 94 89 108 100 101 107 102 105 103 122 114 115 126 120 125 139
135 134 132 127 123 120 119 123 120 117 117 121 105 101 94 86 88
90 103 107 114 112 111 110 106 108 114 133 128 118 114 113 116 108
104 100 96 97 104 103 100 93 102 107 110 101 100 106 104 103 99
102 104 119 119 122 146 158 171 157 149 144 146 139 134 126 128 135
124 117 125 147 159 164 156 154 154 152 148 145 148 146 145 151 157
146 146 129 140 136 137 133 124 146 146 144 131 125 104 109 119 126
139 131 118 105 100 100 93 84 80 72 75 84 87 84 79 74 74
76 85 97 97 88 83 68 69 72 79 81 81 74 80 84 86 77
86 101 104 102 89 86 98 99 105 120 120 119 117 118 111 106 110
112 111 107 96 99 99 99 100 103 108 108 108 115 117 111 99 98
96 96 95 91 89 91 92 90 91 95 93 93 90 85 81 80 78
77 76 76 80 81 86 90 90 90 90 88 90 94 102 104 98 96
97 93 93 93 99 111 111 100 98 89 84 85 88 92 89 86 80
84 87 95 90 101 107 110 95 95 97 99 84 78 81 76 69 72
74 76 75 77 79 82 82 80 85 86 81 73 69 68 70 70 72
72 71 70 76 75 70 70 71 69 70 71 70 63 62 62 63 67
78 76 73 77 83 80 64 62 60 60 64 66 66 65 67 66 70
76 80 87 82 80 76 74 78 75 71 76 77 79 81 81 89 90
89 88 90 88 87 87 83 81 75 76 73 75 79 72 71 68 74
73 73 87 89 93 90 77 86 93 89 86 88 92 91 96 104 103
98 89 91 108 100 99 100 88 94 95 101 101 99 90 92 87 99
94 89 82 82 80 92 91 85 72 71 75 76 76 79 75 79 79
72 68 71 74 70 76 73 80 85 86 87 83 70 70 68 70 68
66 66 70 69 64 63 65 68 79 86 88 121 117 114 103 115 121
108 108 108 105 108 111 115 97 97 95 96 106 99 85 86 82 83
82 87 88 91 93 93 94 94 89 85 86 83 88 88 88 92 87
84 83 90 78 94 101 107 114 102 92 94 91 95 98 92 85 89
100 100 104 104 101 104 101 98 94 100 94 92 87 89 83 79 77
82 82 85 90 110 107 110 108 111 112 115 116 124 134 135 124 121
123 131 121 104 104 94 92 92 80 84 92 100 101 100 88 88 85
82 78 80 76 84 103 111 109 106 103 103 100 108 100 92 107 109
107 106 101 96 100 100 98 103 103 101 97 98 102 109 112 106 97
98 121 108 101 95 107 115 123 118 115 114 124 138 150 157 160 146
141 136 134 135 108 113 113 106 101 101 101 94 96 87 78 90 80
79 79 77 80 86 87 86 73 64 70 73 76 84 87 86 82 80
80 87 92 104 100 88 78 66 75 78 78 98 93 92 102 107 108
114 123 128 116 107 102 110 115 118 126 139 140 128 115 104 102 103
98 96 89 92 89 101 118 118 125 126 128 127 126 117 110 104 98
94 89 83 83 84 89 92 91 85 83 92 93 88 83 86 89 90
88 84 86 89 93 90 94 100 100 97 95 97 116 137 143 120 108
97 88 85 82 79 79 83 81 80 78 74 72 76 76 83 94 96
89 96 94 90 89 94 90 94 93 89 82 81 81 82 80 76 78
82 80 78 78 81 84 86 88 77 78 78 74 74 75 86 87 86
86 85 87 87 82 85 84 93 94 93 96 96 94 79 75 73 69
76 75 85 97 99 91 89 84 75 74 76 84 82 80 75 68 68
68 70 68 68 66 66 66 68 64 66 88 95 93 88 87 90 93
91 88 82 87 85 82 80 83 85 81 76 75 74 76 77 80 91
95 92 93 85 82 77 88 88 91 95 92 84 81 85 73 84 94
73 78 70 71 65 65 68 68 62 61 60 71 78 82 86 97 113
118 119 123 110 102 107 108 99 86 92 89 89 88 79 78 82 84
79 76 81 89 97 100 105 102 97 88 85 90 80 81 92 91 86
87 79 76 73 73 72 66 69 64 62 64 72 72 74 70 76 78
90 94 113 122 117 117 118 113 102 100 100 114 105 96 96 94 93
92 95 91 113 104 100 99 93 87 98 98 96 94 97 90 90 84
91 96 98 99 88 93 89 89 81 83 84 82 83 83 88 88 84
87 92 93 90 89 85 93 90 91 96 103 95 90 96 100 91 93
97 94 91 91 85 81 83 86 87 94 94 103 108 108 117 135 128
128 111 114 141 150 139 149 157 146 126 120 111 125 134 120 120 122
116 104 103 109 112 111 111 108 101 88 95 93 89 96 104 104 96
94 101 102 100 96 100 124 125 125 111 104 97 94 94 99 100 101
86 88 91 89 93 100 101 102 104 98 99 101 97 95 99 90 85
90 94 97 110 110 109 121 124 79 70 75 70 62 62 64 68 70
70 69 73 78 81 85 84 78 73 73 76 76 81 86 89 80 77
77 85 89 90 92 90 90 88 85 80 77 76 78 83 89 97 100
102 103 103 111 112 115 110 106 116 119 119 122 128 129 121 119 119
120 116 101 101 101 110 115 118 115 115 105 96 95 102 100 94 88
85 87 87 89 91 88 93 92 87 86 85 85 91 84 80 85 86
92 84 84 76 79 86 96 88 93 102 100 96 105 102 94 90 86
96 101 101 109 114 103 101 100 111 110 105 86 80 80 83 84 81
85 90 81 77 79 79 67 62 64 71 76 83 83 78 81 72 70
70 75 79 78 78 81 82 83 83 80 86 85 78 77 73 78 77
76 70 70 68 69 75 73 72 73 68 67 64 63 62 62 66 76
77 77 82 93 92 85 77 75 76 75 74 80 76 71 74 77 78
79 79 76 74 76 79 74 71 70 64 66 69 69 74 90 98 92
81 94 100 92 86 92 84 88 84 87 84 89 92 96 106 103 101
99 95 90 93 97 94 84 85 85 75 74 72 65 64 79 81 69
68 71 66 72 71 72 65 70 71 62 65 60 73 69 75 66 63
65 66 71 72 67 76 77 69 68 74 66 71 78 74 77 84 96
91 79 69 70 69 74 78 81 77 81 76 77 81 85 84 92 94
85 83 86 89 96 96 86 93 87 83 82 74 73 70 66 72 73
64 61 73 71 70 74 71 66 68 75 112 117 118 116 106 98 94
84 85 90 92 90 98 100 104 106 105 99 98 90 96 117 113 108
101 108 99 92 92 91 92 109 123 123 110 112 111 111 109 107 100
95 98 97 96 97 89 80 83 92 93 91 91 88 89 89 89 90
102 111 114 128 123 120 121 117 107 107 100 102 92 82 80 77 76
79 83 84 88 97 92 104 91 97 113 132 144 154 176 181 161 150
133 114 107 114 136 145 146 135 134 123 119 127 130 133 132 119 118
117 107 97 100 105 109 106 106 96 100 100 92 101 108 123 127 131
108 105 114 111 110 108 111 110 99 92 92 93 95 109 108 109 100
95 93 93 93 99 98 98 96 94 95 106 110 70 66 64 63 64
67 75 90 97 98 84 81 79 74 79 89 82 81 85 88 87 80
78 96 96 93 94 96 92 86 83 80 84 88 96 93 105 111 114
99 87 92 90 84 86 90 84 80 80 96 87 90 104 91 86 95
89 88 83 86 92 96 106 109 112 112 107 112 94 88 96 102 99
93 90 89 90 88 78 80 80 78 80 78 83 82 80 78 81 81
80 81 88 103 109 99 100 112 108 95 108 103 103 99 103 91 83
76 92 88 88 83 82 108 99 94 94 90 112 100 87 76 80 92
96 87 89 85 81 82 86 87 86 86 84 93 100 97 90 74 68
72 85 83 89 90 79 76 74 72 83 86 96 80 72 75 71 66
70 63 66 74 65 70 61 55 55 63 60 62 75 79 80 73 64
64 62 63 62 72 77 75 74 72 71 68 65 62 60 65 70 69
70 70 76 78 77 79 82 81 80 83 78 85 80 80 86 87 88
93 97 98 97 98 97 91 96 94 88 86 88 86 94 100 98 97
96 84 93 88 102 102 102 97 97 88 81 72 79 78 75 75 75
80 76 74 71 68 69 68 70 70 74 71 72 68 66 66 67 74
78 76 67 68 69 67 67 69 64 65 70 72 77 76 69 68 71
67 67 66 72 76 72 80 83 84 82 69 67 70 70 78 84 91
102 100 98 97 95 105 93 94 100 96 98 89 85 87 86 89 96
89 85 86 82 78 70 61 65 75 64 77 79 66 63 59 57 62
80 100 117 103 104 112 120 106 105 100 100 92 88 92 101 97 91
91 88 82 90 109 124 126 123 115 112 113 102 104 110 115 133 132
132 137 134 131 125 115 109 109 111 107 104 87 84 84 77 77 75
79 88 91 94 88 87 90 103 115 129 130 126 116 110 107 105 109
95 94 91 86 80 80 84 86 80 82 84 93 95 96 89 87 90
100 114 111 112 120 136 142 137 131 129 111 106 113 110 108 105 100
97 103 106 110 99 102 118 114 110 109 104 95 98 123 118 116 112
110 112 112 106 109 120 126 118 118 117 115 115 103 103 111 113 111
103 98 101 106 101 95 97 112 108 104 98 98 99 109 100 99 75
72 81 89 90 88 86 80 80 76 80 84 88 82 83 77 80 84
89 96 93 94 97 92 97 112 95 94 91 92 90 93 87 86 93
94 80 80 73 76 73 77 79 74 67 67 71 76 78 78 84 90
99 92 93 97 95 114 120 104 101 97 85 78 84 81 78 98 91
91 80 77 78 64 79 84 80 90 89 94 89 82 78 71 73 75
88 100 100 91 91 82 79 74 68 61 65 63 66 68 68 71 71
72 79 83 83 86 89 85 90 86 84 90 94 90 79 72 64 64
67 75 73 77 68 68 68 66 71 66 60 60 61 60 68 72 82
82 82 77 79 72 78 73 82 72 74 65 68 71 74 67 69 67
66 54 56 60 59 56 55 57 51 52 55 65 62 69 66 64 67
65 67 67 70 85 89 87 82 78 75 75 75 74 77 73 80 79
75 72 73 72 72 79 74 71 76 73 74 80 83 87 82 96 98
95 87 93 99 102 97 102 104 97 92 88 86 83 88 97 97 102
87 85 87 86 77 77 82 85 82 80 78 71 68 68 67 67 66
61 61 62 59 57 62 69 74 81 82 73 71 75 81 77 72 76
72 80 78 76 85 84 75 75 63 63 61 61 60 65 62 57 60
64 75 81 85 75 81 74 70 69 79 79 78 81 78 79 87 84
73 74 76 73 68 72 75 72 68 74 77 79 84 79 70 72 75
72 72 80 71 89 89 72 71 70 70 71 71 72 72 62 63 66
63 61 69 64 61 49 54 50 54 58 61 70 75 79 87 82 90
93 92 86 91 85 79 83 86 102 88 84 96 100 97 98 96 90
88 81 83 91 90 107 100 92 97 104 109 106 106 121 111 116 114
102 107 103 97 92 91 82 74 66 70 58 61 61 64 70 76 87
98 113 117 118 114 108 102 96 92 93 94 92 91 87 88 90 91
96 95 94 91 87 85 83 76 74 68 86 108 103 114 126 99 104
104 122 117 120 109 102 88 94 89 91 88 95 108 111 120 114 110
103 95 102 102 99 95 101 107 117 122 124 124 130 121 119 125 138
124 117 106 104 100 99 98 79 82 88 90 91 90 94 95 88 89
96 94 92 104 105 94 91 88 89 92 92 98 104 99 97 98 112
113 122 117 105 98 108 115 119 116 97 100 89 106 106 112 112 96
98 108 98 93 80 74 71 78 81 75 76 73 77 81 90 99 95
101 97 79 95 100 100 101 100 98 97 97 96 96 97 88 89 86
80 87 86 86 90 95 108 93 98 93 86 76 83 80 87 89 99
104 107 110 101 93 86 78 79 75 71 69 71 73 76 83 84 83
83 80 83 81 89 97 88 78 88 91 91 91 91 89 83 78 75
75 80 80 78 73 74 75 74 73 68 71 71 72 72 72 81 76
91 98 93 86 86 81 80 85 85 89 81 80 79 75 72 65 67
61 61 62 66 70 67 72 70 64 70 76 66 64 71 71 72 73
77 75 72 71 74 74 79 92 93 82 81 82 81 84 87 77 73
74 83 86 80 82 77 75 80 84 78 87 82 88 92 86 88 90
97 100 97 99 100 97 90 97 93 94 91 92 89 92 101 101 92
97 94 85 86 92 95 94 101 94 93 73 60 59 57 57 56 57
64 64 56 62 65 72 74 70 69 66 71 75 75 75 78 76 85
95 92 97 95 88 96 105 101 93 94 88 95 94 92 92 83 72
73 81 77 76 77 75 73 75 70 68 74 89 102 98 90 85 83
95 92 96 94 86 77 76 88 81 76 70 78 82 80 78 74 72
74 78 76 75 79 69 68 68 65 63 61 66 72 76 77 80 80
85 94 94 90 85 86 84 87 80 74 74 66 61 63 64 58 62
63 71 72 71 76 74 74 79 80 78 73 72 64 68 76 75 75
76 74 79 85 87 79 78 72 72 87 88 87 93 93 89 85 84
99 103 105 102 104 97 94 92 90 96 85 84 89 88 85 85 80
67 68 74 69 67 70 82 84 103 110 112 107 103 103 98 94 86
88 92 90 86 90 92 100 104 99 91 88 93 95 92 91 88 86
94 101 106 107 104 100 101 108 120 130 128 134 126 114 96 99 92
86 88 92 100 99 95 97 98 101 100 107 119 114 104 107 117 113
114 101 110 114 120 126 134 138 138 135 126 115 117 117 118 116 112
102 93 108 112 106 101 97 81 82 86 92 100 108 105 98 96 96
92 102 109 111 105 122 134 131 126 111 101 100 109 109 112 101 89
86 86 97 104 97 95 93 92 94 100 94 100 99 102 112 126 124
125 122 112 113 117 123 120 117 109 106 104 100 91 89 89 91 86
68 73 74 93 93 89 90 84 81 78 73 79 81 82 85 100 95
98 97 96 92 96 96 97 105 101 97 89 81 78 74 74 74 77
69 75 78 81 81 82 82 78 74 75 83 87 86 82 86 92 90
83 70 70 72 69 65 65 64 72 73 72 73 75 76 76 78 88
96 102 105 104 87 82 85 86 88 88 80 70 70 66 65 65 63
63 62 65 67 67 67 68 69 70 66 69 76 78 83 78 75 80
85 80 79 82 84 85 82 89 92 88 87 86 79 75 77 82 81
77 80 85 71 61 70 85 89 93 86 66 71 72 72 76 79 87
83 81 80 79 90 91 83 87 95 97 91 88 88 92 82 74 73
68 74 83 84 84 80 82 89 87 77 64 62 56 54 54 54 58
63 62 65 70 70 71 74 70 74 78 88 85 78 79 77 77 77
73 71 67 69 80 80 84 82 86 89 92 87 81 80 86 91 89
95 103 115 99 88 83 92 88 81 84 83 80 82 87 87 87 85
76 80 88 91 94 110 109 98 99 100 92 82 73 80 78 77 80
74 77 80 78 75 74 72 78 89 79 76 77 76 84 90 85 82
85 88 92 86 86 75 69 69 72 73 73 75 80 91 92 99 97
97 91 94 89 90 93 91 88 91 90 95 89 92 80 79 77 76
78 77 80 80 73 73 74 75 84 90 91 91 87 88 85 87 87
84 81 82 78 72 65 62 78 103 106 114 115 111 102 106 116 116
114 101 107 109 105 108 105 93 88 84 81 74 72 66 84 99 108
105 104 98 90 94 96 101 98 92 94 101 102 104 118 106 111 120
113 102 96 89 85 86 86 90 95 98 106 117 107 98 98 112 108
128 141 142 143 132 134 133 139 129 129 131 121 122 124 119 112 114
112 116 114 117 107 104 103 101 95 101 111 130 137 142 144 146 154
148 135 134 134 134 132 126 117 110 111 111 110 108 116 115 122 110
101 97 104 117 118 112 122 124 121 117 109 95 94 101 97 94 94
94 91 89 93 92 95 85 84 101 100 98 92 92 91 90 93 95
96 108 109 118 122 121 132 133 108 102 100 98 90 86 84 83 85
93 84 84 95 96 86 81 81 80 77 72 72 81 83 85 88 89
87 87 82 85 93 99 100 99 98 84 78 76 65 65 63 69 75
82 77 75 74 68 64 66 70 77 87 104 122 102 101 110 107 95
91 88 73 62 61 63 69 73 74 79 77 78 83 87 88 89 95
92 89 90 87 90 103 98 88 85 78 74 74 75 72 65 72 71
63 65 65 67 71 68 70 65 63 64 68 78 83 88 93 96 90
86 80 84 89 89 88 80 76 75 68 64 70 64 52 52 65 66
73 76 69 61 55 56 58 62 62 67 74 72 71 70 69 77 87
88 89 86 90 82 86 88 94 92 79 77 79 79 82 79 83 88
84 76 78 79 76 68 67 68 64 65 81 80 64 60 64 67 72
76 79 80 78 80 84 81 73 71 70 64 64 67 67 66 65 67
70 67 69 65 66 80 92 78 77 82 82 77 76 68 69 70 83
80 77 80 80 90 95 103 105 105 95 92 95 88 84 83 85 93
87 90 99 99 99 99 91 88 84 84 85 88 93 85 80 85 86
82 88 80 78 74 75 87 89 85 82 74 71 71 72 71 74 67
69 76 80 79 75 68 70 77 89 94 88 94 91 76 76 70 66
69 69 69 66 85 94 91 88 74 83 83 82 76 72 74 71 70
74 77 81 88 83 83 76 76 79 78 76 73 73 70 81 89 93
85 84 78 82 93 88 87 88 91 90 84 83 76 80 76 78 80
90 96 99 103 105 101 96 97 89 89 90 91 94 98 114 104 95
86 89 85 83 104 108 106 109 111 107 106 100 104 99 92 94 101
106 103 95 91 102 103 100 91 93 99 97 101 98 94 96 96 106
115 125 117 109 97 99 97 98 96 104 112 128 133 139 124 115 124
124 116 112 107 103 100 112 124 138 131 127 120 116 118 111 103 104
102 107 111 102 108 118 133 139 125 130 143 138 135 136 135 130 129
133 138 128 126 121 122 125 115 112 116 109 89 93 98 92 91 90
80 78 78 81 87 80 80 86 91 96 100 95 89 82 75 75 86
82 84 91 90 100 103 96 82 79 89 100 100 102 93 78 79 89
104 103 96 89 90 90 96 93 89 90 94 96 97 100 99 91 93
93 99 105 106 109 100 94 90 96 84 97 80 80 83 85 88 94
97 90 84 79 71 77 90 86 96 100 106 124 117 100 104 99 90
81 76 74 80 74 68 69 72 72 73 70 73 78 79 86 82 80
87 94 97 94 81 79 86 91 83 73 80 71 63 67 70 91 77
71 71 69 69 73 76 74 76 70 72 68 66 70 77 83 74 70
71 67 58 70 78 76 71 73 68 63 58 54 60 64 71 75 84
74 68 76 73 67 72 69 72 75 77 87 86 86 81 81 84 88
87 78 87 92 84 90 85 84 84 82 71 73 69 71 77 77 83
86 92 81 90 96 106 80 73 74 73 73 70 66 67 68 71 74
82 82 84 78 80 74 79 72 72 78 74 75 74 74 72 72 74
76 70 72 69 66 74 79 86 86 95 102 94 85 74 77 86 97
97 99 96 102 110 100 107 93 85 82 91 95 96 123 94 92 101
103 105 112 110 114 110 114 100 92 76 74 66 68 71 69 67 62
65 67 70 73 68 76 87 82 78 74 69 72 73 74 78 76 83
84 78 77 80 80 82 78 76 74 74 73 74 79 77 74 74 79
83 82 92 98 90 82 80 81 75 75 71 70 66 70 70 77 75
74 72 84 82 78 68 75 67 67 63 66 76 79 98 95 102 95
89 87 77 78 84 92 104 99 94 98 109 99 94 104 98 103 105
97 97 98 94 89 86 86 96 92 109 109 109 114 117 116 108 100
102 96 94 99 87 86 84 81 86 80 86 84 84 88 84 90 86
92 90 82 86 84 89 85 86 88 89 98 101 103 97 92 89 87
87 84 93 105 107 108 114 118 116 109 112 110 110 102 107 106 114
119 126 129 116 111 108 115 124 120 123 131 124 115 117 114 118 130
139 135 118 139 138 140 137 124 118 114 105 106 123 122 114 116 117
113 115 129 113 104 98 93 97 100 97 96 95 88 90 95 100 99
93 92 93 93 92 96 92 92 92 93 88 86 87 80 75 71 72
71 75 82 91 98 110 101 92 90 88 95 99 99 96 93 89 89
97 106 112 112 102 99 87 82 78 78 76 72 74 78 80 74 87
93 87 83 91 98 101 109 96 84 79 79 77 76 74 74 73 71
75 79 76 76 78 86 88 85 88 89 77 77 98 99 95 97 86
74 67 70 70 79 82 59 62 71 75 75 79 80 83 80 71 74
73 66 68 76 76 78 78 77 80 74 75 75 73 66 70 71 76
75 78 74 74 81 81 81 74 75 77 83 87 85 89 90 81 82
78 67 64 69 76 80 80 78 76 75 68 66 68 70 73 70 64
66 65 71 71 70 69 64 67 66 65 68 73 83 90 87 94 106
102 97 86 77 70 69 71 75 77 84 82 84 82 79 79 75 76
83 88 89 84 77 74 72 68 66 67 72 79 86 76 80 84 85
82 70 66 58 56 55 55 64 59 61 72 76 78 79 78 76 83
84 86 82 77 73 76 78 85 83 96 97 77 74 78 77 74 82
92 92 96 101 102 103 90 89 94 100 108 108 99 87 76 76 82
89 96 96 95 83 85 94 94 89 80 70 73 76 76 82 86 83
80 78 70 66 65 64 66 57 59 66 64 62 68 70 66 68 69
82 91 88 82 80 80 80 76 76 71 68 71 73 75 74 77 78
86 82 87 86 86 84 77 75 76 78 75 76 68 56 57 59 65
61 62 57 59 62 62 58 64 72 81 83 80 75 75 70 62 62
60 54 53 58 62 64 68 71 71 74 80 83 89 89 82 86 93
94 102 89 88 82 84 90 90 87 83 86 81 83 87 85 83 78
79 76 86 90 85 82 99 104 96 92 93 92 89 84 82 85 89
89 83 83 82 77 82 80 78 79 80 77 77 88 89 82 86 97
96 96 99 99 91 87 89 82 73 77 84 81 85 84 88 96 94
91 78 79 84 83 80 88 89 102 107 113 110 101 97 95 111 117
120 115 113 113 112 111 116 104 113 124 120 122 138 138 127 124 116
114 112 114 111 107 111 91 92 94 94 95 94 96 97 99 118 117
116 103 98 99 104 105 107 95 99 101 99 103 105 103 90 86 79
80 90 99 108 112 114 102 101 96 99 108 107 106 100 95 93 94
97 96 109 114 114 104 90 70 69 71 78 77 79 83 81 79 75
80 80 88 89 83 74 96 85 75 69 71 76 73 69 72 62 60
64 68 70 72 76 74 78 74 79 78 80 85 81 84 94 99 96
88 80 76 80 84 84 93 96 91 88 102 100 85 78 82 81 83
77 77 83 77 79 79 89 83 78 76 74 70 74 73 84 84 91
85 78 77 70 71 71 69 72 74 76 68 72 78 77 78 85 71
75 72 78 82 82 84 81 76 68 63 66 63 63 59 60 57 61
62 68 72 81 74 70 67 66 62 65 74 73 77 75 75 80 86
91 91 83 78 72 71 78 72 71 77 75 69 66 70 76 73 78
75 85 83 79 80 80 78 78 80 70 64 68 66 62 61 55 64
77 75 77 75 66 65 65 66 66 68 71 76 66 62 70 74 74
73 76 78 82 73 82 86 86 86 80 83 81 86 93 83 80 75
85 82 82 87 102 98 87 86 90 101 105 93 86 76 71 72 71
75 78 77 77 77 78 79 79 78 76 76 74 71 72 70 79 83
84 80 72 74 74 72 80 83 78 78 83 88 89 83 83 79 76
74 66 68 58 62 66 65 75 81 85 88 81 70 72 73 73 77
83 80 76 72 72 69 69 70 70 65 65 66 74 81 82 81 80
80 77 80 80 75 73 76 72 67 71 69 68 66 63 65 72 75
100 100 92 85 68 69 65 62 60 57 57 59 59 59 57 60 64
66 71 72 67 65 67 65 68 71 79 85 87 83 79 81 92 92
92 98 107 104 91 90 84 88 86 82 75 75 82 88 88 89 91
91 89 89 82 82 87 98 97 91 89 91 91 88 91 82 75 74
70 68 67 71 67 70 76 72 76 73 73 76 92 92 88 83 85
84 80 77 83 94 95 86 82 81 84 87 89 86 86 92 98 96
99 104 106 106 96 95 93 104 101 113 112 109 114 124 119 111 120
117 116 114 132 133 136 128 122 138 138 92 92 93 89 79 92 97
101 99 95 96 103 98 99 99 99 100 100 91 85 89 90 93 92
96 95 94 98 105 114 114 111 104 104 116 115 111 103 101 99 118
121 106 120 116 121 115 97 92 84 91 90 96 95 96 100 94 98
95 99 106 92 85 73 70 68 67 66 70 71 67 69 70 63 62
61 60 60 65 68 65 62 63 62 65 65 64 64 70 76 86 91
88 76 76 63 68 75 72 73 74 77 94 88 87 88 91 87 95
91 82 81 76 89 89 92 95 84 83 80 82 76 73 74 75 75
75 72 72 74 72 64 63 60 62 67 68 58 58 62 72 76 86
88 96 93 107 85 73 86 76 73 66 69 66 65 70 72 73 70
72 71 74 73 70 74 78 66 65 72 75 93 80 84 75 72 85
83 95 94 104 93 75 77 76 80 80 93 81 87 84 100 99 100
94 95 91 90 77 68 71 72 70 72 79 80 73 66 60 67 68
68 71 72 71 72 76 70 69 66 76 80 82 91 92 84 74 79
71 72 81 73 72 83 82 83 78 82 96 99 102 97 81 75 84
84 76 73 78 81 85 85 80 85 82 90 87 82 70 68 89 92
97 100 101 86 80 89 83 92 93 90 86 77 74 75 78 68 84
89 80 87 95 100 96 97 89 93 91 90 86 97 100 89 84 86
82 83 82 83 82 80 73 70 75 72 75 70 73 73 72 79 79
87 76 70 74 80 70 67 60 61 65 75 84 82 78 80 87 74
69 64 67 67 67 69 73 76 85 88 86 88 90 96 93 87 87
80 77 81 74 75 78 81 84 87 89 89 88 80 84 86 84 78
70 68 71 69 65 67 67 71 71 86 81 76 71 68 69 73 78
79 74 79 83 88 101 97 90 89 89 89 86 95 89 94 96 100
82 81 74 73 76 73 71 90 90 90 89 79 77 71 75 76 73
78 84 93 90 82 84 85 79 78 82 72 73 89 86 83 85 82
79 78 88 94 94 97 103 107 102 102 109 106 96 89 87 87 90
95 97 102 96 90 94 89 88 90 94 101 105 105 113 132 135 135
122 115 114 115 124 119 124 122 122 116 127 136 144 154 98 102 102
101 92 91 95 91 87 88 88 80 74 74 74 84 92 84 79 69
72 76 86 83 80 80 85 87 88 93 95 114 129 127 124 122 138
145 133 124 109 92 85 69 79 83 78 65 73 68 73 73 69 73
72 74 69 71 70 71 71 70 67 66 67 65 61 54 61 64 63
65 63 68 59 65 61 65 70 66 69 69 70 70 71 78 82 80
75 76 67 67 74 71 79 81 77 69 65 75 76 75 66 63 57
61 63 61 66 70 73 80 72 85 89 86 85 83 81 77 81 80
81 78 72 63 66 65 68 61 62 56 58 59 54 50 50 54 57
58 55 58 57 52 47 50 45 49 48 62 58 50 52 55 66 72
60 52 52 50 58 61 52 52 52 54 58 61 62 58 56 59 63
60 69 67 70 65 75 77 75 72 89 91 89 88 90 106 101 111
103 92 80 76 76 84 84 72 70 82 70 66 64 75 58 57 60
62 54 59 53 54 50 56 52 53 49 52 53 53 58 60 67 75
74 74 82 90 81 78 78 76 68 69 76 73 78 77 75 67 68
71 72 73 71 71 69 71 75 73 80 80 71 73 74 70 63 64
68 59 60 67 68 75 82 87 88 94 101 90 82 79 91 95 90
75 69 67 67 61 60 62 68 71 75 70 83 84 84 89 85 73
73 72 71 72 73 72 66 66 63 72 66 69 71 74 74 70 73
69 75 67 69 73 64 60 74 65 61 63 68 70 67 68 70 71
68 70 66 65 66 71 69 60 58 68 65 57 60 63 77 78 80
85 91 102 103 111 111 90 91 83 85 85 91 92 93 95 91 88
90 99 78 74 68 75 78 77 86 86 83 77 78 74 70 84 91
83 79 74 72 78 87 80 80 82 88 84 99 96 96 89 82 86
83 86 88 85 84 94 96 87 89 93 84 83 84 89 99 103 96
94 85 85 80 95 94 88 93 93 93 101 97 95 98 97 87 89
81 87 91 90 84 83 77 74 70 74 71 74 73 72 75 71 82
90 92 84 85 79 76 83 89 94 92 92 107 108 97 93 90 96
109 101 95 78 83 91 95 108 102 96 96 96 109 120 124 124 126
121 93 98 100 102 109 107 106 98 95 96 104 104 106 94 86 76
72 77 85 80 84 101 98 108 119 123 126 126 118 122 114 102 108
99 88 75 68 61 59 64 68 63 63 62 63 64 69 69 70 72
72 74 76 76 77 73 73 73 71 66 69 67 68 70 77 73 73
74 78 74 72 64 66 64 71 66 73 80 74 69 66 65 66 66
67 70 74 75 75 76 90 80 76 86 95 94 95 100 105 85 74
71 68 74 79 87 78 82 80 80 78 74 75 81 74 74 72 71
70 69 70 68 67 63 60 61 62 65 64 61 59 61 59 61 67
65 58 59 61 60 63 63 65 55 54 50 51 50 46 48 53 58
59 58 58 57 55 55 55 51 60 64 59 59 65 74 76 77 83
89 98 86 77 81 74 75 75 81 70 78 75 65 66 74 82 103
103 111 84 63 65 62 61 62 61 63 56 56 60 60 59 57 62
59 60 52 50 48 52 52 55 52 49 46 50 44 45 46 49 50
46 57 53 52 58 61 62 65 72 76 68 76 69 69 71 65 66
64 60 61 62 56 54 60 58 62 62 62 63 63 64 66 61 60
59 55 55 59 58 53 53 57 61 54 50 50 53 52 50 48 49
56 57 62 63 68 60 60 66 69 64 64 60 56 62 65 60 61
63 72 91 91 92 94 99 98 100 102 94 86 90 93 98 95 93
87 81 87 102 109 105 105 103 102 91 88 72 72 83 90 92 78
75 80 83 86 83 77 80 86 77 68 72 77 73 81 69 69 68
66 66 76 71 63 68 66 76 80 84 92 92 92 89 86 87 98
100 96 82 91 98 94 90 92 108 105 93 86 83 82 78 78 72
73 73 74 69 77 82 80 84 89 84 91 92 86 85 83 85 101
90 92 85 88 88 86 85 82 83 86 89 91 99 90 87 84 83
91 93 90 91 91 90 85 88 82 87 89 103 109 98 90 97 100
102 99 93 87 81 86 88 90 87 78 73 76 79 77 76 83 82
79 83 84 78 74 74 73 86 90 91 89 79 76 80 87 91 94
95 92 91 89 88 106 104 108 106 104 101 96 91 88 82 82 97
106 92 92 88 88 97 100 102 99 106 97 85 76 77 76 76 71
70 75 76 82 87 92 98 103 117 115 120 105 99 93 97 95 90
80 73 74 64 61 60 68 70 76 73 75 82 81 76 77 81 83
78 75 77 73 76 81 80 76 78 69 64 66 70 68 68 70 76
73 65 72 60 58 68 72 77 78 79 82 89 84 72 73 73 84
87 81 74 83 90 81 79 77 81 86 87 87 81 69 71 70 68
78 73 71 70 68 64 66 73 81 72 68 77 79 88 86 83 83
84 70 71 72 69 64 68 71 71 65 66 64 64 64 58 54 56
65 66 60 51 49 53 54 51 52 47 48 50 55 58 58 56 56
54 58 58 56 56 59 60 57 57 61 72 79 76 81 80 74 68
76 73 71 79 82 85 90 101 98 117 110 101 96 91 87 78 74
72 70 72 66 68 66 68 68 64 56 49 48 47 45 47 48 46
51 48 48 52 47 46 50 53 50 48 48 46 42 53 52 50 48
54 52 53 54 50 52 49 56 58 59 58 62 67 70 72 73 69
72 65 68 66 64 73 72 71 72 70 72 84 84 78 75 73 74
78 79 74 63 59 66 67 60 54 53 60 59 59 64 66 63 58
56 52 58 49 50 49 52 53 53 53 51 58 57 60 56 57 59
67 63 54 57 56 64 65 74 89 86 96 86 98 105 118 123 103
94 112 123 102 103 105 105 95 89 86 82 85 89 96 92 84 92
92 93 81 84 84 92 84 84 80 84 83 85 92 90 84 79 76
78 81 84 77 77 70 71 76 82 82 79 76 72 75 80 86 84
80 85 86 84 84 77 76 84 83 83 93 94 104 89 97 94 83
76 80 84 89 82 78 80 93 89 77 76 79 78 73 73 76 82
91 92 89 78 78 76 74 82 84 88 94 77 82 84 82 91 89
86 90 90 85 87 94 91 91 93 87 87 90 84 85 91 95 95
98 100 99 98 90 89 89 98 97 95 96 87 91 89 97 96 96
88 81 78 92 99 98 89 87 93 93 90 93 91 90 89 90 93
94 82 77 89 88 94 94 99 96 92 90 98 107 115 124 130 121
116 104 101 88 85 86 86 90 97 101 85 78 73 70 69 74 71
74 76 76 75 80 87 90 88 90 92 90 92 84 80 82 91 91
78 77 72 72 63 64 66 70 71 75 76 80 86 82 79 78 75
85 77 72 70 62 60 61 57 54 51 54 58 59 61 66 66 71
76 79 68 61 61 66 69 73 82 72 68 71 79 85 79 78 80
81 85 85 94 92 89 98 93 88 96 93 95 86 78 80 81 82
88 72 76 76 66 66 70 74 73 72 71 64 63 65 72 73 71
76 78 75 71 69 76 77 77 81 77 75 76 75 63 59 62 61
65 70 65 66 66 66 70 68 75 68 67 61 64 66 69 69 59
61 63 66 68 63 64 60 57 57 62 70 71 76 72 79 73 74
68 80 77 70 75 67 70 64 70 71 83 88 88 83 83 80 76
80 73 82 100 105 85 85 81 80 76 65 54 56 60 67 72 66
59 59 61 55 56 63 57 64 64 69 70 65 63 60 58 60 58
54 58 54 48 47 48 50 51 55 56 55 61 60 59 54 53 61
61 61 65 64 60 61 60 62 64 72 75 72 67 59 61 65 66
64 64 66 60 56 51 52 52 60 61 62 61 61 62 56 61 58
58 52 52 55 55 54 55 48 44 44 46 56 55 53 53 53 56
60 59 65 60 54 58 66 65 60 57 58 56 62 68 65 66 70
66 64 62 72 85 83 79 80 79 88 86 79 77 93 102 99 96
98 104 119 115 104 92 93 80 83 84 72 66 78 81 84 86 83
80 82 87 88 82 80 88 90 91 92 99 93 79 76 82 85 70
70 65 67 73 76 75 76 84 81 85 82 74 69 65 72 75 75
70 71 69 83 92 97 88 84 80 88 89 86 85 91 92 86 81
78 79 88 77 69 77 92 92 88 91 101 95 88 92 101 104 107
100 91 89 85 84 83 83 84 78 81 94 85 77 80 87 88 78
77 77 76 78 80 86 95 101 119 109 103 94 99 96 86 90 106
101 93 86 84 91 93 99 101 91 84 91 96 95 91 85 87 81
82 77 76 78 81 78 82 84 84 85 84 90 86 91 87 86 86
92 100 124 114 107 97 115 125 121 111 101 102 102 81 82 75 76
81 86 84 82 81 81 86 87 87 88 83 80 80 82 89 93 92
82 74 76 87 82 74 75 70 72 74 75 81 78 82 85 88 86
82 78 78 77 76 66 68 62 56 52 56 64 71 79 77 73 73
79 88 85 68 57 59 61 74 76 80 74 70 73 80 79 74 68
75 83 92 94 92 89 90 87 91 90 85 83 78 79 79 92 94
82 86 84 86 87 80 69 71 72 68 70 80 80 77 73 68 72
71 74 77 71 68 68 66 65 76 74 76 74 74 74 71 75 80
84 77 86 85 74 63 66 70 69 66 69 67 66 63 62 56 57
57 55 54 60 63 63 65 66 71 65 71 74 71 71 68 75 75
78 83 86 87 71 66 69 67 61 59 63 64 75 71 65 61 61
65 68 64 64 71 70 70 74 78 73 79 82 63 62 60 63 58
55 60 68 66 66 72 77 87 78 73 74 76 71 64 61 62 65
57 57 56 54 51 52 49 52 57 59 60 66 68 71 69 65 58
58 59 60 57 50 48 49 48 49 53 56 55 54 49 52 52 50
51 51 48 44 44 43 46 47 49 50 53 58 59 57 58 62 68
64 63 67 72 72 68 69 65 60 59 69 72 68 59 53 59 59
60 62 64 60 55 56 61 69 61 57 57 53 55 62 55 55 58
62 61 64 65 66 73 75 76 79 80 84 95 101 102 95 86 84
78 75 71 82 101 96 94 91 98 112 119 107 94 80 72 78 78
82 82 79 77 76 76 78 79 81 84 83 84 92 99 100 96 84
78 75 80 88 88 83 73 70 78 76 68 65 71 83 90 89 83
79 78 80 86 82 76 73 76 77 78 79 89 90 92 97 99 87
88 87 91 93 93 85 83 86 90 93 92 88 80 84 85 78 81
86 90 90 99 102 98 94 94 99 105 106 93 89 86 84 101 105
107 99 91 88 84 82 85 87 81 80 83 82 90 92 86 87 97
98 96 100 95 95 99 107 101 100 100 93 87 94 105 96 90 85
91 89 94 88 93 94 93 81 78 82 75 70 71 77 80 84 85
83 85 84 83 80 76 95 104 111 100 104 101 105 100 103 98 102
72 73 75 79 86 89 84 85 98 103 90 101 115 121 125 113 102
90 79 83 91 95 96 79 66 66 76 83 85 88 90 95 93 85
75 78 83 85 79 74 62 61 62 63 60 60 66 76 79 78 80
84 90 89 85 76 61 59 60 61 65 72 78 79 82 74 71 74
75 77 80 86 88 93 82 67 68 66 67 64 63 58 57 62 64
69 63 65 78 77 78 80 76 73 71 68 78 82 82 80 71 65
69 76 76 73 76 71 66 66 70 72 71 72 76 70 72 73 62
62 69 72 76 81 88 70 64 67 70 67 70 64 68 71 73 73
67 60 58 59 62 60 60 59 62 65 55 69 78 77 76 81 84
81 84 86 93 84 79 71 72 61 58 68 68 78 87 81 83 77
79 75 71 85 86 88 86 96 90 82 75 71 68 55 48 52 52
56 55 63 61 65 64 66 69 70 68 75 78 77 70 79 71 61
68 78 76 75 66 70 61 60 63 64 71 74 74 77 72 73 72
69 70 72 86 82 76 72 63 53 53 49 47 44 44 45 42 48
52 49 48 48 43 40 47 48 48 45 44 50 55 51 50 51 49
47 49 50 51 46 52 54 63 60 66 71 64 65 66 70 66 65
62 62 57 56 55 59 62 62 56 58 55 58 59 64 66 60 61
66 65 60 52 64 76 75 77 79 82 93 101 96 83 94 97 97
92 90 100 104 107 95 90 77 72 70 74 69 68 60 65 79 74
85 95 93 84 84 78 84 77 75 80 83 76 81 89 98 100 99
90 85 83 77 80 79 80 68 66 61 69 67 68 68 70 73 75
73 79 87 89 93 92 87 74 74 77 78 71 70 69 69 68 62
74 71 66 63 59 61 78 79 83 84 83 76 73 73 66 71 70
65 68 68 68 69 73 69 71 81 86 87 92 99 101 91 86 90
93 95 90 92 89 93 87 87 84 86 95 88 83 80 83 86 90
89 90 100 104 104 103 104 109 110 113 107 116 131 125 112 108 106
96 102 105 96 89 77 80 85 85 74 77 77 96 90 87 84 86
82 74 69 72 80 91 93 90 83 91 86 79 82 98 104 105 104
98 100 102 102 82 86 83 78 93 101 94 91 89 92 95 92 85
73 74 75 81 81 86 76 70 69 73 71 77 80 82 82 78 76
75 74 81 81 78 77 65 58 54 56 58 56 54 60 71 76 76
76 80 80 79 79 70 56 54 53 58 58 64 67 80 90 72 75
83 82 87 88 87 93 93 79 65 61 63 67 78 83 71 74 75
74 70 70 73 69 68 64 59 54 52 54 57 58 63 60 61 64
62 61 60 64 71 71 70 68 64 71 71 71 63 60 56 55 54
55 56 58 57 58 56 53 49 46 46 50 57 56 54 53 64 66
60 65 73 67 66 69 75 73 84 78 78 83 78 70 65 67 81
73 73 72 73 72 74 72 72 68 65 72 76 81 86 91 102 92
95 88 82 76 66 62 63 61 64 52 50 53 51 53 55 48 44
42 42 48 53 48 49 52 60 59 56 54 51 45 38 45 40 48
49 54 60 62 68 64 63 58 57 62 61 62 66 64 64 68 66
65 61 56 55 63 66 64 60 56 52 48 48 55 54 53 50 51
52 55 52 46 48 48 48 55 56 55 52 52 49 47 48 41 41
40 44 41 40 37 37 36 41 45 45 45 48 50 54 59 69 72
66 75 75 75 72 69 64 66 64 65 61 64 66 59 54 60 53
55 58 69 61 60 60 58 56 55 58 62 71 68 68 68 68 61
62 57 55 59 70 66 71 63 60 54 63 61 67 65 62 63 58
52 54 56 58 63 65 66 63 64 64 63 64 64 75 73 67 66
63 61 62 60 59 58 60 54 61 54 56 64 64 61 60 62 62
60 59 63 65 67 74 69 67 72 68 69 80 79 79 77 79 86
98 101 88 86 83 80 80 84 80 73 68 66 75 79 80 69 66
65 69 72 76 75 70 64 66 62 69 66 66 62 68 75 76 70
67 68 79 82 83 82 85 83 80 95 118 114 116 111 114 106 91
88 86 81 83 83 93 98 83 85 91 100 96 96 99 92 89 90
82 84 88 90 86 89 74 82 102 100 84 84 81 80 84 86 85
86 91 93 95 97 101 101 100 96 84 84 87 87 93 91 90 92
92 91 94 93 104 107 103 98 86 81 71 69 68 73 72 73 74
68 60 62 70 74 70 66 58 55 57 61 60 63 70 74 75 76
85 88 79 72 74 70 60 58 57 54 55 57 62 62 67 73 73
78 77 76 73 75 73 69 62 58 53 48 52 58 65 73 74 64
68 74 71 71 74 65 64 62 58 55 52 48 53 53 49 51 51
53 57 60 62 55 60 62 62 61 58 53 52 53 53 56 62 65
62 60 67 66 72 75 74 74 62 58 56 62 64 64 70 68 67
65 67 66 64 57 56 55 55 56 59 49 47 49 52 48 48 50
47 48 51 52 55 59 58 61 68 64 62 60 65 64 77 76 77
75 74 74 82 85 92 98 99 92 79 83 80 68 62 68 75 68
65 72 75 74 62 57 51 54 58 54 58 55 59 53 53 59 54
55 51 50 47 49 55 58 48 52 47 48 50 49 57 54 51 46
42 44 43 48 58 53 54 53 59 60 64 61 59 57 59 62 63
62 61 66 61 54 52 55 54 54 52 55 48 47 51 54 50 51
48 46 54 56 57 52 53 54 54 51 48 52 52 53 62 60 60
62 62 65 64 59 59 60 57 54 52 54 54 53 51 48 45 56
57 65 60 57 70 68 65 64 70 67 70 82 74 76 71 71 74
70 64 56 59 62 60 59 63 61 61 58 52 59 70 62 60 60
58 55 53 50 46 46 52 46 48 46 49 55 55 55 58 58 57
54 58 58 61 56 57 58 51 56 62 68 70 67 68 69 67 63
65 62 66 72 70 68 63 62 59 56 56 58 58 55 56 60 66
76 74 67 66 61 65 68 62 72 70 68 70 69 74 73 73 64
63 72 76 79 85 75 78 79 76 73 72 70 60 59 60 62 60
62 64 73 79 75 72 68 63 78 95 82 81 77 73 69 70 64
63 64 61 64 68 70 69 66 73 74 74 93 102 93 77 95 93
102 92 99 103 97 88 87 82 84 77 74 73 89 81 80 84 78
74 95 108 93 87 86 88 87 92 91 97 87 81 82 80 84 87
93 93 89 78 74 75 77 75 78 83 86 85 93 104 101 99 92
79 83 91 92 88 87 83 86 97 99 98 102 80 84 87 85 68
65 60 60 58 56 64 66 67 65 64 65 68 74 70 72 82 89
88 88 93 84 80 71 68 72 61 62 62 66 66 73 69 60 59
67 70 71 70 68 71 67 60 56 54 51 53 55 61 74 79 82
74 73 68 72 72 75 67 60 58 53 50 50 48 47 50 52 56
59 69 72 71 72 67 66 67 67 63 59 59 53 51 52 55 55
61 69 66 64 67 66 78 73 75 68 63 72 74 82 80 85 79
74 80 110 93 65 67 58 53 54 61 62 66 61 56 58 59 54
50 50 53 57 59 60 64 66 70 69 76 78 72 74 69 76 76
80 86 90 90 83 75 78 74 76 81 83 86 74 70 67 72 81
80 72 78 63 58 57 52 52 53 52 52 58 54 53 66 65 58
63 65 64 54 50 55 56 60 63 62 56 53 52 51 46 42 43
46 44 44 48 48 50 51 56 52 52 52 51 54 60 71 81 68
75 70 65 71 67 71 73 72 74 76 74 68 64 65 70 59 53
49 57 57 62 59 55 56 56 54 51 51 51 48 51 60 60 58
59 62 59 61 66 65 65 70 65 68 63 64 63 58 60 57 52
58 54 49 46 45 53 56 59 63 72 81 85 86 89 73 74 68
74 70 68 66 71 72 70 71 66 65 62 65 68 69 70 68 62
59 56 57 51 49 53 54 52 54 53 51 60 63 56 49 55 55
56 58 59 64 58 61 70 72 69 61 61 60 60 60 61 66 77
76 69 63 69 68 70 72 68 66 68 69 65 65 69 68 73 72
69 71 75 73 68 67 76 78 73 81 84 87 92 91 76 77 76
70 70 68 74 79 74 70 67 68 70 78 82 93 89 84 80 81
81 68 66 64 64 70 68 74 75 81 82 78 76 72 74 80 80
72 66 69 70 68 70 67 67 71 75 72 69 71 67 64 63 68
79 94 105 108 118 122 105 101 106 112 116 118 96 90 94 93 80
73 74 77 78 78 71 70 80 84 93 99 93 97 102 104 103 104
103 101 99 100 94 88 84 85 93 92 98 94 91 92 89 92 94
96 94 88 103 104 100 86 78 77 80 86 87 90 96 106 118 62
63 60 60 59 62 60 57 63 66 76 73 69 68 72 76 74 84
96 92 90 86 79 67 67 66 62 58 58 58 62 68 78 70 64
67 68 66 70 69 70 67 66 70 66 64 68 65 65 68 81 79
80 85 65 60 57 58 58 54 53 56 57 56 56 58 56 58 58
63 73 85 81 73 72 69 64 69 65 54 56 57 58 66 74 66
63 74 69 63 61 65 63 72 82 73 69 61 58 59 64 72 71
72 75 64 58 58 59 61 58 60 66 62 63 57 53 52 51 48
49 53 60 68 72 67 71 74 69 73 73 72 64 56 59 67 69
76 75 80 86 83 80 66 62 71 73 74 74 71 71 76 74 73
80 72 65 66 58 62 62 63 66 52 56 58 61 67 60 68 69
70 69 67 68 69 58 58 53 55 61 61 60 57 54 57 55 54
48 47 53 57 51 51 52 51 54 54 54 52 57 54 52 55 55
49 55 54 68 66 59 65 62 61 62 71 77 75 73 72 65 59
59 60 72 69 68 66 59 63 59 62 71 64 65 70 74 73 63
63 65 70 72 70 69 66 66 69 65 64 69 73 77 84 78 78
76 79 83 86 73 67 62 59 57 64 67 64 62 62 60 63 64
65 64 70 73 75 70 79 73 68 60 70 78 76 80 78 70 73
78 79 82 73 64 59 59 64 68 67 66 74 80 75 82 77 70
77 70 68 66 63 63 64 53 52 57 64 59 54 63 61 66 69
64 59 59 64 64 64 67 71 73 68 67 74 78 77 81 84 78
82 85 84 86 86 83 87 81 76 73 78 77 78 81 80 78 86
89 86 82 83 86 87 82 72 66 76 79 76 77 72 70 67 68
68 68 71 72 74 76 76 74 76 77 72 67 66 72 75 74 80
79 79 78 86 87 83 79 76 74 74 71 58 62 66 67 69 72
70 68 65 61 59 59 69 81 79 79 84 94 99 107 133 136 132
124 126 109 101 90 85 85 97 95 95 94 88 84 87 97 105 98
87 86 88 93 100 103 116 109 99 104 103 101 93 96 90 93 94
92 87 98 88 90 85 83 82 84 84 85 86 84 78 77 78 69
68 68 72 62 67 63 66 68 70 72 75 84 84 77 72 76 79
78 84 86 85 85 80 76 70 69 61 62 61 61 64 68 71 71
71 66 65 68 69 66 66 73 75 76 71 65 64 62 72 73 69
67 64 70 65 58 50 47 50 59 67 68 61 63 59 61 65 65
66 63 69 74 72 67 65 63 62 63 63 61 59 65 77 77 75
68 65 59 57 54 58 61 58 58 64 60 58 60 66 74 74 72
76 74 65 63 59 59 61 65 68 69 68 65 57 56 60 57 55
54 53 54 57 58 56 60 61 67 70 70 65 64 64 56 60 64
59 65 63 64 60 57 58 67 62 60 63 66 66 68 69 70 75
80 82 57 47 44 48 51 56 56 62 72 60 64 69 78 87 88
78 72 80 84 82 78 75 65 62 55 53 55 57 60 60 60 52
50 47 49 54 55 55 56 53 53 58 67 68 65 67 67 66 64
61 61 54 51 47 49 57 55 57 57 62 62 62 66 58 56 53
56 58 60 59 63 65 69 67 60 58 62 63 62 64 62 62 70
71 75 79 75 77 74 72 73 73 63 59 65 68 73 75 64 77
85 89 102 93 88 76 79 87 79 74 80 76 70 75 72 58 55
57 58 61 57 54 57 51 54 58 63 59 67 67 68 78 92 93
87 75 72 64 66 65 57 62 61 60 61 62 63 69 70 65 72
72 61 64 64 66 65 65 65 67 67 64 67 67 64 56 51 56
63 65 67 67 67 65 64 67 66 69 73 75 70 67 70 73 74
72 75 76 76 74 65 59 63 64 62 63 63 62 61 62 65 65
66 67 67 62 58 65 76 77 75 71 77 94 82 75 67 67 63
65 62 66 69 69 70 64 58 60 56 58 58 59 58 58 57 59
64 69 80 85 80 76 76 70 77 102 111 97 90 87 83 73 73
71 71 67 67 68 72 76 73 71 70 62 59 61 60 59 61 66
66 62 59 73 75 102 96 109 122 124 115 105 94 92 97 93 93
86 74 72 86 92 88 82 83 81 82 93 99 118 114 116 113 129
125 126 114 104 100 114 112 107 94 91 91 94 96 96 94 93 95
83 86 84 81 75 68 64 67 77 87 79 80 81 91 86 90 86
82 84 84 84 106 90 86 73 68 78 72 73 71 66 67 64 62
65 68 70 66 64 64 71 81 77 77 78 73 76 76 76 69 71
73 74 69 63 62 59 55 58 73 75 78 83 79 68 63 61 62
60 65 69 68 72 82 78 71 71 66 63 61 63 72 69 64 62
62 62 64 67 69 64 74 76 73 74 70 83 87 70 76 82 88
72 63 63 58 52 59 62 59 61 68 72 71 71 57 52 54 58
55 56 59 54 48 49 56 60 63 66 67 61 62 58 59 60 64
63 59 62 58 53 54 57 56 56 59 61 59 60 71 72 65 72
77 75 74 69 63 55 50 50 58 62 60 64 71 70 64 59 62
64 72 69 70 73 75 78 70 68 68 68 75 70 65 58 58 50
50 48 47 50 46 46 45 45 51 53 52 62 64 73 62 62 62
61 63 66 60 62 64 60 63 64 66 72 65 72 72 66 72 61
60 63 68 65 58 64 64 65 70 69 58 51 56 54 59 65 61
61 70 71 71 73 76 81 79 64 60 64 68 66 74 72 68 69
73 64 65 62 64 60 58 60 70 73 63 64 66 61 49 57 55
48 60 59 54 52 48 49 51 51 53 54 56 58 61 56 59 64
67 71 72 73 65 62 62 56 58 60 56 55 50 52 60 60 59
53 55 59 60 61 67 66 64 64 64 60 62 64 64 63 65 69
75 74 72 66 69 61 62 62 60 64 67 65 72 81 73 73 74
74 76 76 76 76 67 65 74 73 74 74 71 69 69 64 63 70
69 68 67 69 70 66 60 68 72 67 63 61 61 59 59 62 60
58 59 57 55 53 49 52 58 59 71 78 80 64 66 68 67 69
66 61 59 71 69 54 59 64 67 77 95 91 89 106 93 88 86
89 93 91 96 94 82 84 76 80 77 80 86 77 70 66 67 64
67 73 73 69 69 74 73 75 72 75 73 76 76 83 95 106 99
97 87 96 103 104 90 86 78 73 78 80 83 84 89 89 80 84
88 92 94 90 95 100 111 129 130 118 122 126 130 114 122 105 97
103 102 98 105 110 109 102 95 96 97 100 94 92 90 84 82 97
99 91 80 80 78 83 82 84 83 83 79 72 69 68 67 68 70
74 76 76 73 72 66 65 62 67 75 82 92 83 77 72 67 63
65 65 67 66 66 64 65 70 73 75 87 85 74 66 66 68 64
68 70 72 74 86 83 83 84 79 67 64 61 61 64 70 68 66
68 65 69 76 85 86 79 67 67 78 82 89 84 90 75 75 74
80 76 69 60 63 60 56 63 63 64 67 70 70 65 58 57 53
53 53 54 54 56 55 57 58 60 64 63 59 54 59 59 63 75
76 75 79 82 78 80 57 50 57 54 62 65 68 66 71 72 64
70 73 79 80 78 75 66 61 54 49 61 66 64 65 67 61 55
56 58 65 68 64 65 82 85 78 75 70 61 60 58 53 49 57
58 53 52 52 50 53 51 50 48 47 52 59 60 64 60 60 55
54 62 67 61 65 64 58 59 70 82 78 71 84 81 73 66 67
63 64 61 63 64 74 78 83 86 72 74 74 69 58 64 63 72
74 80 73 77 72 59 61 70 72 62 64 59 60 66 75 70 69
68 63 57 46 46 48 50 48 43 43 45 49 46 47 44 44 49
54 55 57 54 59 56 52 53 66 70 70 72 73 70 66 64 62
63 60 60 61 72 62 70 72 68 65 63 63 59 57 58 59 68
74 70 69 68 70 65 58 59 62 66 64 70 65 68 63 63 62
64 64 60 57 62 68 68 60 58 64 60 56 60 66 65 62 58
55 55 59 62 63 65 65 64 66 68 67 64 61 69 72 68 67
71 79 80 75 76 74 85 75 66 66 79 74 73 68 63 57 59
57 55 59 60 60 66 58 57 59 56 52 52 59 64 64 61 64
68 73 80 72 73 76 67 65 66 63 63 58 58 60 61 61 64
68 78 86 92 92 91 90 89 85 88 93 97 98 98 93 85 90
90 90 85 80 76 70 70 74 75 72 66 67 71 69 68 74 77
85 81 75 77 103 98 93 98 103 101 102 108 108 107 108 90 84
86 85 92 87 87 85 88 89 84 79 75 73 69 82 90 77 83
80 83 86 91 82 85 99 101 90 87 90 89 83 79 78 94 95
95 96 92 86 85 84 86 88 91 87 88 73 70 66 66 63 63
66 71 72 66 64 67 69 74 72 77 83 87 95 94 82 87 72
73 76 82 74 75 71 69 72 74 80 91 90 85 73 73 75 80
79 78 75 78 78 76 72 73 78 69 66 69 66 66 72 81 81
82 81 82 85 76 72 73 90 79 68 84 96 110 88 77 79 79
82 76 74 83 84 69 59 61 65 64 68 72 78 70 60 58 56
58 59 54 54 54 56 59 63 63 62 65 64 62 60 57 63 68
77 77 76 74 72 73 72 87 68 75 74 74 77 75 76 82 87
77 68 74 72 78 71 67 66 69 74 77 63 57 58 64 59 62
61 56 52 59 64 64 58 50 49 57 56 55 52 55 57 54 54
61 63 61 56 50 51 54 57 58 50 50 50 57 66 62 62 65
63 59 64 60 57 58 54 54 60 66 68 76 77 67 66 59 64
61 52 57 61 60 58 59 65 75 70 60 60 64 62 53 48 52
54 58 56 57 53 48 53 54 57 57 75 79 63 67 73 64 66
66 68 59 60 58 51 54 60 61 60 54 52 48 44 45 53 52
48 48 52 55 55 56 51 49 53 55 59 62 62 58 61 63 63
67 67 65 68 70 72 74 64 55 53 53 56 63 60 57 55 54
56 58 60 61 61 63 67 74 72 72 74 68 64 63 65 60 64
64 70 72 67 64 56 59 63 64 68 74 74 73 78 79 77 82
72 67 65 70 70 67 65 53 51 50 56 62 64 61 61 59 61
61 68 68 67 75 75 76 75 69 68 62 58 54 52 51 51 54
57 60 66 64 61 53 53 52 48 48 51 50 54 53 56 61 61
65 75 75 76 74 70 62 64 67 65 64 66 64 62 60 74 74
69 66 61 63 60 58 61 63 76 85 92 104 107 104 94 93 96
99 102 103 102 99 84 90 100 101 92 89 79 76 75 72 75 74
68 72 72 69 64 69 72 71 70 73 76 83 94 102 102 103 107
113 102 97 98 100 94 91 93 96 94 92 94 89 89 85 80 72
69 73 82 76 87 95 103 103 94 90 89 88 91 94 93 92 96
87 89 93 91 86 82 78 77 78 80 80 81 78 77 78 72 69
70 76 75 73 70 82 86 100 99 89 91 80 74 79 86 86 88
86 74 75 75 81 83 79 80 89 91 90 93 92 90 87 79 68
60 63 66 71 79 78 70 60 60 62 63 70 72 73 68 62 63
70 69 71 67 57 60 66 70 73 72 74 78 76 78 81 75 72
86 87 85 89 89 78 66 58 62 68 77 68 72 71 58 54 57
60 58 61 54 54 57 62 61 59 58 57 59 57 60 64 55 62
65 64 73 75 65 68 71 71 65 64 60 58 62 65 70 70 70
73 77 79 76 73 73 73 86 80 63 71 76 71 59 54 55 53
56 56 55 62 64 61 61 59 56 60 67 64 71 60 51 61 52
57 61 59 56 53 51 49 49 42 43 43 45 50 56 59 60 57
54 64 69 68 64 65 65 66 62 66 66 62 65 63 58 64 69
66 66 69 66 54 50 54 58 57 56 63 58 58 59 57 55 59
61 64 65 62 58 72 68 77 59 62 63 66 63 63 70 70 70
60 49 55 52 49 45 45 50 59 56 51 51 61 56 58 54 54
60 56 59 48 47 49 50 56 52 55 54 50 53 60 56 64 56
61 57 58 52 58 62 68 64 69 73 63 59 65 66 64 60 61
64 67 62 63 56 57 55 57 58 57 62 68 64 56 52 59 62
56 64 68 69 67 67 66 59 58 58 60 62 60 62 64 70 86
83 81 91 87 70 65 61 64 61 64 70 69 66 62 61 58 58
58 61 75 71 67 68 69 66 70 68 64 66 62 55 62 69 77
71 62 52 48 46 48 50 51 52 58 59 57 57 56 56 61 61
51 50 49 51 45 50 56 63 63 69 74 72 65 63 65 59 61
66 66 62 60 57 63 66 60 61 60 57 56 56 58 60 66 82
90 95 96 92 82 80 80 76 70 64 60 59 61 71 79 84 83
89 84 80 81 80 76 73 73 72 82 74 81 84 79 76 83 82
80 78 80 84 83 103 113 96 92 106 104 99 96 93 100 102 100
98 103 100 96 90 81 77 76 79 77 78 81 79 88 93 92 95
92 88 87 85 82 76 88 78 83 83 88 94 91 83 89 85 77
74 71 70 73 79 86 92 87 86 77 72 63 64 73 81 89 93
93 106 91 77 72 77 83 81 85 87 84 81 87 86 90 86 71
66 68 74 70 68 69 67 70 73 77 75 84 90 97 83 76 71
75 83 84 76 74 70 67 84 87 81 87 84 84 86 81 73 71
72 70 75 78 77 71 68 64 60 61 65 67 59 58 52 50 52
54 56 57 57 53 50 50 55 56 57 58 58 58 63 61 63 63
70 65 70 65 64 67 75 74 71 67 65 60 63 72 73 60 60
68 80 82 73 86 83 83 87 89 85 80 70 72 84 83 74 59
56 53 50 51 54 49 53 51 62 64 58 59 62 66 68 56 53
50 56 64 60 56 50 41 43 41 42 44 43 48 52 56 60 65
67 69 76 71 65 65 69 64 68 74 68 70 94 76 76 64 62
59 63 69 71 73 72 73 63 58 59 56 57 59 57 58 67 70
63 65 55 61 72 66 65 67 72 74 77 80 70 71 78 71 65
61 53 47 42 54 51 50 44 43 46 47 50 51 55 58 57 63
63 64 66 61 60 60 60 57 60 58 54 56 55 52 61 62 62
67 61 58 56 53 51 50 52 56 58 59 66 66 64 67 66 62
57 57 65 66 66 70 71 70 72 68 74 72 60 56 54 57 64
65 61 62 71 74 65 64 62 59 57 64 61 56 56 59 59 60
59 62 67 68 71 74 76 76 74 72 70 64 67 68 67 60 59
64 68 71 70 70 65 67 71 70 72 74 69 64 68 65 63 72
75 70 66 64 65 75 76 69 57 60 58 56 58 58 63 69 72
69 63 61 66 67 66 63 61 63 67 60 60 67 73 76 83 81
79 79 82 82 78 74 74 75 70 67 67 74 76 76 76 76 71
66 67 67 63 58 75 86 85 88 93 102 105 107 116 103 89 88
78 76 77 82 89 94 100 107 102 104 97 92 91 90 75 65 66
70 67 77 85 87 85 82 83 83 84 86 89 90 89 90 91 95
94 92 94 99 93 106 104 108 111 114 112 105 99 90 89 88 88
84 77 78 86 91 102 105 105 95 89 87 92 92 90 82 78 79
84 81 84 80 84 86 90 91 80 90 82 78 78 89 92 92 94
98 106 106 94 78 69 69 78 81 78 88 88 86 87 87 80 78
65 59 63 66 66 65 66 66 68 73 79 82 79 88 92 93 94
94 96 92 81 76 76 87 80 82 86 100 101 104 100 88 83 93
100 76 76 79 78 69 66 60 60 67 60 61 60 58 60 57 52
61 62 59 61 62 72 64 60 65 66 72 62 60 61 62 62 60
58 62 64 62 61 60 64 65 58 57 60 57 58 56 62 77 71
58 59 64 65 69 69 67 69 61 59 61 79 83 76 75 75 63
65 57 53 52 52 56 73 61 62 71 70 66 60 65 77 79 72
64 63 62 64 70 61 43 42 49 44 45 44 48 50 52 52 52
64 65 69 61 54 52 55 59 67 67 61 54 55 69 72 72 70
74 77 86 85 99 91 83 76 64 57 61 62 63 61 66 66 64
55 55 57 66 69 84 93 92 79 73 84 82 66 68 63 64 54
54 49 45 45 44 47 47 48 47 46 44 45 49 50 47 55 53
49 48 49 54 51 52 57 63 62 64 60 62 66 63 60 64 68
61 59 65 60 66 74 78 80 78 73 72 69 70 70 63 61 58
61 66 64 60 53 51 57 64 62 60 57 59 66 68 72 67 64
62 59 56 54 64 75 77 75 67 65 68 72 71 71 72 70 71
67 64 58 58 66 65 55 55 54 54 51 57 56 66 73 74 73
70 73 79 88 96 94 91 80 73 69 74 70 71 78 74 74 77
81 79 76 75 76 74 70 64 66 64 68 71 74 76 77 74 75
75 68 59 64 72 75 74 65 62 66 75 76 75 65 63 66 68
66 56 62 68 72 97 105 95 85 84 89 91 93 90 74 76 70
64 64 68 72 77 80 78 91 70 73 76 76 87 87 84 91 91
96 112 109 104 118 118 102 101 94 100 93 97 104 105 97 88 94
96 101 89 92 82 82 78 80 76 70 70 73 77 72 76 71 68
72 76 82 83 78 79 80 79 80 85 89 96 97 99 110 108 107
108 109 105 103 105 104 101 99 103 106 108 113 122 127 81 82 86
83 78 80 73 69 66 64 62 60 64 72 73 74 66 68 68 68
74 72 68 70 66 61 56 62 63 63 62 66 65 68 82 77 76
64 66 66 62 59 61 52 52 59 69 74 83 91 97 94 88 82
78 83 83 74 78 89 89 87 85 84 82 83 87 88 82 82 79
85 90 73 65 51 46 49 49 50 51 47 45 45 48 46 51 56
60 61 60 64 63 62 70 66 59 62 63 64 62 57 60 60 60
60 60 61 60 57 61 66 69 63 61 64 68 75 72 72 69 68
70 69 67 61 65 74 73 65 69 66 78 76 83 82 74 63 62
63 63 61 65 53 56 52 50 57 61 69 63 63 63 64 61 60
63 68 57 59 54 54 45 42 41 42 39 42 42 41 45 53 60
58 62 64 65 67 66 58 51 51 45 49 59 57 66 77 76 72
74 66 67 82 75 66 62 56 51 50 51 54 59 51 50 54 57
64 54 55 57 64 65 65 66 69 69 64 70 66 51 48 50 50
46 41 40 45 46 42 42 40 41 45 47 47 44 44 54 52 46
47 49 47 55 52 54 54 58 63 68 72 71 70 62 60 60 57
54 55 59 58 56 69 76 63 60 64 68 78 89 99 86 83 86
76 70 63 63 57 57 60 62 62 57 55 56 63 67 59 63 61
58 53 55 58 54 58 56 55 54 46 47 59 57 69 69 73 66
68 69 66 73 69 60 60 52 63 64 55 54 58 66 57 60 60
57 55 55 56 54 53 51 48 51 63 66 66 65 67 75 68 71
73 66 66 84 92 93 91 83 78 71 77 85 82 72 76 65 65
65 65 62 61 62 64 70 79 83 82 88 83 83 80 71 76 80
77 77 81 75 72 78 81 76 56 56 68 70 73 78 79 75 72
66 77 84 80 80 74 70 67 67 64 66 67 62 68 68 71 67
73 77 95 102 84 81 86 95 86 96 100 98 100 105 92 83 88
85 88 89 98 92 84 87 93 105 98 97 92 97 95 86 88 90
88 92 87 88 87 85 76 77 82 81 93 98 88 86 81 93 88
82 79 84 87 93 93 98 92 84 78 80 81 82 82 80 80 78
77 76 73 65 62 60 60 59 58 58 61 57 54 54 54 60 60
65 66 66 64 65 67 67 66 62 61 61 61 63 56 55 56 57
58 58 54 52 48 45 46 47 48 53 58 61 62 62 67 74 68
71 72 70 73 74 70 65 67 70 70 68 71 71 76 75 78 74
72 68 61 58 51 50 49 47 48 48 48 47 45 49 58 58 60
62 59 60 59 58 63 66 71 81 84 87 82 69 58 55 56 57
60 65 76 71 56 58 52 49 52 65 77 76 81 76 69 64 61
60 67 70 73 72 67 68 70 65 76 75 76 77 81 87 102 98
80 78 74 68 68 60 62 62 57 46 46 49 52 56 60 59 59
58 59 61 57 52 51 53 49 47 46 43 40 44 41 43 45 44
50 52 57 62 53 55 54 47 49 49 55 58 55 58 63 62 57
57 58 63 54 56 54 53 51 39 38 35 39 39 43 42 43 48
41 43 43 45 42 44 44 45 44 43 44 44 41 39 35 35 34
35 37 40 38 41 42 47 42 46 44 47 51 48 45 46 46 47
51 52 52 61 70 79 67 62 77 75 69 67 66 60 62 63 64
66 66 64 63 68 64 63 62 58 54 51 53 55 54 54 54 49
47 66 71 59 51 55 58 62 52 57 50 48 50 51 57 56 59
67 71 60 60 62 52 55 54 52 58 62 59 57 57 59 57 55
48 45 50 55 54 60 61 59 50 56 52 52 51 48 41 42 45
50 53 52 48 47 44 43 40 41 41 42 44 44 43 43 42 38
36 48 55 53 46 47 49 50 48 51 59 62 63 63 67 66 78
82 85 78 71 70 72 74 69 62 61 59 56 54 56 71 75 81
84 84 97 93 82 75 72 74 80 86 88 88 89 97 97 79 74
70 70 72 80 86 79 76 71 67 71 76 75 69 76 63 56 60
58 61 67 67 70 66 64 57 79 80 75 78 72 71 69 69 66
70 68 66 63 69 68 69 77 75 82 89 90 86 85 90 91 85
88 104 104 97 92 88 93 97 92 96 96 90 89 86 88 87 91
84 87 89 87 91 90 100 96 87 82 99 106 118 125 116 101 97
100 98 93 90 100 61 61 62 58 53 60 55 50 48 49 52 59
62 48 51 52 53 60 60 57 62 62 62 57 55 51 48 47 50
53 54 54 54 50 46 49 51 52 54 58 62 67 74 73 80 82
74 66 66 67 62 59 56 59 64 61 64 63 62 57 57 57 54
54 52 54 56 54 56 59 65 57 51 51 48 45 46 47 51 58
58 57 54 60 61 48 50 54 60 65 68 66 63 61 57 59 58
58 74 73 69 75 64 56 56 59 54 50 57 57 59 62 60 60
60 61 56 54 64 65 66 68 64 77 80 70 70 71 71 71 62
64 66 64 67 67 74 76 82 74 82 61 52 55 61 54 49 48
48 46 44 44 43 44 45 43 45 46 46 47 50 51 46 50 50
52 47 52 54 73 66 63 60 66 63 67 61 60 56 53 53 60
60 53 49 47 46 44 37 38 40 36 34 36 37 40 34 41 39
40 37 35 34 37 39 36 41 44 47 45 44 42 43 43 42 40
42 46 45 40 38 37 39 44 45 47 48 49 49 49 49 46 46
46 45 41 43 44 44 41 39 39 51 59 62 65 66 70 64 52
54 59 55 54 59 69 73 62 58 58 56 52 52 54 50 46 47
45 46 49 43 40 41 39 38 34 34 34 36 39 47 46 46 48
44 44 48 50 49 55 62 66 65 60 58 52 57 57 62 61 66
60 60 58 52 55 57 58 55 58 54 64 66 60 56 58 58 51
57 48 45 44 44 41 46 47 49 51 50 50 50 42 41 40 39
42 42 36 38 40 39 35 36 35 36 40 35 39 41 38 47 52
54 54 56 53 71 81 84 85 78 74 63 74 69 64 59 61 66
74 64 64 74 75 78 78 72 91 80 74 67 65 67 56 56 59
60 67 73 83 80 76 85 81 78 67 66 67 76 71 73 84 80
76 73 70 62 58 57 58 53 54 56 63 67 73 77 76 83 79
79 72 73 69 72 75 73 78 76 79 78 85 83 84 75 75 74
73 79 90 85 78 70 82 98 97 102 101 102 100 93 96 101 105
112 102 94 89 90 82 86 96 89 87 89 90 87 88 85 84 85
98 125 125 128 116 114 115 117 99 55 54 51 48 48 52 53 62
61 60 54 56 61 69 69 73 70 66 63 58 54 51 46 46 49
52 55 57 54 54 54 56 54 52 56 56 60 62 66 70 71 72
71 64 67 66 62 60 53 56 53 52 52 52 50 52 51 51 53
49 47 48 49 51 53 50 47 46 48 47 45 43 44 45 48 52
60 63 61 57 60 59 57 53 56 61 61 58 58 55 55 62 64
63 60 55 57 58 65 62 55 54 50 50 50 48 48 50 53 55
54 52 54 57 57 60 57 53 50 54 56 54 53 50 52 50 50
48 51 57 54 55 42 52 47 47 50 43 38 38 37 37 39 41
44 46 43 44 48 46 47 49 47 47 42 41 41 42 46 46 48
48 54 57 53 53 61 64 62 56 55 57 58 57 59 53 56 56
51 49 56 50 50 44 41 38 34 32 34 33 36 36 33 34 38
39 40 38 38 34 31 34 36 39 44 46 47 44 47 48 48 44
48 49 38 42 40 38 39 38 41 40 47 49 47 44 42 37 34
36 39 46 51 50 54 57 58 57 64 66 56 50 55 49 53 52
52 51 47 48 50 49 47 44 43 38 34 39 36 40 43 43 44
41 43 42 38 38 40 41 45 42 38 37 37 43 43 48 43 42
44 43 41 38 47 55 58 54 54 51 48 50 50 49 52 52 49
48 47 44 54 55 57 60 59 55 54 54 54 57 58 51 59 56
54 52 52 59 63 62 61 54 51 46 43 42 48 49 52 56 62
62 56 51 48 50 53 54 50 47 53 51 48 46 43 42 42 38
38 38 40 43 45 47 49 48 45 48 62 76 82 85 85 82 71
70 73 72 68 64 73 76 72 68 70 68 68 68 67 70 68 66
59 61 55 52 57 55 55 55 54 60 70 74 76 77 80 74 68
68 66 69 80 77 72 71 70 65 66 70 78 73 62 63 62 58
62 72 76 73 72 72 71 70 65 68 64 58 63 70 65 71 75
72 80 83 85 74 70 69 70 69 68 68 71 69 79 83 82 88
89 89 90 90 95 95 92 92 77 78 78 73 73 75 78 80 75
83 82 75 72 72 77 88 103 112 129 128 118 116 59 60 60 63
66 69 60 52 55 57 60 61 63 61 63 57 57 46 50 50 47
46 51 59 57 54 54 57 61 58 56 53 57 55 62 66 66 73
71 73 70 71 77 80 60 61 67 64 58 55 57 61 59 58 57
68 63 57 50 50 54 55 56 52 48 55 59 59 56 51 52 58
58 58 58 60 62 67 71 70 69 69 74 76 88 88 90 89 98
89 81 83 72 63 70 72 67 68 57 52 46 45 44 45 47 45
48 51 51 49 51 52 56 57 53 48 47 48 48 45 44 40 37
41 41 41 41 43 45 41 39 38 39 37 35 33 32 36 39 37
42 44 39 43 41 43 46 51 53 54 53 51 48 47 49 50 55
62 60 51 53 55 57 58 59 60 63 62 59 62 59 54 55 53
56 60 73 70 55 54 48 40 33 34 35 41 44 39 36 34 32
31 31 34 33 32 35 33 32 32 36 36 37 36 37 39 41 43
44 43 41 47 43 38 36 38 41 43 43 42 41 47 50 45 38
35 32 35 39 40 42 50 50 59 61 54 54 53 50 56 57 52
55 52 52 47 37 34 37 38 42 42 48 51 51 45 40 43 39
43 45 51 50 48 41 43 39 38 37 34 35 36 37 38 38 44
47 53 50 43 43 50 49 46 45 45 45 50 52 54 54 51 50
47 45 46 47 43 50 44 40 38 44 48 48 51 45 46 48 49
51 55 47 48 48 45 48 49 45 44 55 63 63 57 52 50 48
44 43 46 44 54 54 60 62 62 62 55 54 55 58 51 50 52
53 57 56 55 50 43 52 55 50 48 48 52 48 52 52 49 49
57 66 72 89 77 71 72 70 59 51 54 60 68 69 68 66 64
58 54 63 64 56 60 67 64 67 66 66 59 55 55 55 56 54
63 68 73 75 76 72 65 65 66 73 72 71 79 78 73 72 70
75 76 72 67 61 60 63 71 73 66 69 78 83 84 86 80 79
77 76 74 74 73 72 72 79 78 72 66 81 78 75 70 64 62
59 54 71 63 63 76 82 81 84 96 87 79 77 72 73 70 67
62 68 65 60 59 63 65 66 65 61 58 56 52 62 75 84 102
69 69 60 53 57 62 62 66 67 61 61 66 63 63 61 59 63
66 64 60 60 64 61 65 70 66 68 65 65 64 61 71 76 76
83 83 77 76 76 71 64 55 53 56 60 60 58 58 68 60 62
60 58 56 55 49 49 54 66 68 67 64 53 50 51 58 51 43
45 48 49 49 55 56 57 59 60 61 62 66 70 67 66 75 64
56 57 54 55 59 59 56 58 67 66 63 59 45 42 41 44 44
48 47 50 50 48 48 48 49 49 52 54 52 50 44 41 46 48
48 44 41 43 44 44 44 47 51 45 38 40 36 41 36 38 37
40 44 47 52 48 55 48 44 44 50 54 58 63 51 46 45 46
50 47 49 48 48 50 51 52 55 59 57 56 59 62 60 67 57
66 64 63 62 60 51 48 44 35 32 32 32 36 37 33 37 40
42 40 38 46 36 35 34 31 32 34 35 33 34 39 40 46 44
42 41 42 37 36 36 34 36 40 40 32 36 40 36 39 39 41
40 35 34 35 35 35 39 43 46 47 44 40 44 43 40 43 44
46 45 44 40 39 44 44 41 38 43 40 38 41 43 45 48 45
47 48 53 51 50 46 46 43 46 46 42 43 45 43 43 39 40
48 48 42 46 47 46 46 48 50 53 59 60 64 68 59 54 49
46 44 45 48 48 44 51 53 51 46 42 42 44 43 42 39 38
38 40 42 42 46 56 56 59 57 51 53 51 51 48 49 44 54
52 49 46 43 44 46 42 41 44 44 48 50 55 61 69 65 67
66 68 68 64 65 65 64 63 69 78 66 58 64 63 56 57 61
57 55 58 57 62 59 68 70 71 66 60 66 67 66 63 49 48
52 57 58 67 75 80 64 67 70 72 67 68 68 68 71 73 68
60 62 59 56 61 70 72 74 72 70 73 71 68 71 70 66 69
71 70 65 61 58 60 60 57 66 62 58 49 47 53 56 51 54
70 75 74 80 79 72 73 72 74 79 78 70 80 70 68 70 69
69 69 71 69 65 59 55 61 63 57 60 69 79 71 79 98 98
87 90 81 93 88 80 75 74 66 65 67 62 59 62 62 62 53
58 59 51 50 61 64 66 67 68 76 72 70 70 73 69 66 62
59 65 67 61 69 71 76 78 77 68 77 72 66 65 68 75 85
82 84 80 70 68 65 66 62 57 64 68 71 62 59 56 50 56
55 56 54 61 67 71 59 55 57 59 60 59 55 52 49 52 52
58 53 53 56 56 54 52 64 69 69 69 69 72 75 72 69 75
73 66 58 53 55 56 61 60 59 61 60 56 51 46 46 46 47
53 45 40 46 53 56 49 51 52 55 55 59 57 59 62 52 46
44 45 48 44 45 47 52 57 59 60 65 54 43 44 42 42 44
44 46 49 51 48 47 50 56 49 46 44 48 55 62 45 39 39
37 38 43 45 43 43 46 46 43 42 45 42 47 47 49 50 50
52 52 50 49 51 53 46 42 39 34 31 32 36 39 40 41 44
47 47 38 35 37 43 37 41 41 43 43 40 40 36 39 41 45
46 44 48 47 42 37 35 36 28 33 32 32 35 39 42 49 50
45 40 39 37 36 37 39 39 42 41 45 48 45 48 46 42 46
42 40 39 44 44 50 51 47 51 44 48 47 48 52 48 50 52
49 47 43 44 44 48 42 49 51 47 45 48 47 45 47 47 57
55 51 54 50 47 44 48 51 52 52 53 54 58 51 48 53 56
43 45 51 51 49 51 60 55 52 52 56 56 51 42 50 44 47
46 47 46 53 45 43 40 38 39 43 48 51 51 53 60 63 64
64 59 61 60 57 57 57 53 52 48 46 48 53 50 47 45 49
48 46 49 55 60 77 79 79 76 75 73 68 65 64 59 61 70
61 53 55 58 61 58 61 61 61 56 56 59 57 65 70 68 63
63 60 61 65 63 61 52 56 65 68 59 58 58 64 69 81 68
69 75 66 69 73 72 62 62 52 54 56 58 60 72 77 71 68
68 73 70 65 59 59 60 71 62 64 72 74 71 62 62 64 69
72 68 67 61 56 51 51 53 58 64 78 82 82 73 74 75 68
62 65 69 68 65 68 68 66 61 67 63 62 61 64 64 59 50
49 52 50 71 77 79 75 70 72 83 84 88 85 78 76 80 67
68 65 64 62 58 54 54 53 73 73 71 67 66 72 77 75 70
67 67 66 71 73 70 73 72 70 67 69 76 75 66 67 68 69
77 74 76 78 80 84 83 84 71 69 67 70 70 65 63 61 60
62 68 72 76 73 77 80 69 65 62 60 56 62 64 61 58 57
55 56 58 66 68 73 69 81 89 90 94 82 87 88 84 80 77
78 69 70 69 72 70 73 75 68 77 73 66 67 61 53 54 55
56 58 59 58 59 64 61 64 62 52 51 59 60 56 56 60 53
47 41 41 43 47 47 44 51 49 54 57 63 65 62 53 52 49
53 54 51 51 50 52 45 44 42 40 38 35 35 39 45 41 37
38 38 41 45 46 47 46 46 51 52 52 44 47 50 48 49 50
52 46 49 46 44 42 48 52 49 42 40 36 34 34 34 36 35
36 39 39 38 39 38 42 41 40 38 39 41 43 41 48 47 50
50 49 48 50 48 46 46 44 45 45 46 43 41 40 37 36 38
37 38 38 37 43 42 43 42 37 43 43 42 41 41 38 35 32
37 41 46 47 46 44 42 39 38 37 38 39 43 48 56 52 54
57 51 46 48 44 44 45 48 45 39 44 45 48 45 38 37 45
46 46 47 48 57 63 60 67 61 54 52 56 55 56 54 54 52
50 49 44 46 55 56 42 41 40 47 48 42 43 45 49 50 54
59 55 48 50 53 54 53 55 53 48 47 50 49 56 56 56 65
60 58 58 59 60 58 55 62 61 57 58 63 64 56 58 59 57
51 56 57 56 49 46 47 48 52 50 51 54 47 54 60 66 72
73 61 58 52 60 64 58 53 53 56 56 58 59 55 50 47 50
50 54 60 65 62 59 60 55 56 58 56 56 54 62 78 67 66
67 65 72 73 71 70 71 68 57 58 62 70 67 63 59 61 60
54 55 76 73 69 67 79 76 81 70 70 65 59 62 65 67 72
71 75 79 73 62 53 53 62 70 66 60 59 60 56 51 50 51
54 63 68 73 75 74 74 66 72 76 81 83 65 61 74 74 72
68 69 67 67 69 69 66 58 60 61 75 92 96 90 77 78 80
93 90 79 78 88 82 80 76 75 70 66 60 68 68 69 78 79
76 69 66 74 77 74 75 74 67 68 69 76 71 68 70 69 72
74 66 67 71 72 80 86 75 72 60 57 60 60 61 65 74 65
61 65 69 74 73 70 78 90 78 75 73 71 76 75 71 66 65
60 60 70 63 66 67 74 69 67 64 68 69 85 90 86 84 79
76 73 73 74 78 74 59 59 58 66 68 61 60 62 67 67 57
47 44 43 45 49 53 60 59 53 56 51 45 45 48 49 47 50
56 59 54 43 47 46 46 48 50 52 61 58 62 72 69 68 58
58 44 50 50 48 44 42 43 45 47 44 43 36 37 35 36 37
38 42 41 41 39 40 42 42 48 49 48 45 40 42 43 48 51
47 49 48 47 44 45 44 45 44 45 50 46 47 40 40 38 39
36 35 34 37 42 43 44 42 43 41 35 36 37 36 38 36 37
45 45 45 53 54 55 57 52 50 50 49 43 42 42 40 41 41
38 37 40 41 38 36 34 41 46 44 41 43 44 42 38 38 38
44 39 36 36 38 40 43 47 45 45 46 42 42 39 39 37 39
38 44 50 51 52 49 50 51 50 49 46 48 50 47 53 58 52
53 57 50 49 49 48 44 41 52 50 48 44 47 52 50 53 52
47 56 57 57 56 60 56 58 59 62 62 58 56 53 48 43 49
48 50 47 52 59 59 63 56 53 55 48 50 54 56 56 53 52
49 50 46 49 58 80 73 75 76 63 63 66 74 70 69 69 71
68 63 56 58 64 65 68 63 62 60 61 58 50 44 52 45 46
47 46 54 49 50 56 59 66 67 65 65 64 64 64 61 58 59
52 51 51 54 52 46 50 58 62 65 68 66 59 56 63 69 69
65 69 85 96 87 77 71 63 60 57 64 64 70 71 63 58 65
62 59 60 68 70 60 56 66 76 77 73 71 67 66 67 62 61
59 57 54 54 71 83 74 75 82 84 74 68 72 87 94 80 73
66 76 72 75 72 75 77 72 82 70 74 73 72 70 70 72 72
70 67 61 63 61 62 63 60 63 62 74 67 66 62 62 68 78
80 91 91 90 92 84 80 79 88 85 87 84 80 78 85 85 66
62 60 60 62 66 68 63 60 59 63 64 69 78 74 76 74 79
88 82 81 83 90 88 87 82 76 69 65 70 82 78 72 75 82
70 62 70 76 81 70 76 84 88 78 85 88 72 67 70 68 72
75 72 72 90 93 93 89 84 78 73 78 79 82 85 87 88 88
85 84 85 84 81 76 79 74 72 67 63 62 74 79 81 72 66
68 60 56 55 52 50 49 50 50 52 55 47 53 57 56 60 62
66 71 68 70 56 49 50 56 55 62 63 61 54 57 62 63 72
75 71 57 54 50 44 42 39 41 40 42 39 43 41 38 35 37
39 42 47 51 44 40 40 38 38 44 46 45 50 50 51 57 68
62 58 55 55 54 51 50 47 43 46 51 49 52 58 53 42 39
40 43 42 42 42 45 39 41 41 41 38 37 38 42 41 48 47
41 42 44 44 46 42 46 50 56 48 46 44 43 39 38 41 40
36 38 32 34 37 47 41 38 37 39 39 44 47 45 44 42 44
42 42 36 35 49 50 46 42 42 50 45 41 45 46 56 61 59
57 57 44 50 46 45 44 39 37 44 52 56 51 50 44 44 46
44 44 47 48 49 46 51 52 55 55 58 58 62 67 62 64 59
49 54 55 64 72 63 60 60 57 55 54 57 49 46 43 42 47
50 50 47 54 55 52 58 62 63 63 63 68 67 63 67 59 52
50 48 47 47 52 52 47 46 49 54 46 51 47 62 58 50 57
64 64 63 66 70 75 77 81 62 65 67 72 73 76 72 68 60
60 61 64 63 59 54 48 46 46 43 46 52 59 60 68 62 66
59 57 58 56 57 61 57 56 57 58 61 62 60 61 67 78 77
74 69 63 54 53 66 75 67 74 77 77 67 66 64 71 70 70
71 72 66 66 67 62 59 62 62 63 73 74 59 55 58 67 76
70 70 70 73 66 62 61 58 55 53 54 58 64 68 94 104 103
81 76 93 86 84 79 78 87 78 79 82 82 85 101 90 83 78
76 71 76 80 82 81 75 74 70 69 67 68 74 74 70 69 69
69 68 67 66 62 67 74 91 96 87 75 80 78 72 74 84 98
97 94 88 73 72 65 60 59 55 58 61 65 69 56 61 60 59
61 65 66 71 79 88 74 77 86 82 76 73 80 80 77 78 76
78 80 78 90 99 106 104 78 70 76 71 70 78 70 63 63 64
70 68 66 72 74 70 72 63 60 65 73 69 73 77 78 93 90
86 85 73 76 66 64 68 68 83 88 81 69 68 73 77 73 63
62 70 67 68 54 58 50 51 53 55 58 62 54 53 63 65 67
61 50 77 66 49 52 50 46 49 57 61 53 51 55 56 58 60
70 71 67 62 52 40 45 43 44 45 48 40 46 41 35 34 35
38 41 44 46 44 47 48 42 41 43 51 55 54 55 58 60 58
52 54 61 67 65 66 55 53 56 55 44 41 42 49 50 49 40
38 41 36 44 43 44 46 46 41 42 41 36 37 38 35 35 39
41 41 44 49 54 58 61 56 50 46 45 44 46 51 60 55 51
42 40 41 40 40 43 43 38 40 38 36 37 38 36 36 36 32
37 36 36 38 42 44 43 33 38 46 46 48 47 41 39 40 42
44 46 44 42 39 39 40 43 47 47 47 47 47 50 48 52 49
45 46 54 58 58 57 58 56 54 51 44 49 50 48 51 52 58
56 65 75 72 67 60 67 63 68 70 59 54 59 60 57 54 51
49 49 52 50 61 60 56 50 51 50 50 57 58 64 55 56 54
55 56 53 53 56 59 60 58 55 53 60 60 61 57 57 59 57
56 57 55 59 74 68 72 74 74 63 66 68 72 71 66 67 67
74 86 83 84 87 80 87 81 74 71 68 71 64 53 47 54 59
59 58 68 82 78 70 65 64 67 66 66 69 65 56 63 66 72
63 59 62 71 74 75 76 74 67 68 70 85 86 77 75 74 79
78 81 71 63 68 75 70 62 64 66 64 52 54 56 62 52 59
61 59 57 70 71 66 63 66 86 78 67 66 57 54 69 68 54
49 48 56 77 81 89 91 90 89 90 85 80 77 76 77 90 93
90 90 85 83 93 101 110 98 90 84 81 81 80 81 77 72 68
71 77 72 66 70 69 68 63 63 64 65 65 64 77 86 81 96
89 77 73 70 68 68 71 58 62 68 71 78 78 66 56 59 60
63 67 65 64 64 61 58 60 65 66 66 58 62 70 68 71 74
74 76 83 83 85 77 81 75 61 57 64 60 62 70 55 53 59
59 62 60 56 52 52 52 56 57 52 48 48 53 49 52 56 54
56 61 66 69 67 58 56 52 54 56 59 60 59 59 61 61 52
47 47 51 51 50 48 54 58 51 48 48 45 45 46 40 43 49
51 51 46 44 47 48 46 50 54 54 53 55 50 48 44 53 53
54 52 54 57 54 44 39 35 31 30 28 29 30 32 32 33 32
32 34 37 36 36 39 42 42 43 40 42 52 53 50 45 48 58
47 45 45 45 46 52 50 46 45 48 46 42 45 45 52 57 52
44 38 37 36 37 30 30 28 31 33 36 35 35 34 35 38 36
39 43 44 43 42 39 42 42 45 42 46 38 40 50 47 43 40
41 39 38 39 39 40 44 42 40 40 40 40 35 33 33 32 39
42 39 36 36 42 43 46 46 49 49 52 48 40 38 39 40 40
43 46 43 46 51 43 36 40 40 40 40 41 40 40 37 34 38
40 40 41 48 46 48 49 46 41 47 52 54 55 62 55 50 48
50 51 58 67 74 83 76 72 72 73 68 65 54 53 48 48 50
46 46 55 60 59 53 53 56 52 54 57 58 60 58 50 46 40
37 36 34 36 36 37 43 41 41 43 42 44 47 52 58 65 61
58 57 68 64 61 57 55 54 53 52 50 48 57 73 75 72 72
76 87 75 75 76 72 73 72 72 68 69 66 60 64 79 65 68
58 51 47 47 51 53 52 51 52 63 70 68 67 64 64 60 59
62 64 62 59 61 60 62 59 62 62 62 63 67 74 65 62 69
72 66 67 70 66 72 75 76 73 68 72 69 70 67 71 74 73
60 51 51 67 60 56 60 64 73 89 88 72 60 59 66 66 66
59 58 56 67 56 54 46 51 49 54 56 58 65 80 75 57 64
61 56 60 55 74 78 85 96 99 87 82 86 88 104 99 88 78
81 87 76 67 64 66 64 70 74 67 68 72 73 72 67 64 62
66 73 82 86 88 91 102 98 89 80 67 59 50 52 58 61 58
57 57 58 61 62 60 58 58 58 58 60 57 58 58 68 72 71
72 70 59 51 47 55 53 50 50 51 52 58 64 68 69 64 59
60 57 58 54 51 52 46 51 55 55 54 51 50 46 47 52 54
55 56 56 62 71 63 61 53 51 53 56 56 64 70 65 50 44
49 52 47 47 49 52 57 48 45 49 51 44 41 42 43 46 40
41 40 40 42 42 43 46 44 50 48 54 57 59 48 50 52 51
53 53 51 46 46 44 43 38 35 33 29 29 31 29 29 30 28
30 33 33 35 37 38 41 43 44 39 38 40 44 46 47 46 42
43 40 42 43 40 42 44 42 41 42 36 39 44 43 50 48 47
47 44 45 39 38 41 38 38 32 33 32 32 30 30 30 34 34
34 35 36 39 41 40 50 52 50 43 45 42 42 39 38 41 40
38 39 39 37 40 43 45 43 45 48 43 39 44 45 41 43 40
42 42 46 48 41 39 38 40 48 51 50 42 42 39 35 40 49
43 42 44 47 46 46 48 41 43 40 43 42 45 44 47 50 42
36 34 36 37 39 43 41 36 37 37 47 47 52 44 51 51 52
48 52 42 56 59 60 52 45 39 36 38 41 41 40 39 35 36
42 42 41 39 39 43 38 43 41 41 44 44 44 44 45 43 44
46 44 40 37 42 50 46 40 40 43 41 40 39 44 47 42 42
41 40 42 44 50 49 50 59 61 60 57 55 50 48 49 52 55
49 49 51 52 58 51 52 51 42 40 48 54 52 53 54 55 58
62 56 57 56 62 62 54 54 52 49 51 45 45 49 55 62 67
78 76 76 70 74 70 68 68 62 62 64 69 71 73 65 68 66
62 61 59 59 75 84 75 65 59 63 65 66 71 76 78 77 68
66 72 67 71 77 78 66 57 52 53 53 52 56 57 72 77 79
67 65 68 59 60 63 57 59 58 56 59 53 47 46 49 57 63
60 60 67 81 70 58 53 52 50 57 58 57 76 81 87 89 84
82 86 85 88 85 84 76 82 79 74 76 66 61 64 63 62 65
67 65 71 75 79 67 63 66 76 83 93 101 104 97 104 63 66
68 66 64 66 65 58 62 64 63 58 58 60 59 61 62 66 66
64 64 68 64 54 54 58 59 53 52 60 67 75 80 79 73 71
63 58 55 62 66 59 55 57 56 56 58 67 62 56 53 57 58
65 74 76 76 79 96 92 74 55 56 56 50 44 49 54 47 43
47 47 54 65 58 59 68 67 57 59 54 57 57 54 47 48 47
46 42 48 47 44 45 43 45 49 51 43 46 47 48 47 50 58
54 57 56 55 56 54 51 49 43 38 33 36 37 36 32 32 33
33 34 38 41 40 40 40 42 41 46 46 45 40 41 46 48 45
49 47 45 45 44 48 48 46 47 45 45 43 44 43 46 47 45
49 52 54 49 45 46 41 42 42 41 41 36 41 39 39 41 42
39 41 43 42 36 37 42 44 51 53 46 41 43 38 39 42 43
46 49 47 45 42 50 44 43 40 39 40 36 33 38 34 38 38
42 47 49 64 62 63 56 58 58 59 47 45 50 50 38 37 38
39 41 41 44 46 51 46 52 53 45 44 44 42 40 36 39 37
38 33 37 37 38 38 40 42 42 44 41 42 44 46 44 47 50
55 58 60 59 62 58 60 55 45 43 35 35 33 32 32 32 39
46 50 40 37 34 33 33 34 35 40 40 41 41 45 46 50 46
49 51 43 43 44 45 45 40 37 44 50 54 58 58 57 58 48
46 48 51 45 44 44 44 44 44 51 52 57 46 52 58 70 65
57 54 50 55 55 52 49 42 44 52 56 56 52 52 46 44 50
47 50 45 44 39 49 50 52 58 68 76 70 61 57 61 61 61
55 48 42 46 44 44 49 54 55 55 58 60 67 62 77 61 60
62 70 66 59 61 55 53 50 58 76 81 82 86 80 72 79 71
70 70 73 75 74 86 96 76 77 87 95 89 80 68 71 61 56
54 54 56 63 99 97 86 88 78 82 84 87 84 74 70 75 72
70 62 62 61 65 67 68 67 66 71 72 74 66 66 64 62 61
67 75 76 76 82 94 96 94 87 85 80 72 73 77 82 81 81
84 85 88 78 74 71 75 80 74 74 76 85 78 72 68 66 69
92 109 70 66 66 67 66 72 76 68 66 65 64 60 56 64 58
57 66 61 58 56 55 56 57 57 57 66 75 85 86 80 73 81
73 71 57 54 54 54 51 53 55 58 65 65 64 64 68 57 57
62 62 60 65 71 63 61 60 61 61 62 57 48 46 47 54 53
50 46 48 50 52 60 65 58 58 55 60 61 60 60 55 55 51
49 52 52 53 50 49 49 50 49 50 54 52 54 59 59 65 64
58 54 56 50 50 50 51 49 46 44 41 36 35 33 32 32 33
32 32 33 35 36 40 42 42 45 49 47 42 42 43 48 49 50
51 49 42 48 48 46 54 52 49 52 51 42 45 46 47 50 53
54 52 50 53 49 53 50 53 50 45 46 45 41 41 42 44 42
44 46 52 56 55 47 40 38 43 47 44 46 46 44 44 41 39
43 38 44 46 50 51 51 50 52 54 56 51 45 42 36 46 44
41 42 45 51 57 58 53 60 56 47 52 49 48 54 61 42 37
39 44 41 46 46 42 45 45 48 51 40 39 42 41 40 38 38
40 38 36 39 39 37 34 41 44 41 45 43 41 37 38 42 40
44 42 44 45 41 42 40 39 41 44 46 45 41 40 39 39 40
38 38 40 42 42 40 43 48 44 44 41 42 45 46 39 42 40
42 44 48 45 45 50 46 46 46 47 52 55 51 47 40 39 36
36 46 49 52 52 53 56 51 48 49 46 49 45 40 38 46 58
57 53 54 58 73 73 64 57 56 60 60 53 47 47 48 52 54
55 57 53 54 58 52 49 47 48 39 43 46 48 47 57 65 63
62 63 53 50 45 40 36 38 37 35 36 38 46 43 37 34 35
38 39 40 40 37 36 38 38 39 39 36 37 39 40 46 59 70
78 91 100 89 79 78 77 78 81 83 85 69 71 70 74 85 91
92 83 80 70 68 65 52 52 52 52 62 74 76 70 69 60 67
63 70 79 84 74 71 64 74 67 66 74 70 73 75 73 79 79
72 66 66 56 54 55 53 52 52 52 59 67 74 83 91 95 92
89 84 74 66 66 66 64 65 72 72 73 66 69 77 81 72 84
94 83 75 76 66 62 64 67 67 59 52 53 52 48 45 44 47
54 55 60 63 57 51 54 55 60 52 53 50 50 64 65 64 63
58 67 68 70 68 60 60 62 66 66 69 70 66 67 68 66 77
75 72 73 76 74 69 67 67 66 64 56 51 48 44 43 43 50
47 47 46 45 52 56 57 63 63 68 66 58 56 58 62 54 48
52 50 50 48 46 45 43 46 49 46 50 52 57 62 63 65 63
59 56 60 50 49 46 50 46 45 42 38 37 33 34 32 32 35
35 35 36 36 36 39 41 45 50 51 58 59 56 54 55 55 62
69 62 58 46 45 52 62 66 63 58 51 51 52 52 53 62 57
57 54 51 48 54 56 66 55 58 62 61 48 45 48 47 38 37
36 39 46 47 44 44 53 56 53 57 52 54 57 57 59 60 60
42 48 49 47 52 51 50 54 49 53 49 52 51 50 43 44 46
49 46 42 40 49 56 56 63 56 61 58 50 45 48 48 48 48
48 39 42 52 48 45 45 41 40 42 41 40 42 44 43 42 43
42 47 44 48 45 41 40 45 45 50 52 48 52 52 48 51 41
44 45 47 53 54 54 51 48 46 43 40 43 43 45 45 47 44
44 46 51 51 52 52 42 41 39 35 38 40 53 58 56 53 52
56 55 53 51 49 46 44 45 44 43 39 46 58 59 61 57 49
38 43 42 43 38 37 37 36 35 35 48 55 47 51 51 49 52
48 44 42 48 59 54 52 49 47 54 52 50 50 46 48 48 54
48 43 39 41 42 45 40 39 46 49 48 47 43 45 46 44 42
41 42 46 46 43 46 46 47 41 40 35 36 34 42 46 41 36
41 42 41 40 37 38 41 41 46 46 43 40 40 41 43 42 42
38 37 38 34 44 46 44 55 55 57 58 68 66 64 65 75 85
74 64 56 56 59 72 87 92 75 82 82 73 63 66 58 53 61
66 69 68 71 81 80 69 74 84 85 84 75 64 66 67 71 58
54 59 60 53 60 72 72 67 62 59 60 71 60 62 64 68 64
70 80 74 75 76 80 78 74 71 70 73 67 70 68 64 62 60
61 61 66 72 67 71 100 112 110 98 49 45 46 48 49 50 50
53 55 59 59 56 53 52 52 50 52 52 51 47 48 52 54 52
50 48 55 62 62 58 54 56 64 75 80 73 71 70 76 78 65
65 62 62 60 60 62 60 59 63 59 52 45 46 48 53 51 49
50 45 44 42 45 48 52 53 56 62 62 61 62 61 56 64 64
53 52 54 50 54 56 62 62 51 50 46 46 46 50 54 62 66
67 66 62 63 51 50 56 54 55 45 44 44 44 47 46 41 42
38 39 42 42 45 46 45 45 44 49 53 55 56 54 50 40 49
53 56 54 50 50 48 48 48 47 54 62 62 57 51 51 50 52
60 55 56 52 44 46 41 43 46 49 54 53 43 40 40 38 35
36 42 43 41 42 49 48 53 45 41 45 50 47 52 56 59 56
57 65 46 45 41 46 54 47 53 56 47 46 55 59 54 55 49
47 48 42 38 37 38 42 40 40 46 48 58 57 56 61 64 68
69 70 54 53 44 47 48 46 51 57 48 50 58 54 42 38 35
32 32 30 31 29 28 29 32 34 45 49 49 57 56 54 50 40
45 48 46 42 44 46 44 42 46 48 49 40 45 43 42 38 40
42 47 58 62 60 59 59 53 55 51 54 55 56 58 52 42 47
51 51 49 51 56 54 48 46 46 46 46 44 44 41 39 36 45
47 47 48 55 55 56 49 48 45 46 41 38 37 36 33 39 41
45 43 38 40 43 46 48 45 40 47 49 47 50 49 45 45 48
52 50 50 52 60 44 48 49 44 40 39 43 44 48 47 50 49
48 49 47 45 45 41 42 46 49 49 49 48 45 46 40 39 45
41 42 41 39 38 40 38 39 39 36 34 37 36 41 49 47 42
40 39 37 40 42 45 42 38 36 38 44 40 42 46 47 50 50
56 65 64 62 63 88 82 78 69 59 56 66 69 64 66 72 79
83 79 74 67 59 60 79 79 76 84 80 72 76 68 64 61 64
75 78 81 75 72 68 58 56 58 57 56 58 69 66 60 54 54
60 63 65 59 63 65 66 76 70 72 80 77 78 73 71 67 73
73 59 65 63 65 65 66 72 78 82 73 68 76 92 50 50 50
49 54 55 55 57 56 53 56 59 60 53 54 55 59 56 54 53
51 59 66 65 67 76 70 70 67 62 68 64 66 67 73 75 76
75 72 67 66 66 67 63 62 58 49 43 43 44 50 51 51 53
58 50 50 46 46 48 51 51 59 60 58 59 59 56 56 55 54
55 53 52 59 62 64 61 59 54 50 48 52 50 53 60 58 64
65 68 75 75 63 68 66 61 55 46 41 41 40 40 43 39 44
44 41 38 37 38 38 38 36 39 40 44 41 51 58 52 59 55
54 51 52 53 51 47 46 52 48 42 50 51 50 52 52 56 48
43 53 54 54 54 56 50 51 53 56 61 73 68 60 50 46 45
43 40 45 52 60 51 44 51 45 42 42 59 58 61 61 59 61
60 62 60 59 55 49 51 47 52 50 52 46 48 48 56 70 65
50 50 52 39 39 37 40 41 44 42 42 41 40 42 40 40 34
39 39 40 42 50 53 56 53 56 56 54 57 54 48 49 44 38
36 34 34 34 34 31 29 30 30 29 28 30 30 30 33 27 29
30 31 31 40 38 40 45 47 47 49 44 47 47 44 48 52 44
39 40 45 43 43 42 44 42 40 40 57 52 51 52 45 45 50
49 49 50 51 46 46 55 50 52 56 60 66 61 57 53 48 44
46 48 42 44 47 48 53 61 54 45 45 44 46 50 58 63 54
46 43 42 35 34 36 42 45 41 45 40 43 46 40 45 49 44
49 45 48 44 40 43 40 43 41 58 59 59 50 48 44 42 42
40 44 49 50 49 48 44 46 49 48 43 42 46 53 52 49 52
57 62 56 47 42 41 42 42 41 39 36 37 39 40 38 37 38
38 36 44 45 46 46 41 43 44 41 38 38 38 38 37 36 36
38 38 39 40 38 40 46 45 49 47 51 65 85 84 75 64 72
69 67 66 63 62 75 88 84 79 74 65 66 66 60 67 64 66
71 65 62 60 63 67 70 71 75 78 80 82 72 68 56 54 53
59 68 71 72 55 51 53 57 64 58 56 55 54 62 63 65 76
78 78 76 71 68 65 61 73 65 62 62 63 61 59 53 58 67
68 49 52 54 58 54 50 52 59 61 62 60 56 63 62 57 52
57 61 62 66 62 62 61 62 62 65 67 61 59 60 53 50 48
50 54 55 57 57 63 64 62 69 59 53 52 52 51 53 56 54
55 57 62 53 47 47 50 53 58 60 65 64 62 58 64 56 54
55 53 51 47 45 51 58 65 63 60 61 52 49 48 50 48 50
60 68 83 82 68 56 53 48 44 37 34 35 34 34 39 40 42
42 37 37 35 34 38 41 43 42 46 45 43 45 46 49 61 56
56 57 60 48 50 50 49 47 46 45 44 47 52 57 55 50 51
51 52 49 49 60 64 62 53 60 64 54 48 53 58 59 50 45
44 43 39 44 40 40 39 46 47 47 47 48 50 44 50 46 49
44 44 46 36 41 40 41 39 48 57 60 55 58 56 54 52 51
49 49 50 50 52 52 49 47 40 43 52 49 47 41 43 42 44
42 36 34 35 37 40 43 46 46 53 50 50 50 51 45 45 51
48 46 43 43 43 38 37 36 32 30 29 27 28 29 29 29 30
31 28 29 28 25 28 27 26 25 26 29 31 33 34 40 40 40
40 37 35 37 41 34 40 39 36 35 37 38 39 38 36 39 41
40 44 43 50 49 47 46 48 50 60 60 56 61 65 68 66 66
65 63 55 51 48 44 50 42 35 38 42 40 40 39 43 40 37
41 49 50 49 47 51 45 42 42 43 44 42 41 43 40 42 45
43 43 41 43 47 51 46 44 39 38 39 38 40 48 50 50 55
62 59 52 45 48 45 43 42 38 38 38 39 41 42 41 40 36
37 40 45 53 55 63 64 61 56 52 48 45 45 45 44 44 43
42 39 38 36 41 42 45 50 54 52 45 42 34 41 44 40 39
38 42 45 43 37 35 34 36 38 38 42 41 44 50 55 50 48
51 64 71 80 81 62 64 65 66 63 64 69 76 106 98 87 76
70 69 65 67 65 69 68 68 66 59 48 48 52 60 60 61 58
54 51 48 49 50 46 47 54 71 79 71 63 54 53 64 62 64
67 65 66 60 76 70 67 69 72 76 79 76 77 74 68 58 69
72 66 64 60 56 52 52 60 58 60 64 68 61 61 61 57 55
51 52 56 56 58 60 53 59 60 61 64 67 74 68 64 63 52
49 49 52 54 57 65 63 61 62 60 54 46 44 45 45 50 53
54 70 62 55 51 45 44 49 55 59 61 58 55 58 64 58 60
56 53 54 55 51 49 52 56 59 55 53 46 44 46 49 54 54
50 44 51 53 57 56 47 42 42 44 44 44 39 43 42 38 38
39 36 35 36 37 40 44 44 44 44 48 46 39 42 44 54 59
59 65 59 57 58 55 51 45 48 50 52 52 55 54 68 56 50
48 50 48 49 48 44 45 46 44 48 50 55 53 50 45 54 51
51 43 40 37 44 41 38 38 36 41 42 41 38 38 43 46 51
55 60 44 42 42 44 44 46 55 56 60 63 58 61 63 64 64
65 65 66 67 70 66 59 46 48 50 53 56 55 55 52 51 52
55 57 52 46 44 40 40 39 36 37 34 32 28 33 30 34 32
35 36 36 36 38 39 42 38 41 38 36 33 33 32 31 33 32
32 31 30 30 28 30 30 29 32 33 31 30 29 28 27 29 27
27 29 29 33 30 31 35 29 29 31 33 38 38 34 36 36 37
37 34 40 40 36 39 44 43 48 47 46 47 53 49 57 60 62
57 54 52 51 51 50 47 45 45 50 37 37 35 34 36 37 42
42 46 49 46 44 37 36 32 38 44 49 53 52 52 51 43 43
44 46 42 47 45 41 39 39 39 41 45 52 46 44 44 43 43
40 38 40 38 36 37 39 47 52 43 41 40 43 47 41 37 35
36 40 42 40 39 40 42 43 43 48 50 56 60 67 60 54 51
46 47 46 41 41 42 41 40 38 35 34 36 38 41 45 45 44
37 38 39 37 35 36 39 42 42 42 40 41 41 38 40 41 42
39 38 44 50 50 50 54 56 61 67 71 69 72 70 69 64 69
65 70 68 73 83 80 72 67 68 67 60 60 62 67 68 62 54
54 56 60 60 59 58 59 56 52 49 44 40 40 43 56 71 77
68 65 59 58 56 60 63 59 53 47 55 60 58 60 65 65 67
72 75 76 70 60 66 70 70 71 67 58 52 53 59 62 62 64
51 53 57 61 59 55 55 56 56 61 66 73 78 77 80 81 77
60 53 50 53 66 74 82 86 74 62 51 46 44 45 51 54 57
64 69 65 61 59 64 61 57 58 57 60 64 57 53 52 57 75
67 62 56 52 52 49 52 54 56 53 49 46 45 46 44 40 43
42 48 50 52 53 55 52 45 46 45 43 39 40 41 37 41 43
47 42 39 39 45 45 40 39 42 44 41 38 45 42 43 44 49
59 68 67 73 68 60 64 60 54 52 54 53 59 56 60 63 63
56 47 47 44 49 48 48 47 50 53 61 59 53 51 46 47 52
51 52 49 50 40 48 51 52 43 39 41 35 41 42 42 45 49
59 57 51 49 45 39 42 43 42 56 58 64 63 63 72 60 66
59 51 48 57 61 58 84 70 56 50 60 65 64 63 61 62 59
54 65 58 45 44 43 42 49 51 47 46 44 40 40 35 37 34
31 32 30 31 32 30 29 32 33 34 40 46 47 44 38 44 41
39 42 33 31 31 31 32 32 30 27 28 28 28 28 31 32 37
37 34 32 33 32 33 34 35 32 33 34 32 29 30 33 32 28
33 39 39 41 42 46 42 41 45 48 49 51 48 47 53 48 45
53 51 55 49 48 50 48 52 49 48 51 45 38 39 46 45 39
39 33 40 40 43 40 41 39 35 37 35 35 36 35 38 45 48
49 52 52 51 51 42 37 46 52 39 40 38 37 41 46 52 59
58 50 50 53 52 45 39 44 43 42 40 42 43 53 59 60 50
43 44 39 35 32 32 33 36 42 39 36 37 35 39 47 54 47
48 54 64 58 52 50 51 51 45 38 40 40 38 40 38 37 35
36 37 37 40 44 44 40 38 39 42 46 40 39 44 49 45 40
41 46 42 42 43 41 39 38 42 47 48 48 50 54 53 50 46
51 56 59 60 63 60 72 73 73 70 66 71 76 74 77 81 74
71 72 65 68 62 61 62 67 79 75 77 60 57 59 62 63 59
54 51 47 44 48 59 68 68 65 60 61 62 66 72 73 70 56
55 58 54 51 52 50 56 58 63 84 78 64 63 48 57 64 67
68 63 59 58 57 53 49 51 57 68 69 69 72 75 74 73 69
71 65 62 60 68 81 89 89 90 84 71 61 54 48 50 54 54
52 55 59 61 56 56 57 58 52 57 57 61 69 71 54 58 62
66 79 66 58 51 51 56 55 55 52 55 53 50 49 47 48 50
52 53 53 55 53 51 48 44 40 44 43 42 35 37 39 43 43
40 36 34 38 37 39 40 41 40 39 41 40 37 38 41 44 46
49 52 53 57 59 57 59 60 53 50 50 49 48 52 49 52 54
61 57 52 44 44 44 44 48 45 42 48 50 49 48 45 44 48
53 49 47 42 40 41 39 38 37 41 40 44 43 42 45 45 45
51 55 53 54 46 42 39 41 37 43 44 51 52 50 48 50 51
53 55 49 48 52 56 64 67 57 53 45 51 54 54 51 52 49
53 50 50 51 48 46 47 47 43 44 42 40 38 37 46 41 40
37 36 34 33 35 33 30 29 32 29 26 26 29 27 30 31 35
39 45 48 48 44 47 48 36 36 36 36 33 35 34 33 32 32
30 31 30 33 36 37 37 35 36 32 28 29 28 28 30 30 30
31 35 33 36 34 37 32 31 38 43 40 38 44 43 37 34 40
39 38 46 49 50 37 34 34 37 32 32 33 38 42 41 42 39
36 35 35 37 35 30 32 33 36 40 42 44 47 47 44 46 42
40 41 40 43 50 47 38 39 40 44 41 40 41 46 46 49 51
47 46 49 49 53 47 46 48 48 47 43 37 38 47 49 44 40
43 43 46 48 50 50 50 50 41 36 34 34 33 34 38 40 38
34 34 32 39 43 42 45 59 62 56 53 46 48 54 47 40 39
40 41 42 37 36 39 43 43 44 45 52 49 48 46 43 41 36
38 38 41 44 47 46 40 38 38 43 44 40 38 37 43 45 45
48 49 52 56 48 45 44 49 46 49 55 50 50 51 62 65 64
66 71 70 71 71 76 79 79 77 66 64 61 60 77 83 78 79
77 69 64 60 61 62 57 59 60 50 54 58 55 56 59 59 63
57 61 60 62 65 61 57 54 53 53 52 55 60 59 57 70 84
64 66 63 54 54 57 55 56 55 60 65 74 77 74 73 69 69
68 64 59 54 53 55 58 64 64 64 65 58 52 47 47 44 49
54 55 50 51 49 52 55 59 64 66 64 62 68 73 69 59 58
55 57 62 67 55 51 55 60 60 59 62 60 60 66 69 62 51
55 56 60 57 49 48 47 40 39 38 37 34 35 37 36 37 37
40 42 37 34 35 34 37 36 38 38 40 42 38 39 45 41 48
49 50 51 52 48 48 50 52 51 47 46 49 52 53 51 52 52
55 48 54 57 51 41 45 46 49 45 45 50 44 49 51 51 49
48 50 51 48 46 38 38 43 45 44 42 42 40 38 43 48 53
48 46 48 46 48 50 56 50 46 48 38 41 45 42 41 39 42
35 33 33 31 34 36 35 35 36 36 35 36 34 36 44 46 51
44 40 36 36 40 41 48 48 48 50 50 52 50 57 56 54 51
46 46 40 41 44 45 37 31 29 30 28 26 29 34 31 33 33
30 32 38 41 41 45 44 40 44 46 48 43 49 48 44 37 36
38 39 36 36 40 38 36 31 33 31 28 31 30 29 29 26 28
30 27 26 28 27 28 28 30 32 31 28 30 30 34 33 31 30
31 32 28 28 29 29 31 33 31 35 36 40 32 34 35 36 33
34 38 43 43 44 37 35 39 43 42 39 38 37 33 33 36 45
46 45 45 42 42 41 39 36 35 36 36 46 46 42 43 38 38
39 44 45 45 39 42 48 46 48 50 50 42 47 54 56 50 50
43 41 40 44 46 44 44 44 49 48 50 53 48 53 53 50 46
44 39 41 43 35 39 40 38 36 41 41 39 42 44 50 55 54
59 61 62 62 59 48 46 47 49 41 39 41 39 42 40 46 46
52 47 47 47 48 43 37 38 40 44 43 42 40 35 36 35 40
38 38 45 48 49 45 40 52 60 57 52 49 42 37 36 37 44
44 46 48 48 53 56 53 53 56 65 82 76 76 74 89 76 63
59 66 75 81 83 80 72 69 68 65 69 69 64 57 58 62 65
69 66 68 76 71 63 55 54 53 58 65 55 51 46 58 52 48
48 56 56 54 61 65 65 61 63 67 64 64 60 60 66 66 62
70 69 66 62 61 62 62 66 64 67 67 66 59 56 42 40 42
50 56 57 50 45 48 52 57 59 63 64 65 66 65 63 59 51
52 58 62 67 71 70 60 55 65 70 72 56 56 55 52 51 46
45 45 45 47 47 48 42 41 43 46 39 35 31 30 33 35 37
35 35 39 38 33 31 31 33 36 38 38 39 43 46 40 37 39
41 46 52 54 54 49 37 37 40 46 46 48 43 51 54 55 53
52 43 40 42 39 40 38 35 37 43 42 42 43 55 59 60 65
57 55 53 48 46 47 45 45 45 42 43 43 44 43 48 48 38
46 49 51 48 52 56 46 45 37 36 33 36 39 37 38 41 36
38 36 30 31 33 36 40 35 32 32 34 35 33 32 32 37 41
40 32 28 30 31 32 34 30 32 29 29 32 35 44 46 48 54
57 60 59 56 52 44 44 45 41 46 45 44 39 35 35 33 34
32 38 35 32 35 31 28 31 30 32 39 38 40 40 45 49 51
47 47 47 44 41 48 46 46 42 39 36 33 32 29 29 32 34
30 30 26 29 28 30 31 28 31 28 27 24 25 26 26 28 29
29 32 30 31 29 31 34 35 34 34 34 30 29 29 29 30 34
35 32 32 32 38 32 35 40 38 38 36 33 32 31 29 33 35
35 36 37 36 36 33 36 38 36 35 34 34 42 41 38 40 40
38 37 36 34 43 38 37 38 40 37 35 36 38 41 39 45 43
46 50 46 45 49 47 46 42 43 42 41 49 50 49 48 49 48
42 38 35 42 42 47 48 48 46 43 42 41 35 35 40 39 37
38 36 41 42 45 44 54 58 59 54 56 47 46 43 40 37 37
38 37 44 45 44 42 43 42 44 41 41 43 40 38 34 36 40
38 43 36 34 32 33 33 33 36 40 44 46 42 38 36 35 42
42 41 42 42 39 38 38 38 41 54 59 60 69 52 48 63 78
85 82 76 86 90 79 69 68 72 78 79 90 83 78 70 61 62
67 70 60 58 53 53 57 58 55 57 61 65 61 59 59 66 77
70 57 54 59 61 56 58 58 65 72 68 64 59 58 58 60 60
61 61 63 63 62 65 66 66 63 60 62 64 61 57 52 48 50
54 55 58 59 48 48 48 51 52 54 57 58 59 66 64 59 53
55 53 59 70 76 72 70 69 66 61 62 56 50 57 61 61 53
49 44 48 49 46 46 44 43 42 38 47 48 41 32 32 32 33
35 37 37 35 38 41 35 36 38 39 44 43 47 42 38 36 36
40 42 43 45 47 48 45 40 41 43 45 49 50 56 50 47 49
50 46 50 47 42 42 44 45 53 46 41 44 47 48 43 39 46
48 56 53 58 66 60 62 55 62 54 43 44 43 43 45 43 38
42 47 53 53 55 54 46 40 37 34 31 36 38 32 35 37 34
31 32 33 36 36 35 37 35 36 37 35 33 35 34 34 36 36
37 39 41 36 34 34 34 33 38 42 36 33 35 37 34 36 31
39 36 34 32 39 40 39 47 61 51 44 43 41 33 34 36 38
38 39 36 36 36 34 35 36 34 30 35 32 35 36 35 34 33
37 40 62 52 48 46 53 59 57 53 52 46 44 41 46 48 43
42 35 38 41 32 32 32 32 35 36 34 30 32 31 29 29 29
33 28 28 30 28 29 29 28 30 28 28 32 32 29 31 30 26
26 28 28 31 35 40 41 41 40 44 39 35 35 35 34 33 36
35 34 34 34 37 41 44 48 54 54 49 44 39 39 41 37 34
34 34 33 33 36 35 38 40 40 45 45 51 51 48 46 44 44
45 44 45 46 52 52 49 44 50 46 45 50 52 51 47 51 47
47 43 47 46 47 45 49 46 45 45 41 46 45 45 40 41 40
37 38 45 48 46 39 37 44 45 47 46 46 52 62 53 51 49
51 50 45 42 46 43 45 44 44 42 44 45 38 42 40 38 34
34 38 38 36 36 39 41 46 44 42 34 36 37 37 41 40 38
43 43 42 41 40 39 38 37 38 38 37 34 35 37 37 38 49
58 62 56 57 57 59 76 74 74 73 72 78 77 77 71 72 64
66 73 78 80 73 70 73 77 80 74 75 74 65 66 66 68 69
70 67 63 64 62 63 62 64 60 57 59 56 61 61 63 64 66
65 69 66 62 63 65 63 61 58 59 61 62 68 71 77 68 59
54 52 51 54 54 52 46 51 54 63 52 54 60 52 58 60 58
51 50 51 49 48 51 55 55 49 48 51 54 54 51 58 62 61
51 40 46 49 51 50 47 47 47 46 43 40 40 47 48 39 36
36 43 44 45 49 39 38 37 41 41 41 46 49 46 40 40 37
39 40 40 41 40 43 47 48 49 46 37 39 39 47 49 49 49
43 44 40 41 44 44 41 39 37 44 47 50 50 40 40 41 41
46 54 52 53 50 56 52 53 51 61 57 50 40 38 37 47 45
43 46 46 50 51 54 59 58 58 45 36 33 35 36 41 42 38
44 43 42 37 37 36 34 32 33 37 37 30 34 35 30 31 36
36 39 38 42 41 38 39 36 37 39 37 35 35 34 37 40 39
36 39 42 39 41 39 38 34 31 29 28 29 29 27 34 32 32
35 39 41 42 46 46 41 42 37 38 33 30 34 33 29 29 28
28 28 29 29 31 31 32 35 38 41 47 51 50 47 48 48 43
38 36 40 41 41 48 43 43 39 44 42 33 39 37 38 37 37
35 31 34 34 30 28 28 24 26 28 29 24 27 27 28 24 24
26 25 27 31 29 29 31 28 28 28 29 32 40 38 35 35 35
38 41 43 41 40 38 41 46 49 52 52 48 44 44 50 53 52
52 47 40 42 40 39 40 39 40 40 41 46 47 43 40 39 39
45 53 50 49 53 53 48 48 45 50 57 58 58 54 52 55 47
50 43 51 51 50 50 51 56 56 54 56 53 49 50 52 48 46
49 46 45 46 42 43 45 46 51 47 41 36 39 42 42 45 40
41 52 56 60 59 56 63 53 49 43 42 42 46 47 44 45 43
42 42 41 43 41 41 40 39 38 42 40 39 40 43 46 44 38
38 41 44 45 41 37 38 40 44 42 43 42 38 34 32 34 37
38 39 37 36 36 37 39 42 51 56 53 53 57 69 65 54 60
72 70 93 101 79 68 66 67 73 79 76 78 82 68 68 69 74
80 69 66 66 71 76 74 79 86 78 69 63 61 53 53 56 67
65 62 66 62 58 67 64 66 66 67 65 76 81 90 90 72 67
60 59 56 52 47 55 57 48 50 48 49 48 45 46 52 57 58
59 54 54 55 51 47 48 49 48 52 51 53 52 53 52 44 48
51 52 46 41 47 47 48 50 60 54 51 52 50 50 51 60 52
43 44 44 45 50 49 45 38 37 38 40 42 42 37 38 38 38
39 41 40 43 44 46 48 47 48 46 48 42 38 42 47 50 59
64 56 57 46 43 47 46 46 45 44 42 55 57 56 55 49 41
47 58 63 61 50 59 64 61 58 56 52 50 45 40 38 40 40
36 37 38 39 42 44 46 52 60 49 43 37 36 38 40 44 52
56 51 46 45 47 38 38 40 38 34 31 31 30 31 34 32 31
32 35 35 38 34 36 36 37 39 39 36 37 39 42 38 36 40
39 40 38 32 32 32 33 31 30 34 43 45 46 36 32 34 37
39 32 32 34 31 32 34 33 32 40 39 36 38 35 34 32 31
29 28 26 24 28 26 25 28 27 28 30 33 33 33 35 39 39
45 47 44 44 46 47 47 46 41 42 47 40 31 30 30 30 31
33 32 33 32 33 35 31 33 34 34 28 27 25 26 26 26 28
28 27 28 26 26 28 27 28 31 30 33 34 31 32 31 30 32
36 34 36 39 39 39 42 42 46 48 47 46 47 47 45 46 48
40 43 46 42 42 40 37 32 34 36 33 34 37 41 44 46 44
48 42 43 41 42 40 47 54 57 59 50 47 51 46 44 41 42
42 45 44 44 42 43 40 38 40 45 48 43 51 55 55 48 46
38 35 33 40 42 43 44 41 40 39 37 34 36 49 52 48 48
46 43 40 44 42 41 48 46 44 46 54 46 45 47 45 42 41
43 46 43 45 45 39 38 40 36 39 46 50 41 39 40 38 40
40 36 39 46 50 46 44 47 43 42 47 44 40 40 41 38 38
39 44 41 36 36 37 40 36 35 36 35 34 35 40 41 42 40
43 51 60 66 67 64 65 63 58 62 70 73 68 66 66 66 69
66 66 72 65 60 58 56 62 65 61 65 59 54 55 67 65 63
64 63 54 60 58 56 58 61 64 71 73 81 81 100 102 98 86
73 62 62 55 48 45 48 53 58 51 46 47 49 51 49 46 48
54 51 46 49 50 51 47 45 46 46 47 46 45 48 48 47 46
46 48 47 46 46 48 48 49 49 48 48 43 46 46 46 48 48
49 45 43 43 39 36 38 35 31 33 36 41 43 41 43 43 38
40 43 43 43 41 42 48 44 46 46 54 54 46 43 43 48 57
68 72 76 69 57 48 44 39 45 49 51 56 58 60 58 56 46
48 47 58 65 68 63 65 61 54 54 56 54 51 45 39 37 37
37 37 40 40 39 44 44 48 50 52 48 50 46 43 46 48 47
48 53 55 50 43 38 38 39 36 32 34 35 36 32 32 32 30
29 30 32 36 42 39 39 44 44 43 43 46 35 32 33 37 36
36 38 41 43 36 35 38 32 33 35 35 35 34 35 35 37 30
37 37 40 36 34 28 30 32 38 43 38 36 37 35 33 33 32
32 32 38 38 38 39 36 38 37 35 33 36 32 31 29 28 29
29 31 29 28 37 42 40 39 40 34 38 39 43 41 38 42 35
35 33 30 32 33 37 38 39 33 34 33 31 28 30 30 27 28
28 26 28 30 30 30 31 35 32 29 26 26 27 30 31 31 29
27 31 29 30 31 38 46 44 45 41 38 45 44 44 41 44 42
41 45 39 35 37 38 38 41 34 35 34 34 35 38 35 32 32
33 38 35 38 41 47 46 47 47 49 44 38 49 56 49 50 52
46 44 48 50 46 44 42 40 52 54 49 48 48 47 41 41 46
50 48 53 52 53 52 51 43 44 42 48 48 52 50 42 39 40
39 42 53 60 67 67 63 55 49 45 46 57 53 54 47 45 42
43 45 45 45 39 41 44 37 41 42 44 43 39 47 39 41 42
41 40 40 38 41 41 38 37 36 39 42 46 52 51 49 51 48
45 47 54 50 48 41 41 47 44 44 43 40 41 42 42 40 37
36 36 36 38 37 39 41 45 48 54 63 66 59 63 67 74 70
67 62 65 61 63 72 78 79 76 81 81 68 61 59 57 74 79
77 67 63 67 67 67 65 64 65 67 69 70 82 89 96 101 90
84 72 69 61 56 54 53 51 53 58 64 49 45 49 49 46 47
50 48 47 50 49 49 48 42 44 41 44 45 46 45 45 48 49
52 52 49 51 50 49 46 46 46 44 43 44 44 44 44 42 47
49 49 45 40 40 40 38 34 31 38 36 34 40 42 42 42 42
46 50 51 52 50 50 47 48 51 52 48 48 50 48 48 48 44
45 48 56 62 58 58 51 50 50 42 48 51 62 66 60 55 50
42 45 49 54 53 54 56 59 59 48 44 40 36 40 44 42 35
34 35 40 40 38 42 42 42 49 45 46 50 51 47 48 41 40
45 49 48 43 42 37 38 38 40 45 40 32 32 37 37 35 34
36 33 35 44 42 42 34 40 47 40 47 44 42 39 39 40 40
42 44 45 42 46 47 48 46 40 37 38 37 37 39 36 33 30
34 34 35 31 35 38 35 34 32 32 33 34 31 34 37 36 36
36 37 34 33 32 33 34 38 40 38 40 35 34 37 37 38 33
31 30 31 32 33 30 28 28 26 26 26 29 32 33 35 36 42
42 39 38 38 35 36 33 28 29 28 29 38 45 39 40 39 35
36 37 38 30 30 28 29 29 29 28 28 26 27 30 32 32 30
29 32 32 32 30 30 30 27 30 29 37 39 39 38 44 46 55
50 46 52 45 43 39 42 46 42 39 37 34 34 36 38 40 35
35 34 31 33 35 32 30 34 37 39 40 37 38 41 37 42 38
39 43 48 54 50 49 47 50 49 45 52 51 50 56 56 58 50
55 57 48 48 49 54 56 53 54 49 55 62 52 46 46 41 42
48 48 47 44 46 44 42 46 47 48 50 49 52 46 43 43 43
57 51 48 45 47 46 42 52 52 48 48 45 39 40 38 38 43
40 39 40 42 44 41 38 34 34 34 36 38 38 36 37 33 32
40 48 55 56 54 52 49 49 54 59 54 47 43 41 40 40 41
41 41 44 41 41 36 35 39 42 39 35 43 48 52 46 50 63
62 59 59 78 77 68 66 69 67 66 67 61 63 58 51 56 63
64 54 56 59 61 71 78 80 71 72 73 63 68 71 80 81 83
83 76 60 58 53 53 58 58 54 58 60 63 61 54 46 48 51
51 54 54 54 45 41 41 42 40 40 39 40 45 46 46 45 41
45 45 48 49 47 50 50 46 49 46 42 40 41 40 46 50 50
53 54 56 55 48 44 45 44 41 37 38 38 44 45 46 50 48
50 41 50 53 50 50 47 50 52 53 62 53 46 45 53 51 49
44 44 47 51 59 60 60 60 65 65 63 50 52 53 59 60 58
56 53 50 48 54 55 54 59 60 53 52 48 41 39 40 46 48
42 39 41 42 47 45 43 42 50 52 52 55 59 63 65 65 56
50 43 45 44 45 44 45 44 42 45 46 39 36 39 45 51 47
47 47 41 36 41 46 52 53 53 57 53 56 57 55 53 52 56
53 58 55 47 49 44 43 42 43 46 42 47 46 54 51 47 45
46 40 47 49 50 54 57 45 41 41 37 39 38 41 39 42 39
40 36 33 36 38 37 35 32 32 31 32 34 42 44 41 37 37
41 40 38 35 38 36 37 34 33 35 35 32 29 28 31 29 38
44 43 41 39 33 34 34 38 35 40 40 37 32 31 30 31 38
36 42 40 37 34 47 47 39 36 32 29 32 29 31 31 45 42
36 40 38 37 36 36 36 37 32 32 31 29 28 29 26 31 39
52 48 46 52 55 57 70 64 65 52 47 44 41 43 50 54 51
48 50 52 56 45 45 42 41 39 37 33 31 31 35 40 42 48
54 55 55 44 40 37 35 40 40 44 46 50 54 52 50 49 47
42 47 54 51 50 55 53 57 55 54 55 60 62 63 52 45 64
62 56 51 49 52 52 63 60 53 48 45 44 42 44 43 38 38
39 44 48 52 50 53 65 62 57 52 48 52 54 52 51 51 52
50 47 45 44 41 40 44 43 45 43 44 43 42 39 37 38 38
39 40 41 38 40 40 39 40 42 50 54 51 53 50 52 54 55
48 52 52 47 44 46 48 49 46 48 49 42 40 44 47 44 40
40 45 47 41 43 43 56 57 66 76 81 66 67 68 72 76 77
77 74 73 66 60 61 67 63 57 58 53 66 83 78 75 81 82
91 87 84 69 67 66 61 56 59 58 60 58 64 61 60 56 54
50 55 60 62 54 47 45 42 44 51 53 51 45 44 44 45 41
41 42 39 41 43 45 45 45 53 48 48 44 43 45 50 51 48
50 47 45 45 48 54 50 45 52 45 42 44 42 41 42 46 52
54 47 43 41 44 48 50 49 50 52 53 56 64 53 47 44 51
52 50 51 49 50 52 58 59 58 60 64 51 48 61 45 44 46
44 42 40 37 41 41 46 49 51 55 49 48 47 45 43 43 45
44 49 47 42 46 49 48 49 49 52 53 52 50 53 55 60 55
51 49 40 39 53 49 49 53 52 48 48 45 40 42 38 41 44
41 36 36 38 36 33 39 39 50 46 48 50 53 59 50 59 65
62 53 55 58 55 53 58 53 51 38 42 47 47 44 40 39 46
50 67 63 57 59 56 70 58 59 48 51 41 42 44 50 57 65
59 53 47 49 45 48 42 39 40 38 34 33 32 32 32 31 31
33 37 37 34 35 31 29 29 29 29 32 37 50 40 37 41 39
42 47 46 43 47 48 41 36 42 42 40 34 34 35 39 38 39
36 30 28 34 38 37 39 37 37 38 42 41 41 37 35 33 31
34 35 36 43 44 41 38 41 42 40 37 37 33 38 43 36 42
45 36 30 28 32 35 36 34 34 40 39 43 45 50 51 53 46
44 44 48 49 46 45 44 45 54 55 51 47 44 42 40 39 37
36 38 36 35 36 39 35 38 34 38 37 37 34 39 42 48 45
44 47 46 45 41 40 43 60 57 51 50 47 43 40 49 59 65
73 75 59 58 57 60 56 56 62 60 57 60 56 52 49 47 47
46 48 46 46 45 43 46 48 52 53 61 72 78 72 63 54 53
51 50 62 71 64 60 53 58 58 61 45 41 42 44 47 50 46
44 43 39 38 32 40 39 39 46 44 42 45 44 42 43 45 50
46 44 39 41 45 42 51 53 54 49 49 51 52 53 53 51 50
48 48 48 48 48 50 52 50 47 43 40 41 48 57 79 91 63
60 65 67 67 75 83 89 92 90 83 78 71 69 66 61 58 60
70 68 73 70 61 61 61 56 60 58 52 54 52 51 48 49 47
47 46 47 46 55 51 44 38 44 46 46 48 48 48 44 43 43
46 45 43 47 44 42 42 42 40 38 40 42 44 44 44 44 45
43 39 39 38 38 38 38 38 36 35 35 35 35 38 39 41 39
43 44 49 45 40 41 42 48 44 44 50 53 56 50 46 46 42
44 49 50 52 52 45 45 45 50 61 60 53 46 39 40 40 37
36 39 39 43 42 41 40 43 39 40 41 40 39 39 37 41 44
40 38 39 44 48 47 46 42 44 45 42 48 48 52 52 44 46
39 37 34 34 36 38 37 38 40 39 41 36 34 32 30 31 32
33 37 36 36 36 35 36 39 39 39 43 46 49 54 61 60 57
59 68 69 60 50 50 46 29 35 34 30 35 39 41 44 44 38
40 43 43 41 36 37 37 39 41 46 37 34 34 32 30 29 28
25 30 26 29 39 40 43 40 39 37 39 42 39 36 36 36 35
31 29 27 26 26 28 32 29 32 36 35 37 37 34 32 32 30
34 32 38 37 35 36 38 34 30 33 38 34 29 30 32 32 33
34 36 36 47 37 31 29 29 32 33 32 33 34 37 40 42 50
43 37 38 40 35 30 27 26 25 30 32 31 33 32 31 36 34
36 41 37 33 32 31 28 29 31 28 28 33 35 37 36 38 40
38 44 46 48 42 48 50 51 57 51 45 44 42 45 46 45 46
42 41 41 37 36 35 38 39 38 40 38 32 31 32 36 38 33
31 28 28 29 32 30 31 35 34 33 33 34 32 37 40 41 38
40 40 38 42 45 48 56 68 70 69 62 60 53 45 43 48 58
56 53 52 49 48 45 48 46 46 43 38 38 46 50 49 54 58
61 65 61 60 56 51 45 48 56 62 59 56 60 58 56 56 55
50 49 51 48 39 41 40 41 40 37 33 34 35 31 29 26 32
33 32 38 39 39 41 42 46 40 41 45 43 41 40 46 47 50
50 48 50 52 51 48 50 49 42 50 54 51 55 55 51 49 45
40 46 65 92 87 73 68 62 53 58 64 73 80 81 83 83 80
70 76 72 59 56 58 74 72 70 64 60 52 52 52 47 50 54
47 45 44 46 46 48 50 47 45 46 48 46 46 45 44 50 53
55 55 52 53 54 48 43 43 40 38 45 47 48 48 45 43 42
43 42 39 39 43 43 40 36 41 37 40 40 42 38 40 42 41
41 39 38 39 42 42 40 43 43 54 50 47 50 49 46 46 50
51 42 46 54 55 60 60 52 51 50 46 46 45 41 40 43 44
47 46 43 44 45 45 47 47 39 41 42 46 50 49 48 47 44
43 44 41 37 35 40 42 42 38 34 37 36 38 41 42 40 40
41 43 46 40 37 34 37 42 44 40 40 37 38 37 35 33 29
29 31 35 33 31 27 28 28 29 30 32 36 44 51 50 55 56
56 54 51 59 60 44 37 34 36 30 31 32 35 36 32 34 38
37 42 45 44 47 50 47 45 52 51 41 37 29 31 33 34 32
27 26 25 25 27 30 32 26 24 25 28 32 33 37 36 35 34
38 41 36 36 34 34 31 28 28 26 27 28 29 32 32 34 34
31 31 27 27 31 32 30 31 35 32 35 36 36 35 31 32 33
35 36 36 43 41 42 42 36 37 38 34 30 28 26 28 30 33
30 29 31 46 46 44 40 37 34 36 33 30 29 28 31 32 34
32 30 30 28 32 35 36 37 33 32 32 31 30 30 28 29 31
29 34 32 31 30 35 43 44 42 43 44 40 38 48 49 43 38
37 44 41 41 42 41 35 40 43 41 43 42 39 38 39 40 42
36 32 32 42 40 33 30 29 30 30 29 30 33 31 35 36 31
32 33 37 37 33 32 31 32 36 40 48 55 58 58 51 49 51
49 42 41 50 53 49 45 44 41 42 41 42 47 48 46 42 42
42 43 41 51 48 44 44 46 53 60 54 46 45 45 51 49 47
44 46 51 56 50 44 47 49 54 58 49 43 41 42 35 33 31
29 31 29 29 28 28 28 30 32 34 34 32 29 29 29 30 30
28 31 34 34 33 36 37 41 49 51 50 48 40 47 50 45 43
38 37 40 40 36 40 44 50 55 60 78 74 75 72 61 52 58
65 66 94 90 90 94 84 72 80 74 68 66 58 51 48 48 44
45 50 45 40 40 45 46 46 46 43 42 44 45 43 46 48 48
51 60 50 47 42 45 45 42 40 41 40 42 44 46 45 42 41
41 43 46 41 42 43 39 38 41 40 37 38 42 40 39 45 42
40 42 40 44 41 41 43 52 51 42 40 41 44 48 45 45 46
48 57 55 51 46 54 57 57 56 51 52 44 45 50 45 38 41
40 42 42 43 38 41 45 50 44 41 43 42 48 43 36 34 44
38 35 39 39 37 38 42 45 43 42 38 36 38 36 40 39 40
40 33 35 35 38 37 36 36 40 45 48 43 40 39 41 43 34
33 31 31 29 31 27 25 24 26 25 25 28 29 31 32 34 37
38 38 40 42 38 40 42 32 32 32 35 41 43 42 42 46 38
35 36 38 39 40 40 43 45 55 56 48 49 49 41 41 36 30
32 29 26 26 25 27 28 31 30 28 29 30 28 27 27 30 29
29 29 39 40 36 34 35 35 40 41 37 32 28 34 29 30 25
28 26 26 24 24 25 29 29 24 23 22 26 23 24 25 28 30
31 30 34 39 33 28 30 27 32 34 36 38 35 35 34 34 36
31 33 35 38 33 31 29 35 38 46 41 39 37 40 36 37 35
33 26 28 29 27 28 28 30 30 32 34 33 35 36 32 33 29
31 32 28 29 29 30 29 29 30 30 31 31 31 32 28 32 34
34 42 51 57 51 49 50 47 45 44 42 41 38 35 32 29 33
34 34 37 40 43 40 36 33 41 46 44 38 33 34 33 32 31
31 33 36 35 36 37 37 37 36 37 36 34 33 29 32 36 41
46 50 50 52 49 55 50 50 45 51 54 49 50 51 47 46 42
44 45 43 44 44 40 42 44 42 42 44 41 43 45 49 50 49
48 47 44 47 47 44 44 44 45 45 46 48 48 46 50 52 52
51 49 46 43 43 35 34 34 34 32 29 30 29 29 37 34 33
34 33 32 31 29 28 26 28 31 32 32 36 34 32 38 39 40
43 45 52 53 48 42 41 40 39 39 38 37 42 49 54 58 67
74 78 71 61 60 60 62 66 76 84 89 90 85 79 63 52 46
48 50 50 54 51 43 42 44 48 47 45 47 50 52 47 50 51
54 54 52 49 50 49 50 49 44 48 50 50 51 52 46 46 49
47 44 47 47 44 45 43 42 40 40 46 43 43 43 46 49 55
55 53 39 43 46 49 48 42 49 60 56 51 44 44 43 47 49
44 45 46 50 53 44 39 36 40 40 37 35 32 35 38 38 38
36 34 33 30 31 36 38 37 39 38 35 33 32 34 37 46 37
37 44 38 33 33 34 35 37 37 40 40 37 34 37 40 42 42
47 41 46 46 44 44 46 46 46 38 36 37 41 41 41 38 38
34 35 32 26 27 27 27 26 25 26 26 24 27 30 28 28 31
39 36 38 33 34 31 36 36 37 36 36 39 35 31 33 31 30
30 36 39 38 40 48 42 44 44 48 44 39 45 50 54 46 39
44 40 36 37 34 34 32 35 34 32 29 30 28 23 27 28 27
30 31 29 31 30 31 29 28 31 28 28 32 35 38 32 30 32
28 28 25 23 22 26 26 25 24 24 23 27 24 25 23 24 23
22 21 22 20 24 25 30 32 33 32 32 32 33 34 32 35 39
38 35 35 34 31 29 27 30 26 29 30 29 29 30 28 32 35
35 33 38 32 33 34 32 32 30 32 33 30 31 35 46 43 42
40 35 32 32 34 40 38 36 38 34 35 38 38 36 33 34 35
38 38 30 34 33 31 31 33 33 34 40 35 36 35 38 34 31
33 30 29 28 26 26 29 33 34 37 36 35 35 30 32 33 38
40 35 34 34 32 30 29 30 32 32 33 36 40 38 37 38 43
34 32 38 36 38 36 35 36 42 41 34 40 47 53 48 44 46
47 47 46 50 52 52 47 46 44 42 38 46 52 55 58 57 51
51 52 51 54 55 53 53 52 51 49 49 42 44 52 51 52 51
46 48 47 46 46 52 51 48 42 42 42 39 38 38 36 33 37
34 31 30 31 32 35 35 33 34 34 34 31 27 25 31 34 31
31 34 34 34 32 35 37 40 43 47 46 47 48 44 43 46 45
42 42 40 41 44 46 46 53 60 65 59 61 62 63 71 86 85
91 52 49 54 54 48 40 38 40 42 42 44 47 47 46 46 46
47 45 44 49 54 52 52 51 52 48 53 55 53 52 53 52 55
54 57 56 51 51 57 47 44 49 49 47 42 42 40 48 47 44
49 50 47 41 40 47 48 50 52 49 51 65 61 54 44 40 34
38 42 42 40 41 44 43 39 39 39 37 34 32 32 35 38 37
42 38 39 37 38 38 42 45 48 45 42 40 35 34 36 39 45
45 41 38 35 34 34 36 39 36 40 35 35 32 32 32 33 33
33 35 37 44 46 46 48 46 45 48 48 48 44 45 41 42 44
33 32 32 30 30 28 24 25 27 30 31 29 29 29 30 31 29
31 32 32 32 30 34 33 32 33 33 32 29 31 32 38 34 33
43 38 39 40 39 48 46 45 45 41 35 39 40 40 42 44 38
36 34 36 35 29 32 30 30 36 44 40 39 34 34 33 31 33
30 30 28 27 30 28 28 29 28 26 28 30 30 35 33 37 35
32 31 33 33 28 29 28 27 25 27 26 25 25 27 27 27 25
30 29 28 28 28 27 25 27 24 25 24 25 29 36 31 31 36
32 34 32 29 31 30 31 31 30 36 36 36 33 32 26 27 28
27 29 30 33 30 29 32 30 33 36 33 32 34 35 35 32 30
27 31 33 40 41 40 41 40 36 33 34 37 34 30 32 35 39
40 39 33 35 33 34 40 38 35 36 38 32 32 31 32 29 31
32 31 37 37 34 32 28 26 28 28 28 33 40 42 36 40 43
40 37 34 32 32 38 36 36 33 31 29 30 32 31 31 31 32
36 37 40 39 36 32 34 37 38 38 41 36 36 37 47 42 39
37 43 49 49 45 51 50 54 51 60 60 56 55 52 52 52 51
51 52 53 53 54 59 59 51 50 50 44 45 48 58 62 63 54
47 53 51 48 56 59 59 52 53 47 55 60 56 52 52 46 41
39 41 40 35 37 37 34 36 34 32 31 35 37 39 40 35 34
33 31 29 30 31 31 33 32 33 31 32 35 37 38 39 40 42
39 40 42 43 47 50 49 46 48 48 53 54 47 49 59 58 57
52 53 55 64 77 53 48 48 44 38 35 36 40 42 44 45 48
49 48 42 40 41 41 38 36 39 39 39 34 32 33 37 44 38
34 39 38 48 53 54 46 43 41 42 45 46 43 43 46 49 51
49 46 41 46 43 48 50 50 50 50 52 61 61 59 53 50 49
42 38 41 42 44 44 38 42 41 44 43 44 43 40 38 37 41
44 38 36 36 41 39 39 42 40 45 44 49 52 47 44 42 46
46 45 46 48 41 38 33 33 34 34 31 30 30 31 36 36 36
37 35 33 32 32 39 39 39 34 34 34 35 37 31 34 34 41
41 44 38 34 32 30 33 29 28 27 28 27 26 31 32 29 30
32 37 38 40 35 35 37 39 41 32 29 28 28 28 30 34 30
26 26 30 31 34 35 39 40 38 47 46 51 49 44 51 49 39
39 44 47 41 35 32 29 31 35 38 39 37 39 38 36 40 40
35 33 33 35 30 27 28 29 27 28 26 28 32 33 35 39 37
35 32 34 31 36 38 37 42 37 35 31 30 27 27 24 27 26
28 26 27 25 25 25 25 27 26 27 26 23 23 24 24 24 23
24 29 32 33 29 27 31 31 29 28 34 34 43 39 35 39 37
30 27 26 29 28 28 27 28 28 34 33 32 33 32 28 30 29
33 35 30 33 34 28 26 28 27 33 30 35 36 34 36 34 38
34 31 31 34 30 30 30 35 35 35 32 32 30 40 41 35 33
32 33 34 35 32 33 30 32 36 34 38 37 34 31 26 29 29
33 34 29 31 39 39 46 41 32 34 34 36 39 41 38 43 38
39 39 40 34 38 37 33 32 42 36 32 35 40 39 39 39 35
33 33 35 42 42 41 43 44 46 53 50 57 57 47 55 58 56
57 52 47 44 43 45 41 40 40 41 41 43 39 40 43 40 38
37 42 47 48 58 58 53 55 57 51 56 47 45 44 43 44 50
51 58 62 53 47 43 37 35 35 36 42 37 35 35 38 39 35
38 39 40 42 43 41 38 39 36 33 32 33 33 32 33 33 35
34 36 38 39 35 32 33 33 36 38 45 46 43 47 50 48 47
47 46 47 50 53 59 60 58 58 44 42 37 37 39 42 44 37
54 54 50 43 41 41 42 42 41 43 46 40 41 37 39 35 40
41 41 39 37 42 42 44 42 40 41 44 42 42 45 47 44 42
41 43 44 45 44 47 47 46 50 52 50 52 58 62 55 51 48
48 41 35 34 35 40 40 41 43 45 46 44 44 41 43 42 37
38 45 44 42 40 41 47 52 45 40 40 42 52 49 46 41 41
44 39 40 42 42 47 48 40 34 31 35 34 34 38 37 38 41
41 40 41 45 37 36 39 42 42 37 30 30 30 33 36 32 31
32 34 37 38 36 36 32 33 31 30 29 28 27 28 30 27 28
27 25 29 31 36 36 34 32 33 36 34 29 28 29 31 31 29
29 30 31 30 34 34 36 34 36 38 35 31 36 37 37 35 35
38 43 39 38 39 33 30 35 33 30 33 37 38 37 33 38 36
32 30 33 34 30 31 32 31 31 36 32 35 32 33 37 37 37
31 32 28 29 27 28 28 31 32 34 31 33 32 32 38 32 30
29 29 30 30 28 27 23 22 22 23 25 26 25 22 21 22 23
22 22 22 21 19 20 21 25 26 27 30 30 29 28 33 35 35
36 33 28 30 31 31 31 29 28 26 28 28 34 33 32 32 31
34 32 31 35 30 29 28 29 31 30 27 25 28 27 26 27 28
27 28 33 34 33 32 31 30 34 32 32 34 29 32 34 30 26
26 33 32 34 39 37 37 34 33 34 35 34 33 35 40 39 37
38 33 29 26 27 33 33 32 33 41 46 46 40 40 35 38 40
38 42 39 35 36 29 26 27 25 27 32 33 30 30 35 35 34
35 34 38 39 38 36 33 32 36 37 36 39 41 35 32 29 30
37 42 42 43 45 46 43 49 48 42 48 48 43 44 45 44 48
49 45 43 40 36 36 38 36 34 36 41 37 41 49 51 57 63
55 52 59 51 47 48 46 50 64 59 62 53 44 45 41 38 39
38 38 37 31 35 34 34 36 39 42 41 37 37 40 36 40 35
35 35 32 37 35 38 37 41 43 39 35 36 34 36 40 39 42
39 36 39 41 40 39 42 42 40 39 40 42 47 42 44 45 46
47 55 58 58 53 49 44 44 45 48 50 51 47 45 42 46 43
42 43 41 42 42 44 43 44 46 45 50 49 47 43 42 40 46
43 46 46 48 44 48 50 47 46 43 44 44 45 44 48 48 48
49 53 52 41 37 40 38 39 38 44 50 50 49 44 48 54 48
44 39 36 36 36 38 41 47 50 53 50 47 43 46 51 51 48
47 45 43 40 39 38 40 41 42 41 33 34 38 41 42 45 46
47 48 52 49 43 44 37 34 34 43 37 37 30 31 34 39 41
40 38 38 38 34 36 38 38 32 27 26 28 29 29 31 28 27
30 27 28 30 30 28 27 27 28 30 34 34 33 31 32 34 31
31 33 34 42 36 36 34 34 37 40 37 38 38 39 39 44 39
38 34 31 29 30 31 31 34 37 44 38 35 31 32 30 33 33
35 36 33 32 32 30 27 26 25 29 28 28 28 28 26 29 31
29 32 33 34 30 29 30 31 33 30 30 29 32 24 30 36 35
33 38 36 35 34 32 34 29 27 27 26 25 23 24 25 24 19
20 22 20 21 21 22 22 20 19 18 19 20 23 20 24 28 31
29 28 28 30 35 35 32 31 32 33 33 33 28 28 27 28 28
27 30 27 29 24 34 39 47 36 36 39 30 30 30 33 32 30
29 28 28 27 29 29 28 28 30 37 42 42 32 33 31 31 32
30 33 32 31 29 26 28 28 27 30 31 36 37 36 32 30 29
29 28 30 29 26 29 29 30 30 33 38 38 33 32 30 34 37
37 38 47 36 34 30 29 28 30 34 38 40 40 36 38 35 36
33 33 33 32 38 36 36 33 36 40 34 34 32 33 32 32 39
38 42 39 36 35 33 34 37 39 46 47 47 53 56 62 55 63
59 52 54 56 61 56 55 56 56 47 42 44 44 42 42 35 40
41 41 51 73 68 66 57 55 59 53 55 48 48 58 57 52 55
57 50 51 51 50 42 46 52 46 44 42 37 33 35 38 41 41
42 41 36 40 41 42 38 35 33 31 33 36 39 46 49 42 39
35 36 36 43 50 48 44 37 40 42 39 41 48 45 41 39 38
38 40 48 56 50 51 47 48 44 45 48 47 47 48 46 46 44
48 45 44 45 47 48 57 61 59 53 49 46 48 52 46 47 41
45 45 42 41 40 36 37 40 44 48 44 45 46 41 42 41 41
42 44 43 44 46 44 42 44 47 47 45 47 50 47 49 49 44
45 47 46 37 33 35 38 40 38 42 44 47 44 49 45 43 47
44 49 45 41 37 35 35 32 30 31 32 32 28 27 28 32 33
36 32 30 36 34 36 35 37 38 35 33 36 35 32 30 34 36
40 38 38 40 35 38 41 44 45 49 35 25 23 26 28 30 28
30 25 26 30 31 29 28 31 30 30 31 30 32 32 33 30 27
28 25 30 27 30 28 31 34 34 39 42 42 39 37 40 37 33
35 34 35 34 35 31 33 35 37 37 35 31 29 31 31 30 27
28 31 34 33 33 36 35 36 36 31 31 31 31 37 31 28 28
28 29 29 31 28 27 25 26 28 31 30 38 38 38 32 29 24
23 22 30 29 29 31 36 41 42 40 30 32 32 28 26 31 26
23 18 16 16 17 18 19 19 20 22 24 21 20 21 18 19 18
18 18 25 25 25 26 28 33 30 32 31 30 31 31 33 32 32
28 26 26 26 24 28 26 25 26 27 28 26 29 28 28 30 32
30 28 28 26 25 30 31 32 32 28 25 25 26 25 24 24 25
25 25 25 24 26 26 27 28 27 28 29 31 26 25 27 30 32
34 37 36 32 30 32 31 31 29 29 29 29 29 27 30 33 31
30 32 31 32 35 36 34 34 35 34 32 32 30 33 39 38 39
37 39 35 34 33 32 30 31 32 33 30 30 31 36 28 29 30
28 29 28 29 33 38 38 36 36 35 37 36 35 38 42 45 53
52 56 66 67 60 57 53 53 54 60 62 59 58 57 58 51 50
49 50 46 44 44 43 43 46 58 71 71 65 61 58 68 62 55
56 56 60 56 54 55 60 64 55 49 47 49 47 43 42 42 40
39 41 43 43 46 44 47 47 46 44 49 48 44 41 39 35 35
39 44 49 42 40 37 36 37 37 40 49 51 50 46 49 51 46
45 51 43 39 48 45 48 48 49 47 45 46 46 47 47 46 45
43 48 44 54 55 49 48 53 64 70 61 53 49 49 54 50 47
47 42 44 44 42 44 43 43 44 46 50 52 47 38 41 42 40
39 40 43 49 49 47 50 41 34 35 37 40 40 41 44 45 48
48 46 48 50 40 34 30 33 36 37 40 41 40 40 40 39 39
42 47 51 52 44 39 36 36 33 30 31 37 40 31 30 29 28
29 31 30 36 36 38 38 39 41 39 36 36 34 36 37 35 34
32 35 36 35 41 42 42 35 36 40 41 43 35 26 23 26 29
29 28 25 26 24 28 28 27 28 29 34 32 30 31 28 28 25
26 26 28 29 28 27 27 26 26 27 27 28 32 37 34 44 46
42 43 37 36 32 36 36 38 35 35 34 34 32 29 30 28 28
29 27 26 28 30 31 34 35 30 30 31 30 31 30 31 33 29
28 26 26 27 30 33 37 35 29 28 28 30 34 35 31 29 26
25 26 26 27 26 23 24 26 26 28 33 35 36 31 29 28 30
27 25 22 20 18 19 19 19 18 17 19 21 21 23 25 24 22
20 22 22 24 23 24 25 25 24 22 21 20 23 24 23 26 27
29 29 29 31 30 28 28 29 25 24 22 24 23 26 25 28 30
36 30 33 28 26 32 29 29 22 23 20 21 19 18 21 24 24
22 23 26 24 23 24 21 21 22 29 26 27 27 26 28 32 35
29 28 28 28 32 30 30 29 29 32 33 32 29 28 28 30 32
31 31 36 38 38 38 39 36 34 34 36 28 34 36 34 38 40
31 29 24 26 27 27 25 25 28 32 32 34 33 33 33 31 29
31 36 32 26 31 31 29 29 28 32 33 38 40 39 43 42 40
39 40 32 38 32 39 44 49 49 52 54 54 49 54 62 74 66
61 58 55 55 50 51 49 48 39 34 34 33 35 43 63 66 58
54 57 52 51 51 51 54 60 58 60 54 51 52 51 48 46 44
42 48 46 42 38 38 42 52 46 42 39 38 37 37 41 42 42
46 53 46 42 35 36 41 49 46 43 40 41 39 39 42 38 38
41 44 43 36 43 46 50 55 44 44 45 47 48 50 46 44 43
42 44 46 49 54 54 51 56 55 58 56 58 55 50 53 55 53
47 49 50 49 49 48 42 35 38 40 43 43 45 44 40 41 43
49 47 43 50 51 55 48 42 47 42 35 34 34 38 36 36 37
41 42 44 43 40 37 37 30 31 33 30 32 38 41 44 44 40
42 44 45 48 47 42 35 34 34 33 32 31 35 35 34 30 28
29 31 34 44 43 42 45 45 44 49 46 47 48 42 42 42 35
33 36 36 38 40 45 47 46 47 43 39 40 43 43 37 32 26
26 28 26 27 30 28 28 31 30 28 29 30 33 32 33 34 32
32 29 30 31 30 31 28 29 26 26 29 29 30 31 30 31 31
32 30 29 35 35 37 38 36 40 44 43 39 32 34 32 33 31
31 32 30 31 30 29 29 34 32 33 35 34 34 39 31 26 27
29 29 30 34 33 35 36 39 40 34 30 30 28 29 30 32 32
32 26 29 29 30 30 29 28 29 28 27 27 24 24 23 26 26
28 29 27 25 22 22 21 21 21 22 22 20 21 19 22 23 22
23 26 23 24 24 25 28 26 29 26 23 21 20 23 26 22 22
22 23 25 25 24 26 27 29 27 26 27 30 29 29 28 25 24
24 22 24 23 22 21 24 22 23 21 23 27 24 25 28 25 23
21 19 21 23 26 23 26 24 26 28 28 26 24 24 25 23 24
23 24 25 26 30 29 27 28 29 31 34 38 39 33 36 37 34
33 33 30 32 35 28 29 33 35 33 37 42 41 43 38 42 41
36 35 35 43 42 34 32 31 28 27 28 26 24 24 28 32 30
32 39 37 36 30 30 36 33 29 30 32 32 30 32 31 34 38
39 37 32 37 36 32 34 33 34 33 31 36 29 44 59 52 53
55 52 53 58 65 65 68 63 59 56 59 63 60 53 51 50 41
37 43 49 55 56 57 57 62 55 47 46 40 43 44 45 46 50
44 45 45 43 43 41 47 42 38 39 36 33 33 39 45 41 35
34 33 32 33 32 33 33 36 36 38 35 38 41 45 44 45 49
46 39 45 46 46 43 43 44 42 42 40 39 51 51 49 50 44
42 42 45 46 45 46 46 48 55 57 63 68 58 61 64 54 53
54 56 50 47 50 53 50 44 40 39 42 44 43 41 40 38 41
39 44 47 50 44 45 49 46 39 42 36 32 32 30 32 35 36
36 39 40 42 38 38 38 35 36 34 33 33 33 34 36 40 44
48 45 37 37 38 38 36 30 28 28 28 28 27 28 29 28 29
28 30 33 37 36 39 43 46 45 46 44 45 39 40 39 37 39
38 40 33 30 34 33 36 37 42 46 48 51 43 40 45 42 38
29 28 25 25 32 30 31 30 25 27 30 36 36 32 29 30 31
34 33 32 31 31 28 32 30 31 27 26 26 26 30 33 34 35
37 36 34 29 29 34 33 30 32 35 35 34 39 37 28 27 30
34 36 33 30 28 29 30 28 28 26 28 29 30 29 30 35 30
28 28 29 29 29 33 31 32 35 36 33 33 27 30 30 27 28
27 31 33 28 30 31 34 37 40 37 31 30 30 30 29 27 26
26 25 25 27 25 25 23 28 28 24 24 22 23 23 25 26 26
26 26 25 23 22 24 22 24 24 25 24 22 21 22 22 22 22
23 23 24 25 25 23 23 23 22 22 22 22 22 26 25 28 25
22 24 26 23 22 22 19 18 18 18 18 17 18 18 19 22 20
22 24 25 25 28 26 24 27 26 26 26 26 29 30 36 33 31
28 28 28 30 29 30 28 27 28 30 26 27 29 29 32 36 38
41 36 36 34 32 33 31 34 34 30 28 27 29 29 31 30 27
29 32 29 31 30 39 38 39 36 39 33 33 32 28 24 28 25
27 28 26 28 34 38 35 34 38 32 31 29 27 30 30 30 28
27 28 30 30 27 27 29 28 30 26 27 24 23 29 32 32 34
35 33 38 43 46 44 42 42 45 44 44 48 51 52 57 53 53
53 52 47 47 48 42 47 52 58 52 56 61 67 65 66 55 50
42 44 47 41 46 45 38 42 44 40 39 40 43 40 35 36 34
34 33 39 40 41 34 33 32 34 33 32 36 35 33 36 36 37
40 38 40 40 46 48 47 43 46 49 52 54 52 51 47 41 51
46 46 47 40 42 43 45 48 53 60 60 52 50 52 47 45 42
41 43 46 44 42 41 40 41 40 42 42 42 42 44 45 42 43
45 42 47 46 48 49 49 42 40 37 38 34 35 33 32 32 35
35 36 36 40 39 40 38 37 35 35 37 36 35 38 42 39 48
48 49 53 47 36 34 40 41 37 33 29 26 25 27 29 30 27
33 30 31 30 33 38 39 43 45 46 40 38 37 38 32 30 30
33 33 33 34 33 33 32 37 41 42 44 43 42 39 35 36 36
39 33 29 31 32 31 31 31 30 26 28 25 30 28 31 30 32
29 30 29 33 27 30 31 33 31 32 28 26 25 27 26 29 33
32 34 34 32 31 33 38 39 39 35 32 34 32 31 32 35 34
30 29 27 30 37 33 30 29 29 28 28 29 31 32 29 30 31
28 26 29 30 32 33 36 33 30 29 28 29 28 28 27 30 31
34 30 27 28 27 26 26 28 26 22 24 24 27 29 30 29 29
29 28 27 25 25 26 23 25 24 26 26 26 30 29 29 28 28
27 25 25 24 24 23 22 23 23 25 26 26 28 28 26 25 24
23 19 23 22 24 24 24 24 24 24 22 20 20 19 20 19 21
18 18 25 28 34 27 23 24 23 20 20 21 19 18 19 20 20
18 18 19 18 20 24 24 26 23 23 25 24 25 26 24 24 22
22 25 25 28 24 25 23 27 28 30 31 28 30 29 29 28 26
22 20 22 23 27 29 25 32 32 29 31 27 29 26 28 30 32
31 30 30 26 25 28 29 29 29 26 23 24 23 25 26 31 32
32 30 29 26 24 27 28 27 30 30 38 34 33 35 35 32 31
28 28 28 29 29 30 27 26 27 27 24 25 25 26 25 28 27
28 31 32 33 32 35 34 33 36 45 50 45 43 47 46 41 40
41 41 41 52 53 53 53 49 43 42 45 57 64 69 66 62 63
60 58 53 56 58 50 47 52 50 46 46 46 45 46 44 43 44
47 51 42 40 38 40 38 40 45 49 42 39 36 34 30 32 34
34 33 35 39 43 42 41 38 35 35 35 39 36 35 37 42 47
59 59 58 55 51 55 52 55 61 57 56 59 60 55 54 49 47
46 44 43 41 40 38 34 33 40 41 39 39 40 46 51 47 44
42 42 46 54 51 51 49 49 46 48 46 40 36 38 38 38 36
38 38 38 42 42 44 42 45 39 38 41 39 39 39 38 39 39
43 54 53 47 47 44 42 42 45 43 42 43 36 36 32 34 35
37 42 38 36 35 34 36 38 38 42 45 45 33 35 37 38 38
35 31 31 36 34 34 36 38 36 41 46 45 43 41 37 36 40
38 40 36 29 32 33 31 28 28 31 34 37 33 31 32 31 32
32 30 30 28 29 32 31 30 32 31 31 30 27 28 30 27 29
33 31 36 39 37 40 40 39 40 33 30 31 31 32 36 36 37
32 33 30 29 31 30 27 26 28 28 28 33 31 30 31 29 30
31 30 31 29 26 28 32 33 33 34 31 34 29 28 29 32 31
31 36 36 40 33 29 30 30 31 28 30 28 26 27 25 25 28
26 30 34 32 28 29 28 26 28 25 24 29 27 26 32 29 28
35 37 33 37 35 30 34 28 29 30 23 26 30 27 24 24 26
30 29 26 26 25 25 26 25 26 24 24 23 24 24 25 25 24
23 21 20 21 21 21 22 23 23 24 24 26 27 24 23 24 25
24 23 23 20 23 21 21 20 19 23 24 22 24 25 23 23 21
21 24 24 25 23 20 20 22 24 22 21 20 22 23 25 28 26
26 25 24 26 25 25 26 23 22 26 26 26 26 25 25 25 27
31 32 27 29 33 34 34 40 35 33 30 28 31 29 27 26 26
26 26 26 26 38 36 34 32 32 29 30 31 31 26 27 29 30
31 36 36 30 32 37 33 33 30 30 30 30 27 28 28 29 29
29 30 29 29 29 29 30 30 33 36 33 33 33 30 31 34 43
44 45 46 45 43 43 43 43 44 50 53 48 44 42 43 40 40
50 60 63 63 57 59 67 66 71 66 57 53 51 56 59 57 56
56 52 50 48 48 55 61 53 49 53 46 43 40 40 49 51 41
42 42 39 35 29 28 30 33 32 36 38 45 44 41 40 37 39
42 38 33 41 41 37 39 47 49 53 57 63 59 63 59 52 46
44 43 43 42 41 41 39 37 34 35 38 40 40 40 41 44 47
45 40 45 46 44 48 46 46 45 42 48 56 49 45 39 40 38
38 37 34 39 43 49 46 43 42 43 41 38 40 40 44 43 44
40 43 46 47 43 47 56 52 49 43 43 43 41 40 34 33 36
37 36 43 44 38 37 37 34 34 34 39 38 41 37 36 36 36
38 40 40 38 36 36 36 35 34 34 36 40 37 38 38 41 42
39 45 45 40 36 29 29 30 28 27 31 33 31 31 31 30 31
29 30 29 31 28 31 30 33 32 28 27 26 29 29 27 26 30
32 38 40 41 39 37 39 38 43 42 39 39 38 37 36 36 38
41 40 39 31 29 29 26 31 30 26 25 24 26 26 30 26 26
28 26 28 30 36 34 27 26 28 29 30 29 29 31 29 32 30
31 31 33 36 35 37 35 38 37 34 30 29 30 34 34 33 30
31 33 31 34 35 38 37 32 34 33 29 33 31 29 24 28 26
25 23 32 36 35 34 31 29 25 25 29 31 29 27 28 27 26
25 27 27 25 28 28 28 28 28 21 23 26 24 23 22 21 21
22 22 18 20 21 20 22 23 23 23 22 22 24 24 22 23 22
21 22 22 23 20 24 26 31 27 24 28 24 22 22 23 23 24
24 25 24 24 23 24 23 22 24 23 24 24 26 26 24 23 23
22 22 23 28 30 29 28 27 25 25 24 26 25 23 23 25 27
28 25 24 24 24 30 33 32 30 32 30 35 34 36 37 35 37
43 36 29 29 28 26 28 27 28 29 31 34 31 29 26 28 31
35 36 38 38 32 30 33 38 37 40 37 37 36 33 32 34 34
34 32 31 36 36 33 29 27 30 30 28 29 29 34 37 37 42
37 35 33 36 37 42 48 47 47 45 49 53 47 46 54 58 54
50 47 45 43 41 44 69 68 61 62 58 60 57 63 76 74 67
60 64 66 66 60 59 62 61 55 50 47 55 52 51 51 50 52
48 45 42 41 43 45 46 45 44 40 36 36 32 33 34 33 35
38 40 40 38 39 40 46 44 43 38 43 60 59 59 52 47 48
42 35 36 38 38 39 40 40 37 35 34 32 35 40 42 45 43
44 42 38 42 40 39 40 42 42 45 48 46 48 46 47 43 42
40 38 37 38 39 40 38 38 36 35 39 40 37 37 38 36 40
43 41 42 45 42 47 45 47 44 39 38 39 38 39 37 41 39
35 30 29 32 32 30 29 31 37 35 32 32 34 38 41 42 39
38 40 42 46 45 44 38 40 43 42 45 40 37 37 38 41 42
40 44 48 47 49 42 38 37 30 29 28 25 28 29 29 28 26
28 30 30 33 32 29 28 28 28 30 28 26 30 30 27 28 27
28 29 34 42 42 47 46 38 34 30 36 36 36 36 31 34 40
41 42 40 40 39 36 30 24 27 28 30 29 27 26 29 29 32
32 31 30 30 31 31 34 32 30 30 29 26 25 24 22 22 23
24 31 36 38 39 34 38 40 40 34 31 29 28 31 32 33 32
30 28 26 27 28 32 32 32 34 32 30 28 25 25 29 31 27
27 28 26 27 26 25 28 27 30 34 34 32 31 30 31 32 31
30 27 29 27 28 27 26 24 24 25 27 25 23 21 22 21 22
23 26 25 25 27 24 21 21 20 20 23 21 24 24 24 27 27
24 27 26 26 22 21 22 25 26 23 24 24 23 22 24 25 26
27 24 23 22 22 19 20 19 25 26 25 26 26 26 25 26 24
25 28 26 28 28 29 25 24 29 29 26 28 28 28 25 21 23
24 22 22 20 24 28 29 28 26 24 26 28 32 32 35 36 36
38 37 37 40 38 40 36 36 31 30 26 25 23 26 27 27 30
34 30 29 29 25 25 28 28 29 30 28 26 26 28 28 27 28
25 27 28 34 32 33 32 31 35 37 36 37 30 29 32 30 29
29 31 30 39 39 32 29 29 31 32 34 42 48 49 48 42 43
48 50 46 42 48 46 45 43 41 41 40 63 72 78 60 62 64
74 70 65 58 61 68 63 66 64 66 69 72 74 69 64 62 59
64 60 54 45 49 49 54 56 56 49 45 53 53 46 43 43 43
42 42 42 43 40 40 37 37 41 41 41 40 41 39 41 39 42
39 36 34 35 34 36 38 40 40 38 34 35 39 38 38 38 39
45 44 45 44 44 45 45 42 41 44 47 46 50 51 49 52 54
46 40 33 32 32 35 37 45 43 35 32 31 34 37 37 40 46
43 41 41 44 44 38 36 35 30 31 31 32 30 27 26 27 31
33 31 28 24 25 27 30 28 26 28 31 33 35 33 33 35 36
41 46 44 44 44 40 40 45 46 47 46 43 40 41 40 42 43
42 48 49 42 47 51 49 46 36 32 26 22 23 25 28 27 26
21 23 25 26 29 30 29 27 26 25 25 24 25 27 26 25 25
28 26 35 35 34 33 36 38 34 35 38 43 48 44 36 34 32
31 35 32 35 38 41 38 37 35 30 26 30 31 35 34 30 30
33 33 33 31 27 26 30 31 32 30 34 35 27 25 28 27 24
23 24 27 28 24 24 26 28 32 38 38 37 37 26 33 29 29
29 26 28 26 24 23 26 28 26 26 26 26 24 27 31 35 34
35 34 29 30 29 29 27 27 24 24 26 28 29 37 35 40 38
39 40 40 36 38 39 36 32 27 28 24 25 24 23 30 25 21
22 22 22 22 23 24 21 23 23 24 27 28 27 24 20 22 22
24 23 25 28 27 28 29 28 25 22 21 22 21 18 18 20 18
20 20 22 23 24 26 25 21 20 21 22 23 21 22 29 28 25
24 25 28 27 28 30 33 34 30 33 29 24 24 29 29 29 28
31 30 26 26 24 24 24 24 24 22 23 24 27 29 25 24 23
26 25 26 30 29 28 26 25 26 28 30 31 31 29 27 27 28
28 31 29 27 26 29 24 23 24 25 24 29 30 32 33 35 31
28 26 28 28 29 28 24 28 27 28 26 26 25 24 26 28 25
25 26 30 32 28 28 27 28 31 35 38 33 34 33 29 29 30
35 42 44 48 47 46 57 54 59 50 51 49 52 42 40 38 47
68 64 59 57 64 66 92 78 68 65 61 68 66 60 53 56 55
57 61 65 55 54 44 47 50 51 50 52 56 60 56 52 49 50
54 51 49 41 40 42 45 40 39 42 42 42 42 41 44 50 52
46 43 34 32 31 31 34 40 42 40 43 40 40 40 38 34 34
36 39 42 43 42 42 41 37 39 39 38 41 43 44 49 51 53
54 51 51 38 32 30 37 41 41 37 33 32 33 34 38 39 40
44 44 45 46 45 40 37 33 32 34 32 32 32 32 34 30 30
31 33 33 34 32 28 29 31 30 28 28 30 31 34 33 33 32
33 36 36 36 36 40 41 41 42 48 54 49 46 45 35 33 40
39 40 42 43 47 46 46 47 53 44 30 25 26 23 23 25 27
28 26 26 24 26 28 28 26 30 29 27 27 28 28 30 26 26
25 26 26 28 31 28 36 40 42 39 35 33 37 38 38 34 35
34 34 39 39 38 32 32 37 40 38 36 34 29 26 30 36 31
32 32 31 31 30 33 34 32 31 31 34 34 38 41 31 27 24
25 23 25 26 26 28 27 25 25 25 27 28 28 28 28 29 25
25 25 25 24 23 24 23 24 23 24 23 23 24 23 25 25 25
27 34 33 33 35 44 42 42 39 31 35 32 29 27 26 26 27
30 30 29 30 30 30 38 33 36 37 36 29 28 27 26 25 27
25 25 24 23 23 23 24 22 21 22 23 22 24 22 22 21 24
27 27 27 27 28 27 27 26 26 25 25 26 26 23 22 20 23
20 21 22 24 24 21 22 21 22 18 22 22 25 24 23 25 26
26 25 26 23 24 23 25 24 24 23 25 26 27 27 25 23 24
23 24 26 27 32 34 33 30 31 30 29 28 27 24 24 24 25
28 30 28 27 25 28 28 24 24 27 26 23 24 24 28 28 23
25 28 30 30 28 28 28 25 25 25 27 23 21 21 23 26 30
32 35 33 28 32 29 29 30 33 35 34 32 30 29 29 28 26
29 26 24 30 26 23 23 26 30 31 27 27 29 36 37 38 40
40 36 35 35 31 28 28 38 41 42 43 52 62 60 60 53 54
49 46 46 46 47 55 55 49 47 47 63 71 81 78 60 63 64
60 80 62 57 53 54 54 60 70 60 54 52 52 51 52 54 53
59 62 58 58 55 53 54 50 45 45 46 44 45 42 46 48 41
41 40 38 38 43 47 34 34 41 41 38 38 36 36 38 45 39
32 34 37 38 40 42 43 46 41 43 42 47 48 45 40 41 41
47 46 46 46 43 35 31 32 35 34 36 37 33 34 37 39 43
42 40 47 49 40 40 45 40 32 34 35 34 34 35 38 39 37
38 33 32 34 33 34 33 32 31 33 32 30 31 31 30 34 34
34 33 32 34 35 35 38 36 41 42 44 52 59 61 47 44 37
30 36 43 40 40 40 31 39 33 32 32 30 28 25 24 25 24
26 28 29 30 28 29 30 28 27 27 29 30 27 26 28 31 31
33 32 32 31 28 28 27 28 26 27 33 31 34 39 40 36 37
37 40 34 40 39 33 31 31 34 38 40 40 39 36 34 32 26
28 26 26 27 25 25 25 29 30 32 35 28 30 29 32 33 33
30 26 25 25 27 26 28 27 26 26 25 27 26 26 26 28 27
27 25 25 27 31 30 25 24 23 25 26 24 24 24 27 27 26
28 28 24 22 23 26 28 30 35 30 30 28 29 31 33 32 37
43 38 33 26 26 26 29 30 37 38 32 29 30 31 31 27 25
26 30 29 28 26 25 26 32 28 26 28 25 25 26 27 27 28
29 27 23 24 25 27 24 25 25 25 25 23 26 22 20 23 24
26 25 23 22 24 24 24 25 24 26 25 22 23 23 20 20 20
20 19 21 22 20 22 22 21 21 21 23 22 22 22 23 24 24
25 23 23 23 22 22 24 23 26 25 25 28 29 31 31 32 33
32 31 29 25 26 34 33 31 29 30 29 28 29 28 33 31 30
29 28 34 33 32 32 34 33 34 32 30 28 29 29 27 28 26
26 26 26 26 26 28 30 35 39 38 35 34 33 37 35 34 32
35 32 34 31 31 30 28 27 29 30 27 24 25 26 29 28 29
31 33 32 38 39 38 36 41 38 38 43 35 32 33 35 35 36
46 53 54 52 50 46 48 44 45 50 51 58 63 61 54 60 63
63 59 62 59 54 55 52 58 56 66 52 59 56 60 61 61 60
60 62 65 56 55 59 61 57 54 52 52 57 54 54 47 53 50
48 48 52 48 43 38 33 35 43 38 39 42 40 39 38 39 46
48 42 36 36 37 39 38 42 46 53 54 52 50 51 54 47 44
44 48 47 46 48 48 47 41 35 36 39 40 37 36 36 37 41
42 39 38 37 38 37 38 40 39 39 37 34 36 34 32 34 35
35 36 34 33 32 35 35 36 36 34 34 34 34 32 33 32 32
36 39 36 32 34 32 36 37 35 34 33 35 38 38 40 40 39
32 29 27 29 33 31 25 28 29 29 29 28 29 30 30 29 27
28 27 26 27 29 29 30 33 33 34 32 34 32 32 31 28 25
25 26 30 30 28 29 32 31 32 34 37 36 35 34 33 29 32
32 32 30 32 31 32 37 39 42 38 38 41 32 30 30 31 27
26 23 23 23 23 25 24 22 25 26 24 25 23 22 25 26 30
29 30 28 24 25 23 22 26 23 22 24 25 23 23 25 26 27
25 27 31 31 30 30 24 23 28 31 35 34 34 31 28 25 25
26 27 28 30 32 30 25 26 25 28 25 27 25 26 25 26 25
26 29 26 32 35 30 28 25 22 21 23 22 22 25 24 28 32
27 28 29 26 26 25 29 27 28 25 25 32 31 33 38 30 28
30 27 26 30 31 31 29 26 25 25 25 25 26 26 28 24 21
23 24 22 23 24 24 24 22 24 25 22 21 24 23 25 23 20
22 22 24 19 19 20 19 18 20 20 21 21 24 24 21 22 25
27 25 22 23 22 22 23 25 25 23 23 23 23 28 28 29 31
30 32 30 32 35 33 31 28 24 23 26 27 29 29 29 30 28
28 32 33 28 27 28 28 26 26 26 25 34 36 36 30 30 29
29 32 31 30 34 34 30 29 26 27 29 35 37 42 42 44 36
38 35 33 33 33 32 32 36 32 29 29 29 28 29 30 30 28
27 26 25 29 28 30 35 36 34 35 35 40 41 39 38 36 35
33 30 33 36 37 41 42 40 42 38 40 40 38 34 49 57 58
58 57 62 63 54 56 54 54 53 50 50 52 53 53 57 65 68
65 66 62 65 62 62 73 78 77 69 62 68 66 62 60 59 63
61 54 51 53 56 57 54 58 56 54 47 41 36 34 42 42 39
42 48 46 43 43 40 42 43 43 44 50 53 53 51 55 54 55
42 43 48 49 51 52 53 50 48 49 43 40 43 43 41 34 36
43 41 39 39 42 42 44 41 43 46 50 46 46 45 34 32 34
35 34 37 38 40 39 39 41 35 33 35 35 35 37 37 33 32
34 35 39 41 39 33 36 35 33 37 36 36 34 37 41 42 39
36 35 30 25 24 25 27 26 28 32 30 29 28 28 30 30 33
33 36 28 23 24 26 28 28 30 34 34 30 30 30 32 31 30
29 28 28 30 32 35 34 34 36 41 38 38 40 44 40 36 36
38 35 40 37 34 33 29 26 25 26 23 22 22 21 21 22 26
26 24 25 26 26 26 24 22 25 25 25 27 27 27 27 28 29
31 30 33 32 29 24 23 20 18 21 22 24 23 23 26 25 24
24 23 24 22 23 27 26 25 26 27 32 34 35 33 35 35 36
36 38 35 29 25 23 25 28 27 28 29 28 28 33 30 34 34
33 31 30 33 31 34 30 28 24 26 28 27 28 27 27 28 33
34 33 28 28 27 27 28 27 25 27 27 28 27 25 25 23 24
27 31 29 30 28 30 29 30 29 26 26 26 29 28 23 23 21
25 28 32 32 30 25 26 26 28 27 28 26 26 25 27 27 23
18 21 24 22 22 20 26 27 25 25 24 22 22 22 25 22 23
25 28 29 26 23 21 21 22 20 19 22 23 25 26 28 28 29
30 27 32 35 37 36 43 36 35 36 36 34 36 37 40 32 30
28 29 31 32 34 39 41 42 40 36 34 33 32 29 29 26 27
31 34 30 34 36 30 27 29 32 35 32 33 35 35 29 29 30
36 37 40 39 36 36 32 32 32 34 32 34 31 40 38 33 31
34 33 31 29 31 36 29 26 27 32 29 31 34 40 40 36 34
40 39 38 38 36 38 38 35 39 45 47 51 48 42 37 36 37
35 34 35 36 40 44 50 57 60 58 59 55 63 57 52 58 58
55 55 53 53 69 62 64 69 70 72 72 70 66 70 70 73 68
67 64 57 52 52 61 64 57 56 53 52 47 45 52 58 60 56
47 41 40 43 42 39 43 41 48 45 45 48 52 59 56 56 59
47 45 42 42 43 43 44 43 41 42 42 40 41 41 41 40 39
35 38 38 39 44 44 40 38 39 40 44 44 40 41 43 46 39
35 36 34 36 35 36 38 42 43 37 36 38 39 39 39 41 35
34 32 30 36 36 36 38 38 37 37 36 37 39 41 43 42 43
42 40 42 37 30 28 24 26 28 29 26 25 24 24 25 29 30
30 29 29 29 28 24 25 27 31 31 32 34 31 33 32 31 31
28 28 28 26 26 29 28 29 32 32 36 37 38 28 39 40 39
41 38 41 41 41 32 30 30 23 20 22 23 23 23 23 24 22
23 23 22 25 26 27 25 25 24 24 23 21 22 23 23 21 25
27 27 31 26 25 28 28 26 25 24 25 23 22 24 24 23 24
26 25 23 23 25 25 23 24 28 30 31 28 29 29 29 31 30
35 37 33 34 34 32 31 27 28 28 29 24 25 28 30 30 39
44 38 37 38 35 35 42 39 37 34 32 31 29 28 30 30 31
31 34 34 33 29 27 27 27 26 27 29 31 27 25 25 24 22
26 26 22 23 24 24 24 26 30 31 29 24 25 27 26 28 27
26 24 24 26 23 19 22 27 26 25 24 25 22 24 24 24 24
31 25 25 25 22 23 24 26 26 29 27 28 28 28 28 29 30
28 26 23 21 22 22 23 22 20 23 24 24 23 23 24 21 21
19 22 25 25 25 30 32 37 41 43 41 38 36 36 33 32 36
35 37 35 39 34 35 35 31 30 35 33 30 30 32 33 37 37
33 32 29 29 28 25 27 30 30 32 32 32 33 32 32 31 32
32 34 38 38 32 31 36 33 32 36 36 31 31 33 35 35 35
36 36 41 38 37 35 36 36 35 38 43 40 39 36 39 36 32
36 39 48 41 37 44 46 42 39 43 44 41 40 39 39 51 52
48 42 40 34 33 35 35 35 36 36 34 38 47 61 68 61 58
61 52 54 58 62 58 54 52 50 56 58 67 74 62 62 66 63
55 61 49 50 55 68 71 74 60 60 52 47 46 59 64 58 54
52 52 53 54 53 41 42 43 47 48 49 45 41 46 51 56 60
58 55 53 43 41 44 40 40 43 48 44 37 38 41 42 48 52
44 40 36 37 40 40 46 50 46 44 45 46 42 40 39 38 42
44 43 40 32 35 37 39 43 43 42 43 42 38 43 46 41 43
46 45 40 36 37 36 37 36 36 33 34 38 39 40 37 39 40
43 45 43 39 37 40 33 27 21 24 28 28 26 24 25 25 24
23 25 26 26 25 26 28 25 24 26 26 26 24 25 28 30 29
27 25 25 27 30 31 28 28 29 29 28 28 26 28 25 25 25
25 28 32 32 33 30 30 28 28 28 24 20 21 21 22 24 27
27 24 26 27 29 30 30 30 29 29 25 25 22 21 22 26 26
28 25 25 28 27 26 27 28 28 23 24 22 23 25 29 28 31
28 27 27 26 27 28 27 23 21 24 26 26 27 29 28 27 28
28 27 28 27 24 28 32 32 29 28 30 34 30 30 27 28 27
27 24 25 28 28 26 23 25 24 25 30 39 39 34 36 36 35
35 36 36 35 40 38 35 31 31 33 31 30 29 28 32 33 30
30 29 25 22 23 25 27 28 33 31 33 28 27 30 34 36 37
34 29 29 27 29 27 26 22 23 20 20 21 23 25 24 24 28
26 26 24 24 25 26 26 24 26 26 24 27 28 24 24 25 24
22 23 22 21 24 22 22 19 19 25 24 23 25 23 22 22 23
23 23 23 23 24 24 23 26 29 34 32 30 33 36 38 34 34
32 36 38 32 36 34 39 45 44 37 35 37 32 33 45 45 39
37 34 34 43 43 39 41 39 35 33 30 31 32 35 37 34 35
35 34 35 34 36 34 35 39 38 35 37 30 28 28 33 39 35
36 34 35 33 32 33 33 39 39 40 41 45 41 37 37 38 41
40 35 38 38 40 40 41 41 43 38 39 46 42 36 38 39 37
38 35 34 39 50 56 55 57 49 40 34 36 42 41 40 37 35
35 47 58 68 68 65 70 67 67 68 74 63 55 54 54 60 60
56 45 47 50 49 46 40 40 38 40 39 37 40 46 44 52 52
49 50 56 58 57 56 60 58 53 46 44 52 54 44 43 46 49
53 56 54 48 38 37 40 41 39 38 42 47 44 43 44 48 44
44 45 42 36 36 39 46 43 45 44 38 38 36 42 44 41 40
42 39 39 41 42 36 34 35 37 40 44 39 39 39 36 35 33
28 29 31 33 34 31 30 33 34 35 37 40 31 31 32 29 34
37 35 33 37 41 42 40 37 33 23 22 24 27 28 26 24 25
25 23 23 25 23 25 25 26 27 30 27 28 28 29 24 24 28
29 26 24 21 21 21 25 28 28 29 28 31 32 30 32 32 31
28 24 27 26 29 29 30 26 21 23 26 24 22 21 24 23 27
29 28 26 25 24 24 27 28 32 32 29 27 23 24 24 21 20
19 20 21 22 22 27 27 30 31 34 27 24 25 24 23 24 23
24 24 24 26 26 24 22 25 26 28 30 26 27 34 35 30 29
31 30 35 34 38 33 27 25 26 26 28 30 32 33 34 36 33
30 27 27 28 27 25 25 23 22 23 22 22 23 23 25 22 21
26 24 26 27 34 35 30 30 31 30 34 34 34 30 30 32 36
40 38 36 35 31 30 28 28 30 30 27 29 29 30 29 26 27
25 24 24 21 22 20 21 21 20 20 20 20 21 22 22 24 24
26 30 30 25 23 28 28 26 27 23 32 34 26 26 26 25 24
24 24 26 26 24 22 22 20 20 21 21 21 19 18 19 22 22
23 26 26 24 24 23 23 23 26 28 28 27 27 31 37 35 27
24 24 26 27 28 27 30 26 28 30 32 35 40 40 38 32 37
33 36 46 46 36 37 37 33 37 41 44 45 44 43 42 38 31
38 40 40 40 35 36 38 39 41 42 39 36 37 40 34 30 32
34 30 33 32 35 35 32 33 31 29 27 29 29 31 31 30 33
31 35 35 38 38 37 37 34 38 32 33 33 33 33 35 40 50
53 48 41 46 41 40 39 38 44 50 56 54 56 54 48 42 41
43 45 48 47 44 42 40 39 45 44 48 51 50 46 47 56 57
49 42 43 45 48 46 38 37 39 40 47 47 43 42 39 39 40
43 40 42 42 43 42 41 47 48 46 47 52 57 49 49 45 43
47 45 45 55 48 39 40 42 45 44 40 37 36 42 45 46 42
45 46 42 40 40 39 37 33 36 41 37 38 40 36 41 44 45
40 36 42 41 37 40 43 41 40 35 38 40 39 38 31 32 31
31 29 26 24 28 30 29 30 31 29 31 34 35 35 30 29 30
33 31 36 33 34 37 42 44 39 35 28 25 23 24 28 28 27
25 24 23 26 21 21 23 26 29 31 33 36 36 30 24 29 29
27 26 27 26 25 23 23 23 26 28 26 27 28 27 31 34 33
32 30 31 27 28 29 34 34 27 26 24 23 21 20 21 23 24
27 27 23 28 27 24 23 24 24 23 25 26 24 25 27 26 26
25 25 25 21 21 21 24 25 25 25 25 26 26 26 26 24 22
23 25 25 26 25 24 29 30 24 23 23 23 21 25 23 26 30
30 29 33 33 31 28 27 24 27 24 24 28 29 33 30 28 29
28 32 34 36 34 35 35 41 37 37 34 35 30 31 35 31 30
24 23 24 24 23 29 29 31 27 35 36 36 34 33 34 42 46
42 38 34 31 37 35 35 36 36 28 30 33 34 27 29 28 26
26 29 28 30 28 31 26 31 28 25 23 23 23 25 27 25 23
22 23 21 20 22 22 21 24 25 29 30 28 28 26 23 27 37
29 28 25 26 22 21 22 23 24 25 24 23 22 21 19 22 24
24 21 21 24 21 22 22 23 24 25 24 24 24 25 28 26 24
24 18 20 21 21 23 25 28 31 29 30 29 27 28 25 29 32
29 33 32 34 32 33 40 43 44 42 35 38 38 41 40 36 36
42 40 43 45 39 39 38 41 48 40 40 41 48 40 35 40 37
34 36 33 32 29 31 31 33 34 40 47 43 36 35 30 27 25
29 32 36 31 30 24 26 28 30 35 35 33 33 35 37 36 38
38 38 37 36 39 42 50 48 44 44 48 46 40 44 48 56 51
60 58 53 45 38 40 41 45 46 43 44 43 43 40 40 37 41
42 41 37 41 46 46 44 43 45 46 50 50 46 45 43 47 46
45 44 40 36 41 46 44 38 39 42 41 38 41 45 44 41 39
49 48 54 50 48 46 44 44 49 47 48 49 46 40 36 39 43
43 45 43 42 40 42 47 45 43 36 34 34 34 30 34 34 31
30 34 33 33 34 34 34 40 39 36 39 38 36 34 36 32 29
30 28 31 31 26 32 39 37 34 35 31 29 32 36 38 41 36
30 31 36 34 32 31 33 37 39 44 42 38 29 24 24 24 24
22 25 26 23 23 22 21 20 24 28 29 29 32 35 43 36 31
31 32 33 29 29 31 26 24 24 26 26 29 29 30 30 29 28
28 31 31 32 34 31 31 31 32 36 37 29 29 31 28 26 31
27 28 25 30 31 27 23 24 25 26 24 24 27 28 27 26 26
27 28 27 26 26 22 23 23 25 27 29 31 28 26 25 21 19
19 18 20 18 18 17 20 23 24 21 22 22 23 21 23 25 27
24 25 28 30 36 34 35 31 29 24 26 29 26 30 31 31 30
31 32 30 35 34 43 43 41 42 39 41 40 38 36 30 32 38
43 38 42 41 33 33 35 38 41 36 36 37 33 30 32 34 35
32 34 38 40 46 39 35 36 33 26 33 33 31 32 33 36 36
34 36 38 31 30 36 36 32 35 38 41 40 41 35 35 33 32
31 31 30 28 26 26 28 29 28 26 26 29 31 29 30 26 24
27 24 27 24 23 25 25 27 21 22 21 22 22 26 25 27 28
27 25 21 23 25 22 22 22 21 21 22 21 21 21 24 26 23
22 21 22 20 21 19 20 21 23 22 23 23 23 25 30 31 34
27 29 27 30 33 31 30 40 48 41 34 34 45 45 45 45 38
39 44 45 44 37 37 43 46 41 44 52 47 43 36 38 36 38
39 38 37 37 37 39 35 35 30 34 29 29 29 33 40 45 46
51 50 51 46 38 28 30 35 34 32 29 29 28 26 30 32 34
31 35 34 35 31 32 34 29 32 33 34 33 34 32 31 38 36
42 43 51 55 54 54 63 63 56 49 48 44 43 47 45 45 49
42 50 48 46 43 50 48 41 40 42 42 40 42 46 47 51 49
49 48 49 51 43 42 44 44 43 43 40 40 40 42 42 40 45
40 41 49 53 49 49 51 52 50 54 55 53 47 43 45 38 37
39 41 45 44 44 43 43 43 46 48 49 38 32 36 36 34 34
38 37 32 30 31 33 39 34 33 37 37 35 36 43 40 34 30
29 33 34 33 32 29 29 32 35 34 34 34 32 31 37 40 43
42 35 31 30 32 32 30 31 34 34 41 39 32 31 25 24 22
24 22 22 18 20 19 19 20 21 23 26 27 29 29 33 36 41
34 34 34 33 33 32 34 31 29 25 26 30 26 27 29 31 30
28 27 27 27 28 29 30 29 29 32 32 36 38 32 28 30 29
30 30 32 34 33 45 34 26 23 25 24 27 25 25 25 28 30
31 28 25 26 26 27 25 22 23 21 24 28 28 29 30 26 22
21 20 20 18 18 19 20 19 22 22 23 20 20 23 23 24 25
27 25 31 30 32 31 35 34 36 34 32 24 22 23 27 29 31
37 37 33 28 29 32 34 34 36 31 29 31 34 33 36 35 31
28 31 32 28 30 31 33 34 37 34 30 29 37 28 27 26 26
29 31 32 34 35 36 37 35 37 38 34 32 31 30 34 41 46
42 45 45 31 34 38 38 45 45 39 31 35 30 29 29 29 30
43 47 36 30 32 33 32 30 28 28 29 27 23 24 30 34 34
33 28 30 28 25 24 24 28 30 27 26 22 20 21 22 22 22
21 24 24 26 31 26 26 29 26 23 21 22 20 20 21 21 21
22 22 22 24 20 19 23 23 21 21 23 22 20 26 27 25 22
22 20 33 37 36 34 31 31 36 34 35 33 37 42 42 45 48
50 46 46 43 41 42 41 42 42 33 33 32 36 38 45 41 41
41 39 36 40 39 38 40 36 37 48 51 55 48 41 39 40 34
33 34 33 34 36 36 40 44 48 43 35 33 33 37 40 34 29
30 31 30 36 45 38 34 33 30 29 27 28 27 28 26 31 31
30 29 27 30 34 33 36 41 43 42 45 48 52 54 55 62 51
46 48 55 52 60 50 51 56 54 48 46 48 51 54 50 49 48
44 45 47 45 51 51 51 48 46 45 46 43 41 41 39 40 40
38 44 48 52 50 45 38 38 52 56 54 55 46 48 47 49 49
47 41 42 44 53 51 48 46 45 42 43 43 45 42 35 34 34
38 39 38 35 36 36 36 38 42 40 44 42 38 37 38 43 42
34 32 35 37 40 41 33 32 32 32 32 33 36 38 35 37 36
37 36 35 33 29 28 28 30 31 35 36 41 37 27 29 30 29
26 20 20 20 21 20 20 22 20 20 21 24 28 29 31 32 32
38 41 39 37 32 30 28 29 32 35 31 30 27 31 27 26 27
27 27 28 24 26 26 31 34 33 30 28 28 27 27 27 26 21
20 20 22 19 19 22 27 25 29 25 24 24 25 25 29 28 27
28 31 27 30 26 24 23 24 27 26 24 22 23 25 23 23 25
25 22 23 24 24 24 22 23 23 25 24 27 29 30 28 29 28
22 25 24 27 30 33 32 35 37 40 38 37 31 27 24 29 32
30 27 24 28 28 30 28 31 32 30 29 28 27 31 32 33 33
35 38 40 38 35 36 32 32 30 28 29 32 32 36 39 35 32
31 32 33 33 34 33 31 41 49 40 37 32 34 43 37 40 38
40 39 38 33 33 39 42 43 45 48 39 41 38 29 34 32 28
26 23 24 25 24 25 32 30 26 25 31 27 34 36 30 29 30
26 24 26 28 28 26 28 25 24 23 25 27 25 24 26 24 24
22 23 24 24 30 31 33 33 29 28 27 25 24 27 26 21 20
23 24 24 24 27 22 21 20 17 19 21 25 27 24 22 25 23
22 22 29 27 27 25 26 28 36 36 35 35 30 33 38 37 35
37 33 33 35 40 48 48 46 39 38 38 36 35 39 37 36 34
34 37 43 44 40 38 39 44 36 36 36 40 38 37 40 51 63
56 56 46 44 41 35 42 42 46 36 41 40 42 45 44 42 46
38 40 36 33 32 27 27 28 30 32 34 35 36 36 35 34 31
30 31 28 28 28 29 29 28 25 27 26 25 29 32 39 46 51
49 48 53 62 58 58 53 55 56 59 59 58 59 60 64 59 54
57 55 52 52 53 58 63 59 58 54 52 47 48 48 49 56 56
49 40 44 45 42 42 42 41 44 50 52 52 47 46 49 53 56
51 48 48 43 44 46 46 46 45 52 52 56 49 42 42 40 38
34 38 40 38 37 38 38 35 35 38 40 41 40 36 38 38 42
43 43 38 33 32 35 36 34 28 27 26 29 30 32 33 34 34
27 26 28 27 27 26 29 27 28 27 28 29 29 29 28 27 25
29 29 24 21 22 24 22 23 23 24 25 23 23 27 30 33 31
30 30 32 35 36 33 29 29 31 33 35 35 33 28 22 22 22
20 23 26 25 27 27 26 26 30 35 33 29 29 27 26 25 24
25 23 19 18 19 20 22 18 19 20 20 22 22 25 25 26 26
28 29 27 28 29 30 33 26 26 29 28 27 25 24 24 22 25
24 22 21 22 21 22 21 20 22 21 21 22 24 24 24 22 19
20 23 27 22 23 23 25 29 33 35 34 34 36 37 35 34 23
21 21 21 21 25 23 24 26 25 29 32 32 28 27 29 30 28
25 25 24 28 25 23 25 25 34 33 31 28 29 31 32 32 33
32 31 31 36 37 37 44 41 38 34 38 37 36 31 33 37 31
29 32 30 36 38 36 37 34 33 36 37 41 49 46 47 49 40
37 34 30 30 32 30 29 26 25 26 26 33 29 26 32 30 32
28 31 31 30 27 28 24 30 29 24 28 23 25 23 24 27 26
25 26 24 24 30 27 30 33 32 24 27 22 25 28 24 23 23
26 23 20 22 21 19 22 23 24 24 24 25 20 20 21 19 22
24 28 28 29 28 25 23 25 25 26 24 22 25 28 33 29 31
31 33 38 37 42 39 35 38 35 40 38 47 42 39 40 41 43
42 42 42 37 34 34 32 36 30 35 37 42 38 41 38 40 40
37 34 33 36 47 56 56 49 43 41 40 44 43 46 44 42 42
42 41 36 37 48 43 44 44 35 33 30 28 29 31 31 29 31
38 38 30 32 33 30 32 32 30 29 29 31 31 29 32 31 30
32 32 33 30 34 40 40 44 51 68 66 61 56 59 63 63 66
63 51 58 59 60 51 57 60 56 52 47 49 58 62 60 60 58
55 53 52 50 58 66 59 56 53 56 50 48 42 39 36 40 54
50 50 50 46 47 47 50 43 47 48 51 52 59 55 46 36 39
38 37 33 31 30 31 33 34 35 35 36 37 33 34 37 38 34
34 33 33 35 35 34 33 31 37 35 33 32 30 32 31 34 33
31 27 25 24 27 27 26 25 25 24 25 23 26 28 30 29 30
30 30 30 29 27 24 23 22 23 28 27 28 27 28 25 27 31
36 33 33 30 31 34 38 39 28 28 32 30 28 26 26 24 24
21 22 24 23 26 28 31 31 32 33 33 40 40 34 29 29 26
25 24 25 22 20 17 20 20 22 25 25 27 27 24 24 25 24
24 26 26 28 24 20 28 29 26 25 29 26 27 28 28 29 23
21 22 24 24 23 20 18 19 20 20 18 22 24 24 23 26 25
26 24 23 24 24 22 22 24 28 29 32 32 36 36 32 36 32
29 28 23 24 25 25 28 27 25 28 29 29 28 32 32 31 33
30 31 29 30 31 30 26 23 24 23 21 21 20 24 28 27 35
36 32 33 34 33 30 34 35 36 38 35 42 40 34 41 43 38
31 29 28 27 30 35 32 31 36 31 32 36 33 38 34 38 41
38 40 37 34 34 39 31 33 31 35 35 34 36 32 26 28 26
30 29 25 24 27 26 28 28 34 31 28 26 26 30 29 28 27
26 28 28 28 30 26 29 32 28 27 25 24 24 21 23 21 17
22 17 18 22 20 22 23 23 23 22 24 26 26 24 27 28 28
24 22 23 20 21 21 23 26 29 26 27 27 26 26 27 26 26
26 27 29 30 30 29 31 34 32 36 33 32 37 38 38 35 39
44 42 47 44 44 44 44 48 50 41 38 40 34 37 39 42 41
43 40 33 33 34 34 35 34 32 31 42 64 62 55 45 41 38
39 36 32 35 36 37 38 42 40 45 46 44 44 45 43 28 26
26 28 29 31 30 33 35 31 31 35 33 35 35 35 35 36 32
31 30 33 33 31 28 29 28 28 29 28 28 30 31 31 42 41
34 37 39 53 56 57 56 56 59 61 54 50 59 59 54 50 47
54 55 54 52 52 56 59 47 50 56 54 49 47 42 44 36 41
41 38 40 45 42 41 44 44 51 46 44 41 38 43 42 43 40
42 40 42 38 33 33 36 31 32 33 33 32 31 30 32 32 31
35 38 33 32 37 35 33 34 31 34 37 39 34 32 30 29 33
34 32 32 28 24 28 30 30 29 29 27 25 25 23 26 28 29
28 27 32 30 30 33 30 26 27 23 23 24 28 31 30 28 27
29 30 35 37 38 34 33 35 39 34 31 28 29 33 31 25 26
25 25 26 26 28 32 31 32 36 37 35 34 38 38 38 30 24
26 27 28 27 28 30 26 24 28 26 25 27 29 29 26 24 26
25 25 24 25 26 27 24 23 18 20 23 24 28 29 29 28 35
31 27 24 28 26 27 29 22 20 21 21 17 21 22 26 20 18
18 19 20 22 22 23 24 23 22 22 21 21 21 21 24 32 25
26 27 29 30 30 27 30 29 29 29 28 31 30 30 27 27 27
29 29 30 32 32 28 30 33 28 24 24 23 24 22 24 20 24
25 27 28 28 30 30 25 25 34 36 36 38 33 32 29 26 28
31 28 30 30 32 34 31 33 30 28 28 28 27 28 30 28 24
25 25 25 25 26 23 22 22 24 20 23 24 25 28 34 40 42
39 33 28 28 30 28 28 25 25 25 23 25 26 23 24 22 24
25 36 37 32 32 31 28 30 28 28 28 31 32 31 32 31 25
22 20 20 21 22 20 18 18 18 21 21 21 21 19 21 19 22
23 26 25 26 27 25 25 24 23 22 21 21 25 28 26 29 28
26 28 30 30 28 30 28 26 29 28 27 25 30 36 36 30 30
34 41 46 40 42 48 52 53 47 50 50 43 43 37 40 40 43
43 41 43 38 38 34 30 32 29 31 30 32 35 35 30 32 38
54 57 51 47 45 46 46 42 38 37 37 38 33 31 34 35 35
36 36 41 35 29 24 26 28 29 31 28 39 36 36 36 35 32
40 40 37 41 36 28 29 26 27 30 31 33 34 33 33 32 27
24 25 26 28 35 34 33 36 30 34 36 37 46 53 52 54 49
46 46 51 51 46 51 50 49 52 51 44 47 43 36 41 52 46
39 35 35 40 38 40 38 49 52 44 39 36 35 36 35 37 38
41 43 41 36 34 33 33 35 36 35 30 30 31 31 28 30 28
28 28 32 34 34 31 35 37 34 37 38 37 38 37 37 29 30
28 29 31 29 27 26 25 25 30 33 32 30 27 28 31 25 26
26 28 28 27 28 28 30 31 26 23 24 23 23 23 21 21 22
22 22 24 27 25 26 32 29 29 29 29 31 33 32 30 31 30
27 27 29 29 26 26 26 29 31 31 31 30 33 33 38 37 38
32 27 29 30 30 29 30 29 29 25 27 27 24 23 24 25 24
24 24 24 24 25 24 25 25 24 24 23 22 21 24 25 27 29
26 24 24 24 27 29 28 28 26 26 24 27 28 25 22 22 26
24 20 20 20 21 20 24 26 23 21 24 23 21 22 22 23 22
23 19 20 22 23 23 23 24 23 23 24 24 23 24 25 23 27
26 23 23 27 28 27 27 33 29 25 30 27 28 29 28 24 23
24 25 26 25 27 22 20 20 20 20 20 22 25 29 32 28 32
31 25 21 22 20 26 33 38 28 29 29 32 32 25 27 33 28
32 34 28 26 26 22 29 23 22 19 19 24 22 21 20 24 28
30 30 30 33 37 34 36 31 29 25 25 24 29 22 19 17 17
20 21 20 19 20 23 28 33 26 27 24 26 26 29 27 28 26
21 20 20 23 24 20 19 21 19 20 19 19 24 23 24 23 23
24 21 21 22 24 22 22 23 26 34 29 23 21 21 21 23 20
19 22 26 26 24 21 23 27 27 29 33 29 26 27 30 30 26
26 33 36 34 28 31 37 41 43 43 44 47 43 45 43 45 42
45 44 44 46 46 36 30 29 33 32 33 34 32 35 36 32 35
32 30 37 37 33 34 50 56 69 59 49 46 47 42 39 42 43
38 32 30 42 40 38 34 36 37 32 29 26 26 29 30 33 37
34 35 32 37 36 35 47 31 29 30 30 28 28 29 29 29 32
36 34 29 30 29 28 27 28 27 27 32 33 32 32 33 35 36
40 43 47 42 41 46 45 45 48 45 49 57 55 55 58 54 47
44 42 38 37 49 58 49 43 47 52 46 38 41 39 38 41 40
39 40 45 45 41 38 37 39 38 37 34 33 33 29 29 31 33
31 31 28 34 37 36 32 33 34 35 36 38 42 42 45 47 37
28 29 28 27 24 25 30 28 26 30 33 33 34 32 32 31 31
31 28 29 30 29 32 33 30 31 30 27 25 26 25 26 25 26
25 26 26 26 29 31 31 32 33 32 34 32 29 32 34 35 34
30 32 30 26 27 29 29 28 31 33 29 30 33 31 29 29 29
28 27 25 25 28 33 42 35 28 28 26 28 24 26 23 23 25
24 24 24 23 23 24 24 24 24 23 24 22 21 24 23 22 21
23 23 21 23 22 26 30 29 27 26 23 22 23 24 24 24 24
24 27 27 24 24 25 23 24 26 26 26 26 24 26 25 24 22
25 24 23 22 24 24 25 26 28 26 27 27 24 23 22 22 22
22 24 25 22 21 21 23 25 23 21 27 27 27 27 29 28 30
33 32 25 23 23 24 23 22 23 25 26 28 26 26 25 25 23
22 24 24 26 24 28 27 26 24 25 24 25 26 28 32 31 30
28 32 30 32 28 24 28 32 32 30 29 27 24 21 21 20 23
27 31 28 27 29 28 30 27 27 28 31 28 28 27 31 29 23
22 24 21 19 20 21 21 20 20 21 22 25 25 27 24 22 23
27 22 21 25 21 19 18 21 21 22 18 18 23 24 25 20 21
25 24 21 21 20 23 24 22 23 27 28 25 28 23 23 25 24
22 22 22 22 24 21 23 24 22 20 19 20 23 21 23 26 23
23 21 23 29 27 27 30 29 30 33 27 28 36 40 41 35 31
34 32 36 37 28 39 43 46 41 39 37 36 36 39 44 41 39
34 32 38 38 34 32 30 32 35 35 30 34 45 60 62 55 48
48 46 43 37 37 36 30 33 40 46 38 37 40 42 42 39 36
34 30 28 29 34 40 37 34 35 35 34 36 46 47 37 33 32
30 30 29 29 31 34 36 36 32 31 30 30 27 27 27 29 30
30 34 34 34 36 41 39 38 42 48 43 44 45 47 49 49 47
46 55 60 70 67 59 46 43 37 41 43 47 46 42 52 39 41
39 39 46 49 50 42 44 43 36 35 35 30 33 32 28 29 29
30 32 33 32 35 39 36 34 34 36 35 39 35 40 42 39 45
45 38 30 31 33 30 26 26 28 28 28 30 34 37 36 34 34
31 33 35 34 32 36 43 39 39 37 34 32 30 27 28 29 28
28 26 28 30 30 31 34 35 39 37 35 33 32 33 29 30 32
31 29 33 34 36 29 28 31 31 32 34 31 30 33 38 34 28
24 27 27 28 28 28 30 34 32 31 31 32 30 27 26 24 25
25 24 25 20 20 23 22 20 22 21 22 23 24 25 24 26 24
22 20 22 22 26 24 22 22 22 22 22 23 22 22 23 24 22
24 24 23 24 24 25 22 23 26 29 28 30 29 30 25 27 27
26 23 25 24 25 22 22 25 25 24 23 24 25 25 25 24 24
27 26 24 28 26 28 26 25 24 24 25 23 22 23 26 25 26
26 23 23 24 27 26 25 24 26 26 21 22 20 24 30 31 26
30 32 28 26 25 25 25 23 29 32 30 29 29 26 24 29 27
28 30 28 26 26 28 28 30 27 30 29 30 33 34 29 29 30
31 30 33 31 29 28 24 26 25 24 23 22 28 33 28 35 36
33 30 26 26 28 25 23 22 23 23 23 23 22 23 23 22 23
23 23 21 21 19 18 18 20 18 19 21 22 20 21 23 22 22
20 21 22 20 19 22 22 21 20 22 24 28 24 21 20 23 21
20 24 26 27 28 29 24 25 25 25 24 22 20 24 25 25 23
23 25 24 22 22 23 20 21 23 25 24 25 27 28 28 29 30
32 34 30 35 35 38 39 45 44 38 33 32 34 41 42 43 40
41 40 43 40 44 39 40 38 40 40 36 30 34 33 35 31 28
35 38 42 46 50 46 40 37 38 36 38 33 28 27 35 41 43
39 36 41 43 42 38 36 34 37 39 42 44 39 38 40 37 41
53 49 50 53 39 35 33 30 31 32 37 39 33 32 32 32 30
30 28 28 29 29 30 33 33 34 36 38 39 38 42 43 44 42
40 39 45 49 47 47 52 62 61 61 68 68 64 54 54 46 54
56 51 42 37 41 44 45 41 43 40 41 39 38 37 35 34 31
30 33 36 33 30 31 32 35 31 36 39 36 34 32 34 36 39
39 38 36 32 30 34 32 34 29 31 33 35 33 36 38 36 35
34 33 31 30 30 34 38 38 38 37 37 38 38 35 32 30 30
30 26 30 30 31 33 38 39 39 39 39 36 36 36 37 33 34
33 33 37 36 36 35 37 37 33 33 34 34 37 32 28 34 33
35 38 30 30 30 31 31 30 30 34 34 35 33 24 24 28 26
22 22 25 24 24 21 22 24 27 27 29 24 22 23 22 24 26
26 22 22 20 22 24 24 26 24 23 22 23 23 24 23 21 21
20 22 22 27 26 23 25 25 23 22 24 25 27 27 21 20 24
23 21 20 20 20 23 23 21 21 26 26 28 25 22 23 23 20
20 21 21 21 23 21 26 29 27 29 30 30 30 32 30 27 31
30 26 26 25 25 24 23 28 29 28 26 28 29 28 30 35 34
30 33 39 40 33 29 29 37 32 32 29 34 33 27 25 27 27
26 23 22 23 26 27 29 29 32 28 27 27 30 31 32 32 32
29 29 27 30 30 35 38 33 27 26 28 28 25 24 24 24 24
28 30 33 36 31 24 24 22 25 24 25 24 23 23 24 24 21
21 20 25 22 24 22 20 20 22 24 23 20 18 20 19 21 21
21 21 20 21 20 18 18 17 17 17 17 22 22 21 23 24 25
24 22 23 23 24 26 25 26 22 25 26 27 26 26 24 27 30
27 23 22 22 21 22 26 24 22 21 23 25 23 22 26 33 31
29 31 32 32 33 32 31 36 36 35 34 32 27 33 34 37 35
36 40 41 37 40 41 38 41 37 46 46 40 42 44 46 43 40
34 37 40 39 36 32 37 36 38 54 55 53 48 45 42 42 40
37 31 31 40 49 46 43 42 39 38 42 41 38 37 34 37 45
55 52 40 36 40 53 49 47 45 43 38 37 32 34 33 39 36
35 33 35 31 32 31 31 31 32 35 30 33 33 32 33 37 41
40 40 44 47 50 43 42 45 48 39 40 44 46 59 61 58 62
67 73 61 56 53 53 38 42 38 38 40 42 39 43 40 33 32
32 31 29 29 32 31 28 28 30 30 35 40 36 30 29 33 33
36 42 39 35 29 30 29 29 29 29 29 31 28 29 30 33 35
36 36 34 32 32 33 36 36 37 35 32 33 35 35 37 34 28
31 34 35 34 32 32 35 35 38 39 42 38 38 39 40 39 37
34 34 34 34 34 37 37 37 44 42 42 33 27 25 27 22 26
28 29 27 31 27 28 29 26 30 32 31 30 32 31 34 31 28
28 28 25 21 22 26 22 23 26 31 31 28 29 27 27 28 26
24 23 26 24 23 20 19 23 24 28 27 21 21 24 24 26 27
25 24 23 27 29 28 25 25 26 28 28 26 22 24 24 23 21
21 22 23 23 22 20 23 22 20 20 21 22 22 24 25 23 20
22 20 21 24 24 22 20 21 22 22 21 22 23 28 29 34 41
36 26 22 21 20 23 22 23 27 27 28 24 26 29 32 32 32
34 37 35 32 26 34 37 34 36 40 39 35 35 30 27 24 24
28 31 29 33 32 34 31 30 30 30 27 26 24 25 24 23 26
27 30 29 30 28 34 32 38 35 37 34 32 31 27 26 25 24
25 25 23 23 22 24 26 21 20 21 23 24 27 25 24 25 24
24 25 24 23 19 18 17 20 22 23 22 20 18 20 23 22 18
17 15 17 19 22 22 20 21 19 21 21 21 19 18 21 22 24
25 24 26 29 28 28 28 25 25 20 21 19 22 21 20 20 20
20 21 23 22 24 23 22 22 23 23 28 28 34 29 25 24 23
23 24 22 24 30 30 29 29 32 34 35 32 34 34 33 32 35
34 38 37 31 34 41 41 36 39 36 38 47 41 37 44 48 48
48 48 48 50 45 37 41 47 48 43 43 46 48 39 42 58 56
54 59 48 49 48 39 40 36 38 41 46 48 42 43 41 40 40
43 45 42 38 37 46 52 49 38 39 41 44 53 52 55 46 38
36 35 38 42 42 39 40 40 42 40 37 36 33 33 35 33 35
34 31 31 33 32 38 38 36 39 44 48 48 44 42 47 48 43
41 48 64 66 64 62 57 53 57 55 42 37 36 42 44 40 40
36 33 30 30 32 31 33 34 32 30 35 35 38 40 43 36 31
36 36 33 36 38 33 30 31 35 36 33 34 33 34 32 32 36
37 37 32 32 39 42 40 37 36 39 40 40 37 35 28 30 27
24 23 27 30 30 33 32 36 36 30 29 28 28 29 25 26 32
32 31 32 33 32 32 32 32 35 37 41 43 47 34 29 25 28
25 26 31 30 30 30 33 33 29 28 30 32 35 34 37 38 37
36 32 29 28 28 29 25 27 26 26 24 27 29 31 31 35 33
28 25 22 23 25 28 32 24 23 21 24 25 24 22 22 23 24
24 24 27 25 22 22 24 25 24 23 23 25 28 26 28 25 27
27 27 23 23 22 25 24 22 21 22 21 21 20 19 23 24 22
24 24 23 24 28 23 23 21 21 21 21 22 22 24 25 26 26
24 23 23 21 20 19 17 20 20 20 18 19 21 25 28 25 25
27 31 33 32 33 35 36 39 42 40 44 37 35 39 39 33 28
30 30 31 32 34 33 29 27 32 35 38 32 27 28 25 25 27
27 27 28 25 24 21 24 27 28 25 27 28 30 31 33 35 33
36 28 27 28 29 28 29 25 24 21 19 18 18 22 23 22 22
22 26 25 22 20 20 18 18 20 19 18 18 18 20 23 23 21
20 20 22 23 21 18 18 17 19 21 24 25 23 23 22 21 23
22 20 21 22 22 22 22 21 21 21 23 27 23 23 22 22 21
17 18 17 16 18 18 17 18 18 20 20 20 21 20 19 21 22
26 27 27 25 25 23 20 21 21 27 30 28 26 27 30 29 30
31 35 35 34 35 32 37 40 44 44 49 51 47 38 41 39 45
52 43 45 44 39 45 45 48 51 54 44 45 47 51 47 48 51
57 51 43 48 44 40 40 45 43 43 45 41 39 38 41 47 52
50 45 46 44 41 35 37 39 34 34 35 43 55 50 47 47 48
43 56 54 56 46 45 45 42 42 50 51 44 46 44 39 35 38
38 38 34 32 36 38 37 34 32 35 35 38 37 34 35 39 47
53 45 40 42 45 42 36 36 43 44 59 59 67 62 42 42 46
44 41 35 29 26 29 30 27 29 33 33 35 37 43 43 43 38
37 28 26 26 30 30 34 33 33 36 39 40 42 42 36 35 32
34 33 33 33 33 33 35 46 44 37 40 43 43 43 46 38 30
29 28 27 26 28 32 34 34 35 35 30 27 27 29 29 28 26
26 30 34 32 31 33 36 35 32 29 32 36 38 39 42 35 27
24 26 28 28 32 33 31 31 32 36 34 29 34 34 35 30 29
31 30 28 31 28 27 28 30 25 27 27 24 27 26 29 27 31
29 28 25 21 23 22 23 26 27 26 24 20 21 22 22 25 25
24 25 26 26 28 26 21 23 21 22 22 21 23 26 28 28 28
29 30 28 28 28 29 31 24 24 31 28 26 25 26 24 25 28
29 26 23 24 23 20 25 26 25 21 20 18 20 21 25 26 25
25 27 30 29 28 25 22 21 18 20 17 20 21 21 19 20 19
20 20 20 20 21 23 22 24 24 23 24 24 24 28 26 31 30
30 29 29 28 32 38 39 30 28 34 33 34 32 32 32 29 27
30 30 27 27 26 27 31 30 27 26 27 27 25 24 28 27 22
21 21 22 21 28 25 26 28 28 24 24 26 25 20 18 20 22
22 21 22 22 22 22 22 22 22 24 21 22 20 21 20 19 18
20 21 23 28 22 21 22 25 23 19 19 19 19 18 21 22 28
24 23 25 25 24 21 21 21 21 22 20 22 20 20 19 19 19
21 22 21 20 20 19 17 17 18 16 15 16 14 15 18 18 17
18 17 20 20 20 21 22 23 23 25 23 22 21 20 21 26 29
29 28 28 28 30 28 25 28 26 28 28 29 33 30 31 42 50
55 50 44 39 39 39 45 50 43 40 40 42 37 40 35 38 35
38 47 46 44 49 41 40 38 40 46 44 43 48 42 36 35 37
34 36 38 36 43 44 44 46 43 42 40 36 36 36 38 39 38
40 50 49 47 51 53 50 55 58 51 44 43 46 44 44 41 49
52 55 53 41 39 40 38 36 36 38 36 34 33 29 29 35 35
36 32 34 36 43 53 56 44 40 44 42 38 39 40 46 48 45
52 43 36 34 28 28 26 29 26 27 28 34 30 30 34 33 33
34 28 25 23 27 29 28 29 35 34 37 40 41 44 41 30 36
37 32 35 37 34 34 34 37 35 42 45 40 36 41 35 36 35
35 28 28 30 31 28 31 36 38 41 35 38 39 28 28 27 26
25 25 27 28 33 30 28 31 32 31 31 29 31 38 38 38 44
45 34 26 27 27 28 29 28 30 32 38 36 37 33 30 28 29
28 27 28 28 27 28 30 28 32 30 26 25 26 25 30 30 27
29 31 31 25 22 22 20 20 20 20 19 21 21 20 19 22 25
24 24 25 24 24 25 24 22 22 21 23 24 23 24 23 30 37
37 35 30 26 27 26 26 28 32 30 31 34 37 34 28 30 30
28 31 32 32 29 29 28 25 24 25 25 25 25 28 26 24 27
31 30 28 26 26 27 26 25 23 23 22 24 25 25 29 28 28
25 21 20 19 20 21 21 21 20 22 24 23 24 25 22 22 21
20 19 20 22 22 22 27 27 30 28 27 29 28 24 25 32 29
34 30 28 28 31 30 31 27 26 26 31 33 30 32 29 27 29
27 29 29 28 29 25 23 24 24 24 28 30 28 30 31 31 30
31 27 29 26 26 26 24 26 24 23 25 22 22 20 26 22 21
25 25 24 18 18 19 20 21 24 27 25 25 23 24 21 25 22
24 22 21 25 26 26 23 23 22 23 26 22 19 19 22 22 24
28 25 23 22 21 22 22 21 19 22 20 22 21 20 20 20 19
18 19 22 19 20 17 20 21 21 21 22 19 22 23 23 25 22
23 22 22 25 28 28 28 27 28 33 33 33 30 30 26 24 25
28 30 30 33 40 42 44 40 37 31 31 34 34 34 35 36 38
35 32 32 33 33 31 30 31 36 42 44 40 41 40 44 43 42
47 47 44 41 38 39 34 32 32 33 40 42 45 42 39 41 42
42 38 40 42 43 40 42 45 49 53 55 50 50 61 55 58 48
47 51 50 53 50 45 45 49 50 44 42 41 40 38 36 37 33
32 32 30 34 34 31 33 34 35 34 40 45 43 42 35 44 37
45 39 43 50 50
